(.../Google Drive/eagle/ulp/pcb-gcode.ulp)
(Copyright 2005 - 2009 by John Johnson)
(See readme.txt for licensing terms.)
(This file generated from the board:)
(.../eagle/pwm2dc 10v/pwm2dc 10v.brd)
(Current profile is .../Google Drive/eagle/ulp/profiles/emc.pp  )
(This file generated 09-01-2013 8:43:47 PM)
(Settings from pcb-machine.h)
(  Tool Size)
(0.2200 )
(Z Axis Settings)
(  High     Up        Down     Drill)
(12.7000 	2.5400 	-0.2000 	-2.0000 )
(spindle on time = 1.0000)
(milling depth = -0.2540)
(text depth = -0.1270)
(tool change at 0.0000 0.0000 100.0000 )
(feed rate xy = F60.00 )
(feed rate z  = f200.00 )
G21
(Absolute Coordinates)
G90
G00 X0.0000 Y0.0000 
M03
G04 P1.000000
G00 Z2.5400 
G00 X-6.1438 Y20.1424 
G01 Z-0.2000 f200.00 
G01 X-5.8926 Y19.8912 F60.00 
G01 X-5.6130 Y19.8912 
G01 X-5.5652 Y19.8714 
G01 X-5.5286 Y19.8348 
G01 X-5.5088 Y19.7870 
G01 X-5.5088 Y19.5074 
G01 X-5.2576 Y19.2562 
G01 X-4.9024 Y19.2562 
G01 X-4.6512 Y19.5074 
G01 X-4.6512 Y19.7870 
G01 X-4.6314 Y19.8348 
G01 X-4.5948 Y19.8714 
G01 X-4.5470 Y19.8912 
G01 X-4.2674 Y19.8912 
G01 X-4.0162 Y20.1424 
G01 X-4.0162 Y20.4976 
G01 X-4.2674 Y20.7488 
G01 X-4.5470 Y20.7488 
G01 X-4.5948 Y20.7686 
G01 X-4.6314 Y20.8052 
G01 X-4.6512 Y20.8530 
G01 X-4.6512 Y21.1326 
G01 X-4.9024 Y21.3838 
G01 X-5.2576 Y21.3838 
G01 X-5.5088 Y21.1326 
G01 X-5.5088 Y20.8530 
G01 X-5.5286 Y20.8052 
G01 X-5.5652 Y20.7686 
G01 X-5.6130 Y20.7488 
G01 X-5.8926 Y20.7488 
G01 X-6.1438 Y20.4976 
G01 X-6.1438 Y20.1424 
G00 Z2.5400 
G00 X-5.7522 Y20.6024 
G01 Z-0.2000 f200.00 
G01 X-5.3624 Y20.6024 F60.00 
G01 X-5.3624 Y20.9922 
G01 X-5.3432 Y21.0640 
G01 X-5.3060 Y21.1284 
G01 X-5.2534 Y21.1810 
G01 X-5.1890 Y21.2182 
G01 X-5.1172 Y21.2374 
G01 X-5.0428 Y21.2374 
G01 X-4.9710 Y21.2182 
G01 X-4.9066 Y21.1810 
G01 X-4.8540 Y21.1284 
G01 X-4.8168 Y21.0640 
G01 X-4.7976 Y20.9922 
G01 X-4.7976 Y20.6024 
G01 X-4.4078 Y20.6024 
G01 X-4.3360 Y20.5832 
G01 X-4.2716 Y20.5460 
G01 X-4.2190 Y20.4934 
G01 X-4.1818 Y20.4290 
G01 X-4.1626 Y20.3572 
G01 X-4.1626 Y20.2828 
G01 X-4.1818 Y20.2110 
G01 X-4.2190 Y20.1466 
G01 X-4.2716 Y20.0940 
G01 X-4.3360 Y20.0568 
G01 X-4.4078 Y20.0376 
G01 X-4.7976 Y20.0376 
G01 X-4.7976 Y19.6478 
G01 X-4.8168 Y19.5760 
G01 X-4.8540 Y19.5116 
G01 X-4.9066 Y19.4590 
G01 X-4.9710 Y19.4218 
G01 X-5.0428 Y19.4026 
G01 X-5.1172 Y19.4026 
G01 X-5.1890 Y19.4218 
G01 X-5.2534 Y19.4590 
G01 X-5.3060 Y19.5116 
G01 X-5.3432 Y19.5760 
G01 X-5.3624 Y19.6478 
G01 X-5.3624 Y20.0376 
G01 X-5.7522 Y20.0376 
G01 X-5.8240 Y20.0568 
G01 X-5.8884 Y20.0940 
G01 X-5.9410 Y20.1466 
G01 X-5.9782 Y20.2110 
G01 X-5.9974 Y20.2828 
G01 X-5.9974 Y20.3572 
G01 X-5.9782 Y20.4290 
G01 X-5.9410 Y20.4934 
G01 X-5.8884 Y20.5460 
G01 X-5.8240 Y20.5832 
G01 X-5.7522 Y20.6024 
G00 Z2.5400 
G00 X-5.5342 Y1.7588 
G01 Z-0.2000 f200.00 
G01 X-5.4612 Y1.5825 F60.00 
G01 X-5.3263 Y1.4476 
G01 X-5.1500 Y1.3746 
G01 X-4.9592 Y1.3746 
G01 X-4.7829 Y1.4476 
G01 X-4.6480 Y1.5825 
G01 X-4.5750 Y1.7588 
G01 X-4.5750 Y3.2196 
G01 X-4.6480 Y3.3959 
G01 X-4.7829 Y3.5308 
G01 X-4.9592 Y3.6038 
G01 X-5.1500 Y3.6038 
G01 X-5.3263 Y3.5308 
G01 X-5.4612 Y3.3959 
G01 X-5.5342 Y3.2196 
G01 X-5.5342 Y3.0730 
G01 X-5.5540 Y3.0252 
G01 X-5.5906 Y2.9886 
G01 X-5.6384 Y2.9688 
G01 X-6.4200 Y2.9688 
G01 X-6.5963 Y2.8958 
G01 X-6.7312 Y2.7609 
G01 X-6.8042 Y2.5846 
G01 X-6.8042 Y2.3938 
G01 X-6.7312 Y2.2175 
G01 X-6.5963 Y2.0826 
G01 X-6.4200 Y2.0096 
G01 X-5.6384 Y2.0096 
G01 X-5.5906 Y1.9898 
G01 X-5.5540 Y1.9532 
G01 X-5.5342 Y1.9054 
G01 X-5.5342 Y1.8537 
G01 X-5.5342 Y1.7588 
G00 Z2.5400 
G00 X-6.3685 Y2.1560 
G01 Z-0.2000 f200.00 
G01 X-6.4532 Y2.1787 F60.00 
G01 X-6.5292 Y2.2226 
G01 X-6.5912 Y2.2846 
G01 X-6.6351 Y2.3606 
G01 X-6.6578 Y2.4453 
G01 X-6.6578 Y2.5331 
G01 X-6.6351 Y2.6178 
G01 X-6.5912 Y2.6938 
G01 X-6.5292 Y2.7558 
G01 X-6.4532 Y2.7997 
G01 X-6.3685 Y2.8224 
G01 X-5.3878 Y2.8224 
G01 X-5.3878 Y3.1681 
G01 X-5.3651 Y3.2528 
G01 X-5.3212 Y3.3288 
G01 X-5.2592 Y3.3908 
G01 X-5.1832 Y3.4347 
G01 X-5.0985 Y3.4574 
G01 X-5.0107 Y3.4574 
G01 X-4.9260 Y3.4347 
G01 X-4.8500 Y3.3908 
G01 X-4.7880 Y3.3288 
G01 X-4.7441 Y3.2528 
G01 X-4.7214 Y3.1681 
G01 X-4.7214 Y1.8103 
G01 X-4.7441 Y1.7256 
G01 X-4.7880 Y1.6496 
G01 X-4.8500 Y1.5876 
G01 X-4.9260 Y1.5437 
G01 X-5.0107 Y1.5210 
G01 X-5.0985 Y1.5210 
G01 X-5.1832 Y1.5437 
G01 X-5.2592 Y1.5876 
G01 X-5.3212 Y1.6496 
G01 X-5.3651 Y1.7256 
G01 X-5.3878 Y1.8103 
G01 X-5.3878 Y2.1560 
G01 X-6.3685 Y2.1560 
G00 Z2.5400 
G00 X-22.5153 Y32.8735 
G01 Z-0.2000 f200.00 
G01 X-22.4809 Y32.7305 F60.00 
G01 X-22.4247 Y32.5947 
G01 X-22.3479 Y32.4694 
G01 X-22.2524 Y32.3576 
G01 X-22.1406 Y32.2621 
G01 X-22.0153 Y32.1853 
G01 X-21.8795 Y32.1290 
G01 X-21.7365 Y32.0947 
G01 X-21.5900 Y32.0832 
G01 X-21.4435 Y32.0947 
G01 X-21.3005 Y32.1290 
G01 X-21.1647 Y32.1853 
G01 X-21.0394 Y32.2621 
G01 X-20.9276 Y32.3576 
G01 X-20.8321 Y32.4694 
G01 X-20.7553 Y32.5947 
G01 X-20.6990 Y32.7305 
G01 X-20.6647 Y32.8734 
G01 X-20.6532 Y33.0200 
G01 X-20.6647 Y33.1665 
G01 X-20.6990 Y33.3095 
G01 X-20.7553 Y33.4453 
G01 X-20.8321 Y33.5706 
G01 X-20.9276 Y33.6824 
G01 X-21.0394 Y33.7779 
G01 X-21.1647 Y33.8547 
G01 X-21.3005 Y33.9109 
G01 X-21.4435 Y33.9453 
G01 X-21.5900 Y33.9568 
G01 X-21.7365 Y33.9453 
G01 X-21.8795 Y33.9109 
G01 X-22.0153 Y33.8547 
G01 X-22.1406 Y33.7779 
G01 X-22.2524 Y33.6824 
G01 X-22.3479 Y33.5706 
G01 X-22.4247 Y33.4453 
G01 X-22.4809 Y33.3095 
G01 X-22.5153 Y33.1665 
G01 X-22.5268 Y33.0200 
G01 X-22.5153 Y32.8735 
G00 Z2.5400 
G00 X-22.3060 Y32.6793 
G01 Z-0.2000 f200.00 
G01 X-22.3109 Y32.7010 F60.00 
G01 X-22.3171 Y32.7223 
G01 X-22.3166 Y32.7261 
G01 X-22.3722 Y32.9695 
G01 X-22.3742 Y32.9727 
G01 X-22.3779 Y32.9946 
G01 X-22.3829 Y33.0163 
G01 X-22.3822 Y33.0200 
G01 X-22.3829 Y33.0237 
G01 X-22.3779 Y33.0454 
G01 X-22.3742 Y33.0673 
G01 X-22.3722 Y33.0705 
G01 X-22.3166 Y33.3139 
G01 X-22.3171 Y33.3177 
G01 X-22.3109 Y33.3390 
G01 X-22.3060 Y33.3607 
G01 X-22.3038 Y33.3638 
G01 X-22.3027 Y33.3674 
G01 X-22.2889 Y33.3847 
G01 X-22.2760 Y33.4028 
G01 X-22.2728 Y33.4049 
G01 X-22.1171 Y33.6001 
G01 X-22.1159 Y33.6036 
G01 X-22.1011 Y33.6202 
G01 X-22.0873 Y33.6376 
G01 X-22.0840 Y33.6394 
G01 X-22.0814 Y33.6422 
G01 X-22.0614 Y33.6518 
G01 X-22.0420 Y33.6626 
G01 X-22.0382 Y33.6630 
G01 X-21.8132 Y33.7714 
G01 X-21.8106 Y33.7740 
G01 X-21.7901 Y33.7825 
G01 X-21.7701 Y33.7922 
G01 X-21.7663 Y33.7924 
G01 X-21.7628 Y33.7938 
G01 X-21.7406 Y33.7938 
G01 X-21.7184 Y33.7951 
G01 X-21.7149 Y33.7938 
G01 X-21.4651 Y33.7938 
G01 X-21.4616 Y33.7951 
G01 X-21.4394 Y33.7938 
G01 X-21.4172 Y33.7938 
G01 X-21.4137 Y33.7924 
G01 X-21.4099 Y33.7922 
G01 X-21.3899 Y33.7825 
G01 X-21.3694 Y33.7740 
G01 X-21.3667 Y33.7714 
G01 X-21.1418 Y33.6630 
G01 X-21.1380 Y33.6626 
G01 X-21.1185 Y33.6518 
G01 X-21.0986 Y33.6422 
G01 X-21.0960 Y33.6394 
G01 X-21.0927 Y33.6376 
G01 X-21.0789 Y33.6202 
G01 X-21.0641 Y33.6037 
G01 X-21.0628 Y33.6001 
G01 X-20.9071 Y33.4048 
G01 X-20.9040 Y33.4028 
G01 X-20.8911 Y33.3847 
G01 X-20.8773 Y33.3674 
G01 X-20.8762 Y33.3637 
G01 X-20.8740 Y33.3607 
G01 X-20.8691 Y33.3390 
G01 X-20.8629 Y33.3177 
G01 X-20.8634 Y33.3139 
G01 X-20.8078 Y33.0705 
G01 X-20.8058 Y33.0673 
G01 X-20.8021 Y33.0454 
G01 X-20.7971 Y33.0237 
G01 X-20.7978 Y33.0200 
G01 X-20.7971 Y33.0163 
G01 X-20.8021 Y32.9946 
G01 X-20.8058 Y32.9727 
G01 X-20.8078 Y32.9695 
G01 X-20.8634 Y32.7261 
G01 X-20.8629 Y32.7223 
G01 X-20.8691 Y32.7010 
G01 X-20.8740 Y32.6793 
G01 X-20.8762 Y32.6763 
G01 X-20.8773 Y32.6726 
G01 X-20.8911 Y32.6553 
G01 X-20.9040 Y32.6371 
G01 X-20.9072 Y32.6351 
G01 X-21.0628 Y32.4399 
G01 X-21.0641 Y32.4363 
G01 X-21.0789 Y32.4198 
G01 X-21.0927 Y32.4024 
G01 X-21.0960 Y32.4006 
G01 X-21.0986 Y32.3978 
G01 X-21.1186 Y32.3882 
G01 X-21.1380 Y32.3774 
G01 X-21.1418 Y32.3770 
G01 X-21.3667 Y32.2686 
G01 X-21.3694 Y32.2660 
G01 X-21.3899 Y32.2575 
G01 X-21.4099 Y32.2478 
G01 X-21.4137 Y32.2476 
G01 X-21.4172 Y32.2462 
G01 X-21.4394 Y32.2462 
G01 X-21.4616 Y32.2449 
G01 X-21.4651 Y32.2462 
G01 X-21.7149 Y32.2462 
G01 X-21.7184 Y32.2449 
G01 X-21.7406 Y32.2462 
G01 X-21.7628 Y32.2462 
G01 X-21.7663 Y32.2476 
G01 X-21.7701 Y32.2478 
G01 X-21.7901 Y32.2575 
G01 X-21.8106 Y32.2660 
G01 X-21.8132 Y32.2686 
G01 X-22.0382 Y32.3770 
G01 X-22.0420 Y32.3774 
G01 X-22.0615 Y32.3882 
G01 X-22.0814 Y32.3978 
G01 X-22.0839 Y32.4006 
G01 X-22.0873 Y32.4024 
G01 X-22.1011 Y32.4198 
G01 X-22.1159 Y32.4363 
G01 X-22.1171 Y32.4399 
G01 X-22.2728 Y32.6351 
G01 X-22.2760 Y32.6371 
G01 X-22.2889 Y32.6553 
G01 X-22.3027 Y32.6726 
G01 X-22.3038 Y32.6763 
G01 X-22.3060 Y32.6793 
G00 Z2.5400 
G00 X-21.9786 Y31.3175 
G01 Z-0.2000 f200.00 
G01 X-21.2014 Y31.3175 F60.00 
G01 X-20.5012 Y31.6547 
G01 X-20.0167 Y32.2623 
G01 X-19.8437 Y33.0200 
G01 X-20.0167 Y33.7777 
G01 X-20.5012 Y34.3853 
G01 X-21.2014 Y34.7225 
G01 X-21.9786 Y34.7225 
G01 X-22.6788 Y34.3853 
G01 X-23.1633 Y33.7777 
G01 X-23.3363 Y33.0200 
G01 X-23.1633 Y32.2623 
G01 X-22.6788 Y31.6547 
G01 X-21.9786 Y31.3175 
G00 Z2.5400 
G00 X-23.1735 Y32.7692 
G01 Z-0.2000 f200.00 
G01 X-23.1735 Y32.7692 F60.00 
G01 X-23.1932 Y33.0200 
G01 X-23.1735 Y33.2708 
G01 X-23.1147 Y33.5154 
G01 X-23.0185 Y33.7478 
G01 X-22.8870 Y33.9623 
G01 X-22.7236 Y34.1536 
G01 X-22.5323 Y34.3170 
G01 X-22.3178 Y34.4485 
G01 X-22.0854 Y34.5447 
G01 X-21.8408 Y34.6035 
G01 X-21.5900 Y34.6232 
G01 X-21.3392 Y34.6035 
G01 X-21.0946 Y34.5447 
G01 X-20.8622 Y34.4485 
G01 X-20.6477 Y34.3170 
G01 X-20.4564 Y34.1536 
G01 X-20.2930 Y33.9623 
G01 X-20.1615 Y33.7478 
G01 X-20.0653 Y33.5154 
G01 X-20.0065 Y33.2708 
G01 X-19.9868 Y33.0200 
G01 X-20.0065 Y32.7692 
G01 X-20.0653 Y32.5246 
G01 X-20.1615 Y32.2922 
G01 X-20.2930 Y32.0777 
G01 X-20.4564 Y31.8864 
G01 X-20.6477 Y31.7230 
G01 X-20.8622 Y31.5915 
G01 X-21.0946 Y31.4953 
G01 X-21.3392 Y31.4365 
G01 X-21.5900 Y31.4168 
G01 X-21.8408 Y31.4365 
G01 X-22.0854 Y31.4953 
G01 X-22.3178 Y31.5915 
G01 X-22.5323 Y31.7230 
G01 X-22.7236 Y31.8864 
G01 X-22.8870 Y32.0777 
G01 X-23.0185 Y32.2922 
G01 X-23.1147 Y32.5246 
G01 X-23.1735 Y32.7692 
G00 Z2.5400 
G00 X-22.5153 Y2.3935 
G01 Z-0.2000 f200.00 
G01 X-22.4809 Y2.2505 F60.00 
G01 X-22.4247 Y2.1147 
G01 X-22.3479 Y1.9894 
G01 X-22.2524 Y1.8776 
G01 X-22.1406 Y1.7821 
G01 X-22.0153 Y1.7053 
G01 X-21.8795 Y1.6490 
G01 X-21.7365 Y1.6147 
G01 X-21.5900 Y1.6032 
G01 X-21.4435 Y1.6147 
G01 X-21.3005 Y1.6490 
G01 X-21.1647 Y1.7053 
G01 X-21.0394 Y1.7821 
G01 X-20.9276 Y1.8776 
G01 X-20.8321 Y1.9894 
G01 X-20.7553 Y2.1147 
G01 X-20.6990 Y2.2505 
G01 X-20.6647 Y2.3935 
G01 X-20.6532 Y2.5400 
G01 X-20.6647 Y2.6865 
G01 X-20.6990 Y2.8295 
G01 X-20.7553 Y2.9653 
G01 X-20.8321 Y3.0906 
G01 X-20.9276 Y3.2024 
G01 X-21.0394 Y3.2979 
G01 X-21.1647 Y3.3747 
G01 X-21.3005 Y3.4310 
G01 X-21.4435 Y3.4653 
G01 X-21.5900 Y3.4768 
G01 X-21.7365 Y3.4653 
G01 X-21.8795 Y3.4310 
G01 X-22.0153 Y3.3747 
G01 X-22.1406 Y3.2979 
G01 X-22.2524 Y3.2024 
G01 X-22.3479 Y3.0906 
G01 X-22.4247 Y2.9653 
G01 X-22.4809 Y2.8295 
G01 X-22.5153 Y2.6865 
G01 X-22.5268 Y2.5400 
G01 X-22.5153 Y2.3935 
G00 Z2.5400 
G00 X-22.0873 Y1.9224 
G01 Z-0.2000 f200.00 
G01 X-22.1011 Y1.9398 F60.00 
G01 X-22.1159 Y1.9563 
G01 X-22.1171 Y1.9599 
G01 X-22.2728 Y2.1551 
G01 X-22.2760 Y2.1572 
G01 X-22.2889 Y2.1753 
G01 X-22.3027 Y2.1926 
G01 X-22.3038 Y2.1963 
G01 X-22.3060 Y2.1993 
G01 X-22.3109 Y2.2210 
G01 X-22.3171 Y2.2423 
G01 X-22.3166 Y2.2461 
G01 X-22.3722 Y2.4895 
G01 X-22.3742 Y2.4927 
G01 X-22.3779 Y2.5146 
G01 X-22.3829 Y2.5363 
G01 X-22.3822 Y2.5400 
G01 X-22.3829 Y2.5437 
G01 X-22.3779 Y2.5654 
G01 X-22.3742 Y2.5873 
G01 X-22.3722 Y2.5905 
G01 X-22.3166 Y2.8339 
G01 X-22.3171 Y2.8377 
G01 X-22.3109 Y2.8590 
G01 X-22.3060 Y2.8807 
G01 X-22.3038 Y2.8837 
G01 X-22.3027 Y2.8874 
G01 X-22.2889 Y2.9047 
G01 X-22.2760 Y2.9228 
G01 X-22.2728 Y2.9248 
G01 X-22.1171 Y3.1201 
G01 X-22.1159 Y3.1236 
G01 X-22.1011 Y3.1402 
G01 X-22.0873 Y3.1576 
G01 X-22.0840 Y3.1594 
G01 X-22.0814 Y3.1622 
G01 X-22.0614 Y3.1718 
G01 X-22.0420 Y3.1826 
G01 X-22.0382 Y3.1830 
G01 X-21.8132 Y3.2914 
G01 X-21.8106 Y3.2940 
G01 X-21.7901 Y3.3025 
G01 X-21.7701 Y3.3122 
G01 X-21.7663 Y3.3124 
G01 X-21.7628 Y3.3138 
G01 X-21.7406 Y3.3138 
G01 X-21.7184 Y3.3151 
G01 X-21.7149 Y3.3138 
G01 X-21.4651 Y3.3138 
G01 X-21.4616 Y3.3151 
G01 X-21.4394 Y3.3138 
G01 X-21.4172 Y3.3138 
G01 X-21.4137 Y3.3124 
G01 X-21.4099 Y3.3122 
G01 X-21.3899 Y3.3025 
G01 X-21.3694 Y3.2940 
G01 X-21.3667 Y3.2914 
G01 X-21.1418 Y3.1830 
G01 X-21.1380 Y3.1826 
G01 X-21.1186 Y3.1718 
G01 X-21.0986 Y3.1622 
G01 X-21.0960 Y3.1594 
G01 X-21.0927 Y3.1576 
G01 X-21.0789 Y3.1402 
G01 X-21.0641 Y3.1236 
G01 X-21.0628 Y3.1201 
G01 X-20.9072 Y2.9248 
G01 X-20.9040 Y2.9228 
G01 X-20.8911 Y2.9047 
G01 X-20.8773 Y2.8874 
G01 X-20.8762 Y2.8837 
G01 X-20.8740 Y2.8807 
G01 X-20.8691 Y2.8590 
G01 X-20.8629 Y2.8377 
G01 X-20.8634 Y2.8339 
G01 X-20.8078 Y2.5905 
G01 X-20.8058 Y2.5873 
G01 X-20.8021 Y2.5654 
G01 X-20.7971 Y2.5437 
G01 X-20.7978 Y2.5400 
G01 X-20.7971 Y2.5363 
G01 X-20.8021 Y2.5146 
G01 X-20.8058 Y2.4927 
G01 X-20.8078 Y2.4895 
G01 X-20.8634 Y2.2461 
G01 X-20.8629 Y2.2423 
G01 X-20.8691 Y2.2210 
G01 X-20.8740 Y2.1993 
G01 X-20.8762 Y2.1963 
G01 X-20.8773 Y2.1926 
G01 X-20.8911 Y2.1753 
G01 X-20.9040 Y2.1572 
G01 X-20.9072 Y2.1551 
G01 X-21.0628 Y1.9599 
G01 X-21.0641 Y1.9563 
G01 X-21.0789 Y1.9398 
G01 X-21.0927 Y1.9224 
G01 X-21.0960 Y1.9206 
G01 X-21.0986 Y1.9178 
G01 X-21.1186 Y1.9082 
G01 X-21.1380 Y1.8974 
G01 X-21.1418 Y1.8970 
G01 X-21.3667 Y1.7886 
G01 X-21.3694 Y1.7860 
G01 X-21.3899 Y1.7775 
G01 X-21.4099 Y1.7678 
G01 X-21.4137 Y1.7676 
G01 X-21.4172 Y1.7662 
G01 X-21.4394 Y1.7662 
G01 X-21.4616 Y1.7649 
G01 X-21.4651 Y1.7662 
G01 X-21.7149 Y1.7662 
G01 X-21.7184 Y1.7649 
G01 X-21.7406 Y1.7662 
G01 X-21.7628 Y1.7662 
G01 X-21.7663 Y1.7676 
G01 X-21.7701 Y1.7678 
G01 X-21.7901 Y1.7775 
G01 X-21.8106 Y1.7860 
G01 X-21.8133 Y1.7886 
G01 X-22.0382 Y1.8970 
G01 X-22.0420 Y1.8974 
G01 X-22.0614 Y1.9082 
G01 X-22.0814 Y1.9178 
G01 X-22.0840 Y1.9206 
G01 X-22.0873 Y1.9224 
G00 Z2.5400 
G00 X-21.9786 Y0.8375 
G01 Z-0.2000 f200.00 
G01 X-21.2014 Y0.8375 F60.00 
G01 X-20.5012 Y1.1747 
G01 X-20.0167 Y1.7823 
G01 X-19.8437 Y2.5400 
G01 X-20.0167 Y3.2977 
G01 X-20.5012 Y3.9053 
G01 X-21.2014 Y4.2425 
G01 X-21.9786 Y4.2425 
G01 X-22.6788 Y3.9053 
G01 X-23.1633 Y3.2977 
G01 X-23.3363 Y2.5400 
G01 X-23.1633 Y1.7823 
G01 X-22.6788 Y1.1747 
G01 X-21.9786 Y0.8375 
G00 Z2.5400 
G00 X-23.1735 Y2.2892 
G01 Z-0.2000 f200.00 
G01 X-23.1735 Y2.2892 F60.00 
G01 X-23.1932 Y2.5400 
G01 X-23.1735 Y2.7908 
G01 X-23.1147 Y3.0354 
G01 X-23.0185 Y3.2678 
G01 X-22.8870 Y3.4823 
G01 X-22.7236 Y3.6736 
G01 X-22.5323 Y3.8370 
G01 X-22.3178 Y3.9685 
G01 X-22.0854 Y4.0647 
G01 X-21.8408 Y4.1235 
G01 X-21.5900 Y4.1432 
G01 X-21.3392 Y4.1235 
G01 X-21.0946 Y4.0647 
G01 X-20.8622 Y3.9685 
G01 X-20.6477 Y3.8370 
G01 X-20.4564 Y3.6736 
G01 X-20.2930 Y3.4823 
G01 X-20.1615 Y3.2678 
G01 X-20.0653 Y3.0354 
G01 X-20.0065 Y2.7908 
G01 X-19.9868 Y2.5400 
G01 X-20.0065 Y2.2892 
G01 X-20.0653 Y2.0446 
G01 X-20.1615 Y1.8122 
G01 X-20.2930 Y1.5977 
G01 X-20.4564 Y1.4064 
G01 X-20.6477 Y1.2430 
G01 X-20.8622 Y1.1115 
G01 X-21.0946 Y1.0153 
G01 X-21.3392 Y0.9565 
G01 X-21.5900 Y0.9368 
G01 X-21.8408 Y0.9565 
G01 X-22.0854 Y1.0153 
G01 X-22.3178 Y1.1115 
G01 X-22.5323 Y1.2430 
G01 X-22.7236 Y1.4064 
G01 X-22.8870 Y1.5977 
G01 X-23.0185 Y1.8122 
G01 X-23.1147 Y2.0446 
G01 X-23.1735 Y2.2892 
G00 Z2.5400 
G00 X-3.4653 Y2.3935 
G01 Z-0.2000 f200.00 
G01 X-3.4310 Y2.2505 F60.00 
G01 X-3.3747 Y2.1147 
G01 X-3.2979 Y1.9894 
G01 X-3.2024 Y1.8776 
G01 X-3.0906 Y1.7821 
G01 X-2.9653 Y1.7053 
G01 X-2.8295 Y1.6490 
G01 X-2.6865 Y1.6147 
G01 X-2.5400 Y1.6032 
G01 X-2.3935 Y1.6147 
G01 X-2.2505 Y1.6490 
G01 X-2.1147 Y1.7053 
G01 X-1.9894 Y1.7821 
G01 X-1.8776 Y1.8776 
G01 X-1.7821 Y1.9894 
G01 X-1.7053 Y2.1147 
G01 X-1.6490 Y2.2505 
G01 X-1.6147 Y2.3935 
G01 X-1.6032 Y2.5400 
G01 X-1.6147 Y2.6865 
G01 X-1.6490 Y2.8295 
G01 X-1.7053 Y2.9653 
G01 X-1.7821 Y3.0906 
G01 X-1.8776 Y3.2024 
G01 X-1.9894 Y3.2979 
G01 X-2.1147 Y3.3747 
G01 X-2.2505 Y3.4310 
G01 X-2.3935 Y3.4653 
G01 X-2.5400 Y3.4768 
G01 X-2.6865 Y3.4653 
G01 X-2.8295 Y3.4310 
G01 X-2.9653 Y3.3747 
G01 X-3.0906 Y3.2979 
G01 X-3.2024 Y3.2024 
G01 X-3.2979 Y3.0906 
G01 X-3.3747 Y2.9653 
G01 X-3.4310 Y2.8295 
G01 X-3.4653 Y2.6865 
G01 X-3.4768 Y2.5400 
G01 X-3.4653 Y2.3935 
G00 Z2.5400 
G00 X-3.0373 Y1.9224 
G01 Z-0.2000 f200.00 
G01 X-3.0511 Y1.9398 F60.00 
G01 X-3.0659 Y1.9563 
G01 X-3.0671 Y1.9599 
G01 X-3.2228 Y2.1551 
G01 X-3.2260 Y2.1572 
G01 X-3.2389 Y2.1753 
G01 X-3.2527 Y2.1926 
G01 X-3.2538 Y2.1963 
G01 X-3.2560 Y2.1993 
G01 X-3.2609 Y2.2210 
G01 X-3.2671 Y2.2423 
G01 X-3.2666 Y2.2461 
G01 X-3.3222 Y2.4895 
G01 X-3.3242 Y2.4927 
G01 X-3.3279 Y2.5146 
G01 X-3.3329 Y2.5363 
G01 X-3.3322 Y2.5400 
G01 X-3.3329 Y2.5437 
G01 X-3.3279 Y2.5654 
G01 X-3.3242 Y2.5873 
G01 X-3.3222 Y2.5905 
G01 X-3.2666 Y2.8339 
G01 X-3.2671 Y2.8377 
G01 X-3.2609 Y2.8590 
G01 X-3.2560 Y2.8807 
G01 X-3.2538 Y2.8837 
G01 X-3.2527 Y2.8874 
G01 X-3.2389 Y2.9047 
G01 X-3.2260 Y2.9228 
G01 X-3.2228 Y2.9248 
G01 X-3.0671 Y3.1201 
G01 X-3.0659 Y3.1236 
G01 X-3.0511 Y3.1402 
G01 X-3.0373 Y3.1576 
G01 X-3.0339 Y3.1594 
G01 X-3.0314 Y3.1622 
G01 X-3.0114 Y3.1718 
G01 X-2.9920 Y3.1826 
G01 X-2.9882 Y3.1830 
G01 X-2.7632 Y3.2914 
G01 X-2.7606 Y3.2940 
G01 X-2.7401 Y3.3025 
G01 X-2.7201 Y3.3122 
G01 X-2.7163 Y3.3124 
G01 X-2.7128 Y3.3138 
G01 X-2.6906 Y3.3138 
G01 X-2.6684 Y3.3151 
G01 X-2.6649 Y3.3138 
G01 X-2.4151 Y3.3138 
G01 X-2.4116 Y3.3151 
G01 X-2.3894 Y3.3138 
G01 X-2.3672 Y3.3138 
G01 X-2.3637 Y3.3124 
G01 X-2.3599 Y3.3122 
G01 X-2.3399 Y3.3025 
G01 X-2.3194 Y3.2940 
G01 X-2.3167 Y3.2914 
G01 X-2.0918 Y3.1830 
G01 X-2.0880 Y3.1826 
G01 X-2.0686 Y3.1718 
G01 X-2.0486 Y3.1622 
G01 X-2.0460 Y3.1594 
G01 X-2.0427 Y3.1576 
G01 X-2.0289 Y3.1402 
G01 X-2.0141 Y3.1236 
G01 X-2.0128 Y3.1201 
G01 X-1.8571 Y2.9248 
G01 X-1.8540 Y2.9228 
G01 X-1.8411 Y2.9047 
G01 X-1.8273 Y2.8874 
G01 X-1.8262 Y2.8837 
G01 X-1.8240 Y2.8807 
G01 X-1.8191 Y2.8590 
G01 X-1.8129 Y2.8377 
G01 X-1.8134 Y2.8339 
G01 X-1.7578 Y2.5905 
G01 X-1.7558 Y2.5873 
G01 X-1.7521 Y2.5654 
G01 X-1.7471 Y2.5437 
G01 X-1.7478 Y2.5400 
G01 X-1.7471 Y2.5363 
G01 X-1.7521 Y2.5146 
G01 X-1.7558 Y2.4927 
G01 X-1.7578 Y2.4895 
G01 X-1.8134 Y2.2461 
G01 X-1.8129 Y2.2423 
G01 X-1.8191 Y2.2210 
G01 X-1.8240 Y2.1993 
G01 X-1.8262 Y2.1963 
G01 X-1.8273 Y2.1926 
G01 X-1.8411 Y2.1753 
G01 X-1.8540 Y2.1572 
G01 X-1.8571 Y2.1551 
G01 X-2.0128 Y1.9599 
G01 X-2.0141 Y1.9563 
G01 X-2.0289 Y1.9398 
G01 X-2.0427 Y1.9224 
G01 X-2.0460 Y1.9206 
G01 X-2.0486 Y1.9178 
G01 X-2.0686 Y1.9082 
G01 X-2.0880 Y1.8974 
G01 X-2.0918 Y1.8970 
G01 X-2.3167 Y1.7886 
G01 X-2.3194 Y1.7860 
G01 X-2.3399 Y1.7775 
G01 X-2.3599 Y1.7678 
G01 X-2.3637 Y1.7676 
G01 X-2.3672 Y1.7662 
G01 X-2.3894 Y1.7662 
G01 X-2.4116 Y1.7649 
G01 X-2.4151 Y1.7662 
G01 X-2.6649 Y1.7662 
G01 X-2.6684 Y1.7649 
G01 X-2.6906 Y1.7662 
G01 X-2.7128 Y1.7662 
G01 X-2.7163 Y1.7676 
G01 X-2.7201 Y1.7678 
G01 X-2.7401 Y1.7775 
G01 X-2.7606 Y1.7860 
G01 X-2.7633 Y1.7886 
G01 X-2.9882 Y1.8970 
G01 X-2.9920 Y1.8974 
G01 X-3.0114 Y1.9082 
G01 X-3.0314 Y1.9178 
G01 X-3.0339 Y1.9206 
G01 X-3.0373 Y1.9224 
G00 Z2.5400 
G00 X-2.9286 Y0.8375 
G01 Z-0.2000 f200.00 
G01 X-2.1514 Y0.8375 F60.00 
G01 X-1.4512 Y1.1747 
G01 X-0.9667 Y1.7823 
G01 X-0.7937 Y2.5400 
G01 X-0.9667 Y3.2977 
G01 X-1.4512 Y3.9053 
G01 X-2.1514 Y4.2425 
G01 X-2.5700 Y4.2425 
G01 X-2.5892 Y4.2505 
G01 X-2.6177 Y4.2623 
G01 X-2.6543 Y4.2988 
G01 X-2.6575 Y4.3065 
G01 X-2.6741 Y4.3466 
G01 X-2.6741 Y4.3984 
G01 X-2.6661 Y4.4176 
G01 X-2.6543 Y4.4461 
G01 X-2.6177 Y4.4827 
G01 X-2.6094 Y4.4861 
G01 X-2.5743 Y4.5007 
G01 X-1.9607 Y5.1143 
G01 X-1.6286 Y5.9161 
G01 X-1.6286 Y6.7839 
G01 X-1.9607 Y7.5857 
G01 X-2.5743 Y8.1993 
G01 X-3.3761 Y8.5314 
G01 X-6.7839 Y8.5314 
G01 X-7.5857 Y8.1993 
G01 X-8.1993 Y7.5857 
G01 X-8.3731 Y7.1662 
G01 X-8.3914 Y7.1219 
G01 X-8.3929 Y7.1184 
G01 X-8.4294 Y7.0818 
G01 X-8.4772 Y7.0620 
G01 X-10.8538 Y7.0620 
G01 X-10.9016 Y7.0818 
G01 X-10.9316 Y7.1118 
G01 X-12.8118 Y8.9921 
G01 X-12.8184 Y8.9986 
G01 X-12.8484 Y9.0286 
G01 X-12.8682 Y9.0764 
G01 X-12.8682 Y9.9237 
G01 X-12.9435 Y9.9990 
G01 X-12.9775 Y10.0330 
G01 X-12.9800 Y10.0356 
G01 X-12.9998 Y10.0833 
G01 X-12.9998 Y10.1351 
G01 X-12.9806 Y10.1815 
G01 X-12.9435 Y10.2194 
G01 X-12.8523 Y10.3106 
G01 X-12.8484 Y10.3200 
G01 X-12.8118 Y10.3566 
G01 X-12.7640 Y10.3764 
G01 X-9.3654 Y10.3764 
G01 X-9.3445 Y10.3780 
G01 X-9.3397 Y10.3764 
G01 X-9.3346 Y10.3764 
G01 X-9.3153 Y10.3684 
G01 X-9.2303 Y10.3744 
G01 X-9.2256 Y10.3764 
G01 X-9.2047 Y10.3764 
G01 X-9.1838 Y10.3780 
G01 X-9.1790 Y10.3764 
G01 X-9.0949 Y10.3764 
G01 X-9.0752 Y10.3863 
G01 X-9.0701 Y10.3866 
G01 X-9.0654 Y10.3886 
G01 X-9.0445 Y10.3886 
G01 X-8.4178 Y10.4364 
G01 X-8.4131 Y10.4383 
G01 X-8.3922 Y10.4383 
G01 X-8.3714 Y10.4399 
G01 X-8.3665 Y10.4383 
G01 X-8.3614 Y10.4383 
G01 X-8.3421 Y10.4303 
G01 X-8.3222 Y10.4238 
G01 X-8.3183 Y10.4205 
G01 X-8.3136 Y10.4185 
G01 X-8.2988 Y10.4038 
G01 X-8.2830 Y10.3901 
G01 X-8.2807 Y10.3856 
G01 X-8.2770 Y10.3820 
G01 X-8.2690 Y10.3627 
G01 X-8.2596 Y10.3440 
G01 X-8.2592 Y10.3389 
G01 X-8.1993 Y10.1943 
G01 X-7.5857 Y9.5807 
G01 X-6.7839 Y9.2486 
G01 X-3.3761 Y9.2486 
G01 X-2.5743 Y9.5807 
G01 X-1.9607 Y10.1943 
G01 X-1.6286 Y10.9961 
G01 X-1.6286 Y11.8639 
G01 X-1.9607 Y12.6657 
G01 X-2.5743 Y13.2793 
G01 X-3.3761 Y13.6114 
G01 X-6.7839 Y13.6114 
G01 X-7.5857 Y13.2793 
G01 X-8.1993 Y12.6657 
G01 X-8.5274 Y11.8735 
G01 X-8.5339 Y11.8537 
G01 X-8.5373 Y11.8498 
G01 X-8.5392 Y11.8451 
G01 X-8.5540 Y11.8303 
G01 X-8.5676 Y11.8144 
G01 X-8.5722 Y11.8121 
G01 X-8.5758 Y11.8085 
G01 X-8.5951 Y11.8005 
G01 X-8.6138 Y11.7910 
G01 X-8.6188 Y11.7907 
G01 X-8.6236 Y11.7887 
G01 X-8.6445 Y11.7887 
G01 X-9.2311 Y11.7440 
G01 X-9.2358 Y11.7420 
G01 X-9.2567 Y11.7420 
G01 X-9.2776 Y11.7404 
G01 X-9.2824 Y11.7420 
G01 X-11.5315 Y11.7420 
G01 X-11.5571 Y11.7420 
G01 X-11.5832 Y11.7420 
G01 X-11.6310 Y11.7618 
G01 X-11.6676 Y11.7984 
G01 X-11.6752 Y11.8168 
G01 X-11.6873 Y11.8462 
G01 X-11.6873 Y11.8717 
G01 X-11.6873 Y11.8979 
G01 X-11.6768 Y11.9234 
G01 X-11.6768 Y13.1531 
G01 X-11.6570 Y13.2009 
G01 X-11.5832 Y13.2747 
G01 X-11.5832 Y14.9037 
G01 X-11.7451 Y15.0656 
G01 X-12.6543 Y15.0656 
G01 X-12.7021 Y15.0854 
G01 X-12.7386 Y15.1220 
G01 X-12.7584 Y15.1698 
G01 X-12.7584 Y15.2215 
G01 X-12.7386 Y15.2693 
G01 X-12.7021 Y15.3058 
G01 X-12.5332 Y15.4747 
G01 X-12.5332 Y15.5022 
G01 X-12.5134 Y15.5500 
G01 X-12.4768 Y15.5866 
G01 X-12.4290 Y15.6064 
G01 X-9.2345 Y15.6064 
G01 X-9.2100 Y15.6069 
G01 X-9.2071 Y15.6064 
G01 X-9.2003 Y15.6036 
G01 X-9.0989 Y15.6058 
G01 X-9.0732 Y15.6064 
G01 X-9.0487 Y15.6069 
G01 X-8.9459 Y15.6064 
G01 X-8.9391 Y15.6094 
G01 X-8.9362 Y15.6100 
G01 X-8.9119 Y15.6100 
G01 X-8.4569 Y15.6201 
G01 X-8.4311 Y15.6207 
G01 X-8.4067 Y15.6212 
G01 X-8.4038 Y15.6207 
G01 X-8.3812 Y15.6113 
G01 X-8.3585 Y15.6025 
G01 X-8.3387 Y15.5836 
G01 X-8.3211 Y15.5667 
G01 X-8.3101 Y15.5417 
G01 X-8.3002 Y15.5194 
G01 X-8.1993 Y15.2743 
G01 X-7.5857 Y14.6607 
G01 X-6.7839 Y14.3286 
G01 X-3.3761 Y14.3286 
G01 X-2.5743 Y14.6607 
G01 X-1.9607 Y15.2743 
G01 X-1.6286 Y16.0761 
G01 X-1.6286 Y16.9439 
G01 X-1.9607 Y17.7457 
G01 X-2.5743 Y18.3593 
G01 X-3.3761 Y18.6914 
G01 X-6.7839 Y18.6914 
G01 X-7.5857 Y18.3593 
G01 X-8.1993 Y17.7457 
G01 X-8.4815 Y17.0645 
G01 X-8.4903 Y17.0417 
G01 X-8.5092 Y17.0219 
G01 X-8.5261 Y17.0043 
G01 X-8.5511 Y16.9933 
G01 X-8.5734 Y16.9835 
G01 X-8.5763 Y16.9829 
G01 X-8.6007 Y16.9829 
G01 X-9.0625 Y16.9726 
G01 X-9.0883 Y16.9720 
G01 X-9.1127 Y16.9715 
G01 X-9.3730 Y16.9720 
G01 X-9.4208 Y16.9918 
G01 X-9.4574 Y17.0284 
G01 X-9.4772 Y17.0762 
G01 X-9.4772 Y20.4558 
G01 X-9.5811 Y20.7068 
G01 X-9.8098 Y20.9354 
G01 X-11.6782 Y22.8039 
G01 X-11.9292 Y22.9078 
G01 X-15.0693 Y22.9078 
G01 X-15.0824 Y22.9053 
G01 X-15.0948 Y22.9078 
G01 X-15.1076 Y22.9078 
G01 X-15.1200 Y22.9129 
G01 X-15.1604 Y22.9212 
G01 X-15.2042 Y22.9127 
G01 X-15.2160 Y22.9078 
G01 X-15.2294 Y22.9078 
G01 X-15.2425 Y22.9053 
G01 X-15.2550 Y22.9078 
G01 X-15.2996 Y22.9078 
G01 X-15.3377 Y22.8920 
G01 X-15.3489 Y22.8846 
G01 X-15.3614 Y22.8822 
G01 X-15.3732 Y22.8774 
G01 X-15.3865 Y22.8774 
G01 X-15.4271 Y22.8695 
G01 X-15.4643 Y22.8449 
G01 X-15.4733 Y22.8359 
G01 X-15.4857 Y22.8308 
G01 X-15.4968 Y22.8234 
G01 X-15.5093 Y22.8210 
G01 X-15.5506 Y22.8039 
G01 X-15.5798 Y22.7747 
G01 X-15.5872 Y22.7636 
G01 X-15.5979 Y22.7566 
G01 X-15.6069 Y22.7476 
G01 X-15.6192 Y22.7425 
G01 X-15.6537 Y22.7197 
G01 X-15.6786 Y22.6827 
G01 X-15.6835 Y22.6709 
G01 X-15.6930 Y22.6615 
G01 X-15.7005 Y22.6504 
G01 X-15.7111 Y22.6434 
G01 X-15.7427 Y22.6118 
G01 X-15.7585 Y22.5737 
G01 X-15.7611 Y22.5606 
G01 X-15.7683 Y22.5500 
G01 X-15.7731 Y22.5382 
G01 X-15.7826 Y22.5288 
G01 X-16.4755 Y21.5027 
G01 X-16.4804 Y21.4910 
G01 X-16.4898 Y21.4815 
G01 X-16.4973 Y21.4704 
G01 X-16.5079 Y21.4634 
G01 X-16.5169 Y21.4544 
G01 X-16.5293 Y21.4493 
G01 X-16.5405 Y21.4419 
G01 X-16.5530 Y21.4395 
G01 X-16.5647 Y21.4346 
G01 X-16.5781 Y21.4346 
G01 X-16.5912 Y21.4321 
G01 X-16.6037 Y21.4346 
G01 X-16.7317 Y21.4346 
G01 X-17.1414 Y21.2649 
G01 X-17.4549 Y20.9514 
G01 X-17.6246 Y20.5417 
G01 X-17.6246 Y18.8283 
G01 X-17.4549 Y18.4186 
G01 X-17.1414 Y18.1051 
G01 X-16.7317 Y17.9354 
G01 X-16.2620 Y17.9354 
G01 X-16.2143 Y17.9156 
G01 X-16.1777 Y17.8790 
G01 X-16.1579 Y17.8312 
G01 X-16.1579 Y17.7795 
G01 X-16.1777 Y17.7317 
G01 X-16.2143 Y17.6952 
G01 X-16.7476 Y17.1618 
G01 X-16.7954 Y17.1420 
G01 X-17.8904 Y17.1420 
G01 X-18.1414 Y17.0381 
G01 X-19.4114 Y15.7681 
G01 X-19.6035 Y15.5760 
G01 X-19.7074 Y15.3250 
G01 X-19.7074 Y14.1034 
G01 X-19.6418 Y13.9451 
G01 X-19.6418 Y13.8933 
G01 X-19.6526 Y13.8673 
G01 X-19.6616 Y13.8456 
G01 X-19.7074 Y13.7350 
G01 X-19.7074 Y12.0898 
G01 X-19.7272 Y12.0420 
G01 X-19.7638 Y12.0054 
G01 X-19.8116 Y11.9856 
G01 X-19.9391 Y11.9856 
G01 X-20.1010 Y11.8237 
G01 X-20.1010 Y10.2947 
G01 X-19.9892 Y10.1828 
G01 X-19.9694 Y10.1351 
G01 X-19.9694 Y10.0833 
G01 X-19.9892 Y10.0356 
G01 X-20.0257 Y9.9990 
G01 X-20.1010 Y9.9237 
G01 X-20.1010 Y8.3947 
G01 X-19.9391 Y8.2328 
G01 X-18.1101 Y8.2328 
G01 X-17.9323 Y8.4106 
G01 X-17.9284 Y8.4200 
G01 X-17.8918 Y8.4566 
G01 X-17.8440 Y8.4764 
G01 X-17.6152 Y8.4764 
G01 X-17.5674 Y8.4566 
G01 X-17.5308 Y8.4200 
G01 X-17.5269 Y8.4106 
G01 X-17.3491 Y8.2328 
G01 X-15.6201 Y8.2328 
G01 X-15.4423 Y8.4106 
G01 X-15.4384 Y8.4200 
G01 X-15.4018 Y8.4566 
G01 X-15.3540 Y8.4764 
G01 X-15.1252 Y8.4764 
G01 X-15.0774 Y8.4566 
G01 X-15.0408 Y8.4200 
G01 X-15.0369 Y8.4106 
G01 X-14.8591 Y8.2328 
G01 X-14.0118 Y8.2328 
G01 X-13.9640 Y8.2130 
G01 X-13.9275 Y8.1764 
G01 X-11.7435 Y5.9924 
G01 X-11.5514 Y5.8003 
G01 X-11.3004 Y5.6964 
G01 X-8.5014 Y5.6964 
G01 X-8.4536 Y5.6766 
G01 X-8.4171 Y5.6400 
G01 X-8.3973 Y5.5922 
G01 X-8.1993 Y5.1143 
G01 X-7.5857 Y4.5007 
G01 X-6.7839 Y4.1686 
G01 X-3.6553 Y4.1686 
G01 X-3.6331 Y4.1698 
G01 X-3.6295 Y4.1686 
G01 X-3.6258 Y4.1686 
G01 X-3.6052 Y4.1601 
G01 X-3.5843 Y4.1527 
G01 X-3.5815 Y4.1502 
G01 X-3.5780 Y4.1488 
G01 X-3.5623 Y4.1331 
G01 X-3.5457 Y4.1183 
G01 X-3.5441 Y4.1149 
G01 X-3.5414 Y4.1122 
G01 X-3.5329 Y4.0917 
G01 X-3.5233 Y4.0717 
G01 X-3.5231 Y4.0679 
G01 X-3.5216 Y4.0644 
G01 X-3.5216 Y4.0422 
G01 X-3.5204 Y4.0200 
G01 X-3.5216 Y4.0165 
G01 X-3.5216 Y4.0127 
G01 X-3.5301 Y3.9922 
G01 X-3.5375 Y3.9712 
G01 X-3.5400 Y3.9684 
G01 X-3.5414 Y3.9649 
G01 X-3.5571 Y3.9492 
G01 X-3.5719 Y3.9327 
G01 X-3.5753 Y3.9310 
G01 X-3.5780 Y3.9284 
G01 X-3.5985 Y3.9199 
G01 X-3.6288 Y3.9053 
G01 X-4.1133 Y3.2977 
G01 X-4.2863 Y2.5400 
G01 X-4.1133 Y1.7823 
G01 X-3.6288 Y1.1747 
G01 X-2.9286 Y0.8375 
G00 Z2.5400 
G00 X-14.8741 Y13.1128 
G01 Z-0.2000 f200.00 
G01 X-13.6451 Y13.1128 F60.00 
G01 X-13.4832 Y13.2747 
G01 X-13.4832 Y14.9037 
G01 X-13.6521 Y15.0726 
G01 X-13.6846 Y15.1051 
G01 X-13.6886 Y15.1091 
G01 X-13.7084 Y15.1569 
G01 X-13.7084 Y15.2086 
G01 X-13.6892 Y15.2551 
G01 X-13.6521 Y15.2930 
G01 X-13.6043 Y15.3128 
G01 X-13.0149 Y15.3128 
G01 X-12.9671 Y15.2930 
G01 X-12.9306 Y15.2564 
G01 X-12.9108 Y15.2086 
G01 X-12.9108 Y15.1569 
G01 X-12.9306 Y15.1091 
G01 X-12.9671 Y15.0726 
G01 X-13.1360 Y14.9037 
G01 X-13.1360 Y13.2747 
G01 X-13.0622 Y13.2009 
G01 X-13.0424 Y13.1531 
G01 X-13.0424 Y12.3700 
G01 X-13.0622 Y12.3222 
G01 X-13.0671 Y12.3174 
G01 X-13.3425 Y12.0420 
G01 X-13.3742 Y12.0103 
G01 X-13.3790 Y12.0054 
G01 X-13.4268 Y11.9856 
G01 X-14.8591 Y11.9856 
G01 X-15.0210 Y11.8237 
G01 X-15.0210 Y10.2947 
G01 X-14.9092 Y10.1828 
G01 X-14.8894 Y10.1351 
G01 X-14.8894 Y10.0833 
G01 X-14.9092 Y10.0356 
G01 X-14.9457 Y9.9990 
G01 X-15.0369 Y9.9078 
G01 X-15.0408 Y9.8984 
G01 X-15.0774 Y9.8618 
G01 X-15.1252 Y9.8420 
G01 X-15.3540 Y9.8420 
G01 X-15.4018 Y9.8618 
G01 X-15.4384 Y9.8984 
G01 X-15.4423 Y9.9078 
G01 X-15.5335 Y9.9990 
G01 X-15.5675 Y10.0330 
G01 X-15.5700 Y10.0356 
G01 X-15.5898 Y10.0833 
G01 X-15.5898 Y10.1351 
G01 X-15.5706 Y10.1815 
G01 X-15.5335 Y10.2194 
G01 X-15.4582 Y10.2947 
G01 X-15.4582 Y11.8237 
G01 X-15.6201 Y11.9856 
G01 X-16.0176 Y11.9856 
G01 X-16.0654 Y12.0054 
G01 X-16.1020 Y12.0420 
G01 X-16.1218 Y12.0898 
G01 X-16.1218 Y12.7386 
G01 X-16.1020 Y12.7864 
G01 X-16.0654 Y12.8230 
G01 X-16.0560 Y12.8269 
G01 X-15.8782 Y13.0047 
G01 X-15.8782 Y13.1322 
G01 X-15.8584 Y13.1800 
G01 X-15.8218 Y13.2166 
G01 X-15.7740 Y13.2364 
G01 X-15.0257 Y13.2364 
G01 X-14.9779 Y13.2166 
G01 X-14.9413 Y13.1800 
G01 X-14.8741 Y13.1128 
G00 Z2.5400 
G00 X-17.4874 Y11.9270 
G01 Z-0.2000 f200.00 
G01 X-17.4874 Y11.9014 F60.00 
G01 X-17.4874 Y11.8753 
G01 X-17.5072 Y11.8275 
G01 X-17.5110 Y11.8237 
G01 X-17.5110 Y10.2947 
G01 X-17.4357 Y10.2194 
G01 X-17.3992 Y10.1828 
G01 X-17.3794 Y10.1352 
G01 X-17.3794 Y10.0833 
G01 X-17.3992 Y10.0356 
G01 X-17.5269 Y9.9078 
G01 X-17.5308 Y9.8984 
G01 X-17.5674 Y9.8618 
G01 X-17.6152 Y9.8420 
G01 X-17.8440 Y9.8420 
G01 X-17.8918 Y9.8618 
G01 X-17.9284 Y9.8984 
G01 X-17.9323 Y9.9078 
G01 X-18.0235 Y9.9990 
G01 X-18.0574 Y10.0330 
G01 X-18.0600 Y10.0356 
G01 X-18.0798 Y10.0833 
G01 X-18.0798 Y10.1351 
G01 X-18.0606 Y10.1815 
G01 X-18.0235 Y10.2194 
G01 X-17.9482 Y10.2947 
G01 X-17.9482 Y11.8237 
G01 X-18.1101 Y11.9856 
G01 X-18.2376 Y11.9856 
G01 X-18.2854 Y12.0054 
G01 X-18.3220 Y12.0420 
G01 X-18.3418 Y12.0898 
G01 X-18.3418 Y12.7386 
G01 X-18.3220 Y12.7864 
G01 X-18.2854 Y12.8230 
G01 X-18.2376 Y12.8428 
G01 X-17.9401 Y12.8428 
G01 X-17.8648 Y12.9181 
G01 X-17.8308 Y12.9520 
G01 X-17.8282 Y12.9546 
G01 X-17.7805 Y12.9744 
G01 X-17.7287 Y12.9744 
G01 X-17.6823 Y12.9552 
G01 X-17.6444 Y12.9181 
G01 X-17.5532 Y12.8269 
G01 X-17.5438 Y12.8230 
G01 X-17.5072 Y12.7864 
G01 X-17.4874 Y12.7386 
G01 X-17.4874 Y11.9270 
G00 Z2.5400 
G00 X-15.8692 Y16.1090 
G01 Z-0.2000 f200.00 
G01 X-15.8692 Y16.1090 F60.00 
G01 X-14.0626 Y17.9156 
G01 X-14.0148 Y17.9354 
G01 X-13.7483 Y17.9354 
G01 X-13.3386 Y18.1051 
G01 X-13.0251 Y18.4186 
G01 X-12.8554 Y18.8283 
G01 X-12.8554 Y20.5417 
G01 X-13.0251 Y20.9514 
G01 X-13.3386 Y21.2649 
G01 X-13.3803 Y21.2822 
G01 X-13.4281 Y21.3020 
G01 X-13.4641 Y21.3380 
G01 X-13.4840 Y21.3854 
G01 X-13.4844 Y21.4380 
G01 X-13.4646 Y21.4858 
G01 X-13.4286 Y21.5218 
G01 X-13.3812 Y21.5418 
G01 X-12.3758 Y21.5422 
G01 X-12.3280 Y21.5224 
G01 X-12.2915 Y21.4858 
G01 X-10.8626 Y20.0570 
G01 X-10.8428 Y20.0092 
G01 X-10.8428 Y17.0762 
G01 X-10.8626 Y17.0284 
G01 X-10.8992 Y16.9918 
G01 X-10.9470 Y16.9720 
G01 X-12.4290 Y16.9720 
G01 X-12.4768 Y16.9918 
G01 X-12.5134 Y17.0284 
G01 X-12.5332 Y17.0762 
G01 X-12.5332 Y17.1037 
G01 X-12.6951 Y17.2656 
G01 X-13.9241 Y17.2656 
G01 X-14.0860 Y17.1037 
G01 X-14.0860 Y15.4747 
G01 X-13.9171 Y15.3058 
G01 X-13.8846 Y15.2733 
G01 X-13.8806 Y15.2693 
G01 X-13.8608 Y15.2215 
G01 X-13.8608 Y15.1698 
G01 X-13.8800 Y15.1233 
G01 X-13.9171 Y15.0854 
G01 X-13.9649 Y15.0656 
G01 X-14.8741 Y15.0656 
G01 X-15.0360 Y14.9037 
G01 X-15.0360 Y14.7062 
G01 X-15.0558 Y14.6584 
G01 X-15.0924 Y14.6218 
G01 X-15.1402 Y14.6020 
G01 X-15.7740 Y14.6020 
G01 X-15.8218 Y14.6218 
G01 X-15.8584 Y14.6584 
G01 X-15.8782 Y14.7062 
G01 X-15.8782 Y14.8337 
G01 X-16.0401 Y14.9956 
G01 X-17.5691 Y14.9956 
G01 X-17.6810 Y14.8838 
G01 X-17.7287 Y14.8640 
G01 X-17.7805 Y14.8640 
G01 X-17.8282 Y14.8838 
G01 X-17.8648 Y14.9203 
G01 X-17.9401 Y14.9956 
G01 X-17.9645 Y14.9956 
G01 X-18.0123 Y15.0154 
G01 X-18.0489 Y15.0520 
G01 X-18.0687 Y15.0998 
G01 X-18.0687 Y15.1515 
G01 X-18.0489 Y15.1993 
G01 X-18.0123 Y15.2358 
G01 X-17.4916 Y15.7566 
G01 X-17.4438 Y15.7764 
G01 X-16.3488 Y15.7764 
G01 X-16.0978 Y15.8803 
G01 X-15.8692 Y16.1090 
G00 Z2.5400 
G00 X-11.7296 Y14.8151 
G01 Z-0.2000 f200.00 
G01 X-11.7296 Y13.3633 F60.00 
G01 X-11.7494 Y13.3156 
G01 X-11.7860 Y13.2790 
G01 X-11.8232 Y13.2636 
G01 X-11.8232 Y11.9886 
G01 X-11.8598 Y11.8522 
G01 X-11.9304 Y11.7298 
G01 X-12.0646 Y11.5956 
G01 X-9.2511 Y11.5956 
G01 X-8.3719 Y11.6626 
G01 X-8.3502 Y11.8279 
G01 X-8.2811 Y12.0855 
G01 X-8.1791 Y12.3320 
G01 X-8.0457 Y12.5630 
G01 X-7.8833 Y12.7746 
G01 X-7.6946 Y12.9633 
G01 X-7.4830 Y13.1257 
G01 X-7.2520 Y13.2591 
G01 X-7.0055 Y13.3611 
G01 X-6.7479 Y13.4302 
G01 X-6.4834 Y13.4650 
G01 X-3.6766 Y13.4650 
G01 X-3.4121 Y13.4302 
G01 X-3.1545 Y13.3611 
G01 X-2.9080 Y13.2591 
G01 X-2.6770 Y13.1257 
G01 X-2.4653 Y12.9633 
G01 X-2.2767 Y12.7746 
G01 X-2.1143 Y12.5630 
G01 X-1.9809 Y12.3320 
G01 X-1.8789 Y12.0855 
G01 X-1.8098 Y11.8279 
G01 X-1.7750 Y11.5634 
G01 X-1.7750 Y11.2966 
G01 X-1.8098 Y11.0321 
G01 X-1.8789 Y10.7745 
G01 X-1.9809 Y10.5280 
G01 X-2.1143 Y10.2970 
G01 X-2.2767 Y10.0854 
G01 X-2.4653 Y9.8967 
G01 X-2.6770 Y9.7343 
G01 X-2.9080 Y9.6009 
G01 X-3.1545 Y9.4989 
G01 X-3.4121 Y9.4298 
G01 X-3.6766 Y9.3950 
G01 X-6.4834 Y9.3950 
G01 X-6.7479 Y9.4298 
G01 X-7.0055 Y9.4989 
G01 X-7.2520 Y9.6009 
G01 X-7.4830 Y9.7343 
G01 X-7.6946 Y9.8967 
G01 X-7.8833 Y10.0854 
G01 X-8.0457 Y10.2970 
G01 X-8.1791 Y10.5280 
G01 X-8.2085 Y10.5992 
G01 X-9.1401 Y10.5282 
G01 X-9.1601 Y10.5228 
G01 X-9.2103 Y10.5228 
G01 X-9.2603 Y10.5190 
G01 X-9.2806 Y10.5228 
G01 X-13.0146 Y10.5228 
G01 X-13.0146 Y10.3833 
G01 X-13.0344 Y10.3356 
G01 X-13.0710 Y10.2990 
G01 X-13.1187 Y10.2792 
G01 X-14.7705 Y10.2792 
G01 X-14.8182 Y10.2990 
G01 X-14.8548 Y10.3356 
G01 X-14.8746 Y10.3833 
G01 X-14.8746 Y11.7351 
G01 X-14.8548 Y11.7828 
G01 X-14.8182 Y11.8194 
G01 X-14.7705 Y11.8392 
G01 X-13.3382 Y11.8392 
G01 X-12.8960 Y12.2814 
G01 X-12.8960 Y13.2636 
G01 X-12.9332 Y13.2790 
G01 X-12.9698 Y13.3156 
G01 X-12.9896 Y13.3633 
G01 X-12.9896 Y14.8151 
G01 X-12.9698 Y14.8628 
G01 X-12.9332 Y14.8994 
G01 X-12.8855 Y14.9192 
G01 X-11.8337 Y14.9192 
G01 X-11.7860 Y14.8994 
G01 X-11.7494 Y14.8628 
G01 X-11.7296 Y14.8151 
G00 Z2.5400 
G00 X-15.7087 Y11.8392 
G01 Z-0.2000 f200.00 
G01 X-15.6610 Y11.8194 F60.00 
G01 X-15.6244 Y11.7828 
G01 X-15.6046 Y11.7351 
G01 X-15.6046 Y10.3833 
G01 X-15.6244 Y10.3356 
G01 X-15.6610 Y10.2990 
G01 X-15.7087 Y10.2792 
G01 X-17.2605 Y10.2792 
G01 X-17.3082 Y10.2990 
G01 X-17.3448 Y10.3356 
G01 X-17.3646 Y10.3833 
G01 X-17.3646 Y11.7351 
G01 X-17.3448 Y11.7828 
G01 X-17.3410 Y11.7866 
G01 X-17.3410 Y12.9892 
G01 X-17.4805 Y12.9892 
G01 X-17.5282 Y13.0090 
G01 X-17.5648 Y13.0456 
G01 X-17.5846 Y13.0933 
G01 X-17.5846 Y14.7451 
G01 X-17.5648 Y14.7928 
G01 X-17.5282 Y14.8294 
G01 X-17.4805 Y14.8492 
G01 X-16.1287 Y14.8492 
G01 X-16.0810 Y14.8294 
G01 X-16.0444 Y14.7928 
G01 X-16.0246 Y14.7451 
G01 X-16.0246 Y14.4556 
G01 X-14.8896 Y14.4556 
G01 X-14.8896 Y14.8151 
G01 X-14.8698 Y14.8628 
G01 X-14.8332 Y14.8994 
G01 X-14.7855 Y14.9192 
G01 X-13.7337 Y14.9192 
G01 X-13.6860 Y14.8994 
G01 X-13.6494 Y14.8628 
G01 X-13.6296 Y14.8151 
G01 X-13.6296 Y13.3633 
G01 X-13.6494 Y13.3156 
G01 X-13.6860 Y13.2790 
G01 X-13.7337 Y13.2592 
G01 X-14.7855 Y13.2592 
G01 X-14.8332 Y13.2790 
G01 X-14.8698 Y13.3156 
G01 X-14.8896 Y13.3633 
G01 X-14.8896 Y13.3828 
G01 X-16.0246 Y13.3828 
G01 X-16.0246 Y13.0933 
G01 X-16.0444 Y13.0456 
G01 X-16.0810 Y13.0090 
G01 X-16.1287 Y12.9892 
G01 X-16.2682 Y12.9892 
G01 X-16.2682 Y11.8392 
G01 X-15.7087 Y11.8392 
G00 Z2.5400 
G00 X-16.0554 Y16.1298 
G01 Z-0.2000 f200.00 
G01 X-16.1552 Y16.0300 F60.00 
G01 X-16.2776 Y15.9594 
G01 X-16.4140 Y15.9228 
G01 X-17.5324 Y15.9228 
G01 X-18.4882 Y14.9670 
G01 X-18.4882 Y14.8492 
G01 X-18.0287 Y14.8492 
G01 X-17.9810 Y14.8294 
G01 X-17.9444 Y14.7928 
G01 X-17.9246 Y14.7451 
G01 X-17.9246 Y13.0933 
G01 X-17.9444 Y13.0456 
G01 X-17.9810 Y13.0090 
G01 X-18.0287 Y12.9892 
G01 X-18.4882 Y12.9892 
G01 X-18.4882 Y11.8392 
G01 X-18.1987 Y11.8392 
G01 X-18.1510 Y11.8194 
G01 X-18.1144 Y11.7828 
G01 X-18.0946 Y11.7351 
G01 X-18.0946 Y10.3833 
G01 X-18.1144 Y10.3356 
G01 X-18.1510 Y10.2990 
G01 X-18.1987 Y10.2792 
G01 X-19.8505 Y10.2792 
G01 X-19.8982 Y10.2990 
G01 X-19.9348 Y10.3356 
G01 X-19.9546 Y10.3833 
G01 X-19.9546 Y11.7351 
G01 X-19.9348 Y11.7828 
G01 X-19.8982 Y11.8194 
G01 X-19.8505 Y11.8392 
G01 X-19.5610 Y11.8392 
G01 X-19.5610 Y13.6698 
G01 X-19.5244 Y13.8062 
G01 X-19.4846 Y13.8753 
G01 X-19.4846 Y13.9631 
G01 X-19.5244 Y14.0322 
G01 X-19.5610 Y14.1686 
G01 X-19.5610 Y15.2598 
G01 X-19.5244 Y15.3962 
G01 X-19.4538 Y15.5186 
G01 X-19.3540 Y15.6184 
G01 X-18.0840 Y16.8884 
G01 X-17.9616 Y16.9590 
G01 X-17.8252 Y16.9956 
G01 X-16.7068 Y16.9956 
G01 X-14.9066 Y18.7958 
G01 X-14.9382 Y18.9546 
G01 X-14.9382 Y20.4154 
G01 X-14.9010 Y20.6024 
G01 X-14.8280 Y20.7786 
G01 X-14.7220 Y20.9372 
G01 X-14.5872 Y21.0720 
G01 X-14.4286 Y21.1780 
G01 X-14.2524 Y21.2510 
G01 X-14.0654 Y21.2882 
G01 X-13.8746 Y21.2882 
G01 X-13.6876 Y21.2510 
G01 X-13.5114 Y21.1780 
G01 X-13.3528 Y21.0720 
G01 X-13.2180 Y20.9372 
G01 X-13.1120 Y20.7786 
G01 X-13.0390 Y20.6024 
G01 X-13.0018 Y20.4154 
G01 X-13.0018 Y18.9546 
G01 X-13.0390 Y18.7676 
G01 X-13.1120 Y18.5914 
G01 X-13.2180 Y18.4328 
G01 X-13.3528 Y18.2980 
G01 X-13.5114 Y18.1920 
G01 X-13.6876 Y18.1190 
G01 X-13.8746 Y18.0818 
G01 X-14.0654 Y18.0818 
G01 X-14.0971 Y18.0881 
G01 X-16.0554 Y16.1298 
G00 Z2.5400 
G00 X-15.6189 Y22.5095 
G01 Z-0.2000 f200.00 
G01 X-15.5930 Y22.5544 F60.00 
G01 X-15.5795 Y22.5679 
G01 X-15.5688 Y22.5837 
G01 X-15.5297 Y22.6176 
G01 X-15.4932 Y22.6542 
G01 X-15.4766 Y22.6638 
G01 X-15.4622 Y22.6763 
G01 X-15.4157 Y22.6990 
G01 X-15.3708 Y22.7248 
G01 X-15.3524 Y22.7298 
G01 X-15.3352 Y22.7382 
G01 X-15.2844 Y22.7480 
G01 X-15.2344 Y22.7614 
G01 X-15.2153 Y22.7614 
G01 X-15.1965 Y22.7650 
G01 X-15.1449 Y22.7614 
G01 X-11.9944 Y22.7614 
G01 X-11.8580 Y22.7248 
G01 X-11.7356 Y22.6542 
G01 X-9.8306 Y20.7492 
G01 X-9.7308 Y20.6494 
G01 X-9.6602 Y20.5270 
G01 X-9.6236 Y20.3906 
G01 X-9.6236 Y16.8256 
G01 X-9.0867 Y16.8256 
G01 X-8.3589 Y16.8418 
G01 X-8.3502 Y16.9079 
G01 X-8.2811 Y17.1655 
G01 X-8.1791 Y17.4120 
G01 X-8.0457 Y17.6430 
G01 X-7.8833 Y17.8546 
G01 X-7.6946 Y18.0433 
G01 X-7.4830 Y18.2057 
G01 X-7.2520 Y18.3391 
G01 X-7.0055 Y18.4411 
G01 X-6.7479 Y18.5102 
G01 X-6.4834 Y18.5450 
G01 X-3.6766 Y18.5450 
G01 X-3.4121 Y18.5102 
G01 X-3.1545 Y18.4411 
G01 X-2.9080 Y18.3391 
G01 X-2.6770 Y18.2057 
G01 X-2.4653 Y18.0433 
G01 X-2.2767 Y17.8546 
G01 X-2.1143 Y17.6430 
G01 X-1.9809 Y17.4120 
G01 X-1.8789 Y17.1655 
G01 X-1.8098 Y16.9079 
G01 X-1.7750 Y16.6434 
G01 X-1.7750 Y16.3766 
G01 X-1.8098 Y16.1121 
G01 X-1.8789 Y15.8545 
G01 X-1.9809 Y15.6080 
G01 X-2.1143 Y15.3770 
G01 X-2.2767 Y15.1654 
G01 X-2.4653 Y14.9767 
G01 X-2.6770 Y14.8143 
G01 X-2.9080 Y14.6809 
G01 X-3.1545 Y14.5789 
G01 X-3.4121 Y14.5098 
G01 X-3.6766 Y14.4750 
G01 X-6.4834 Y14.4750 
G01 X-6.7479 Y14.5098 
G01 X-7.0055 Y14.5789 
G01 X-7.2520 Y14.6809 
G01 X-7.4830 Y14.8143 
G01 X-7.6946 Y14.9767 
G01 X-7.8833 Y15.1654 
G01 X-8.0457 Y15.3770 
G01 X-8.1791 Y15.6080 
G01 X-8.2467 Y15.7712 
G01 X-9.0042 Y15.7544 
G01 X-9.0101 Y15.7528 
G01 X-9.0747 Y15.7528 
G01 X-9.1394 Y15.7514 
G01 X-9.1453 Y15.7528 
G01 X-12.6796 Y15.7528 
G01 X-12.6796 Y15.5633 
G01 X-12.6994 Y15.5156 
G01 X-12.7360 Y15.4790 
G01 X-12.7837 Y15.4592 
G01 X-13.8355 Y15.4592 
G01 X-13.8832 Y15.4790 
G01 X-13.9198 Y15.5156 
G01 X-13.9396 Y15.5633 
G01 X-13.9396 Y17.0151 
G01 X-13.9198 Y17.0628 
G01 X-13.8832 Y17.0994 
G01 X-13.8355 Y17.1192 
G01 X-12.7837 Y17.1192 
G01 X-12.7360 Y17.0994 
G01 X-12.6994 Y17.0628 
G01 X-12.6796 Y17.0151 
G01 X-12.6796 Y16.8256 
G01 X-10.6964 Y16.8256 
G01 X-10.6964 Y20.0978 
G01 X-12.2872 Y21.6886 
G01 X-14.8788 Y21.6886 
G01 X-15.5917 Y20.6330 
G01 X-15.5790 Y20.6024 
G01 X-15.5418 Y20.4154 
G01 X-15.5418 Y18.9546 
G01 X-15.5790 Y18.7676 
G01 X-15.6520 Y18.5914 
G01 X-15.7580 Y18.4328 
G01 X-15.8928 Y18.2980 
G01 X-16.0514 Y18.1920 
G01 X-16.2276 Y18.1190 
G01 X-16.4146 Y18.0818 
G01 X-16.6054 Y18.0818 
G01 X-16.7924 Y18.1190 
G01 X-16.9686 Y18.1920 
G01 X-17.1272 Y18.2980 
G01 X-17.2620 Y18.4328 
G01 X-17.3680 Y18.5914 
G01 X-17.4410 Y18.7676 
G01 X-17.4782 Y18.9546 
G01 X-17.4782 Y20.4154 
G01 X-17.4410 Y20.6024 
G01 X-17.3680 Y20.7786 
G01 X-17.2620 Y20.9372 
G01 X-17.1272 Y21.0720 
G01 X-16.9686 Y21.1780 
G01 X-16.7924 Y21.2510 
G01 X-16.6054 Y21.2882 
G01 X-16.4437 Y21.2882 
G01 X-15.6189 Y22.5095 
G00 Z2.5400 
G00 X-11.2352 Y5.8428 
G01 Z-0.2000 f200.00 
G01 X-11.3716 Y5.8794 F60.00 
G01 X-11.4940 Y5.9500 
G01 X-11.5938 Y6.0498 
G01 X-13.9232 Y8.3792 
G01 X-14.7705 Y8.3792 
G01 X-14.8182 Y8.3990 
G01 X-14.8548 Y8.4356 
G01 X-14.8746 Y8.4833 
G01 X-14.8746 Y8.6228 
G01 X-15.6046 Y8.6228 
G01 X-15.6046 Y8.4833 
G01 X-15.6244 Y8.4356 
G01 X-15.6610 Y8.3990 
G01 X-15.7087 Y8.3792 
G01 X-17.2605 Y8.3792 
G01 X-17.3082 Y8.3990 
G01 X-17.3448 Y8.4356 
G01 X-17.3646 Y8.4833 
G01 X-17.3646 Y8.6228 
G01 X-18.0946 Y8.6228 
G01 X-18.0946 Y8.4833 
G01 X-18.1144 Y8.4356 
G01 X-18.1510 Y8.3990 
G01 X-18.1987 Y8.3792 
G01 X-19.8505 Y8.3792 
G01 X-19.8982 Y8.3990 
G01 X-19.9348 Y8.4356 
G01 X-19.9546 Y8.4833 
G01 X-19.9546 Y9.8351 
G01 X-19.9348 Y9.8828 
G01 X-19.8982 Y9.9194 
G01 X-19.8505 Y9.9392 
G01 X-18.1987 Y9.9392 
G01 X-18.1510 Y9.9194 
G01 X-18.1144 Y9.8828 
G01 X-18.0946 Y9.8351 
G01 X-18.0946 Y9.6956 
G01 X-17.3646 Y9.6956 
G01 X-17.3646 Y9.8351 
G01 X-17.3448 Y9.8828 
G01 X-17.3082 Y9.9194 
G01 X-17.2605 Y9.9392 
G01 X-15.7087 Y9.9392 
G01 X-15.6610 Y9.9194 
G01 X-15.6244 Y9.8828 
G01 X-15.6046 Y9.8351 
G01 X-15.6046 Y9.6956 
G01 X-14.8746 Y9.6956 
G01 X-14.8746 Y9.8351 
G01 X-14.8548 Y9.8828 
G01 X-14.8182 Y9.9194 
G01 X-14.7705 Y9.9392 
G01 X-13.1187 Y9.9392 
G01 X-13.0710 Y9.9194 
G01 X-13.0344 Y9.8828 
G01 X-13.0146 Y9.8351 
G01 X-13.0146 Y8.9878 
G01 X-10.9424 Y6.9156 
G01 X-8.3052 Y6.9156 
G01 X-8.2811 Y7.0055 
G01 X-8.1791 Y7.2520 
G01 X-8.0457 Y7.4830 
G01 X-7.8833 Y7.6946 
G01 X-7.6946 Y7.8833 
G01 X-7.4830 Y8.0457 
G01 X-7.2520 Y8.1791 
G01 X-7.0055 Y8.2811 
G01 X-6.7479 Y8.3502 
G01 X-6.4834 Y8.3850 
G01 X-3.6766 Y8.3850 
G01 X-3.4121 Y8.3502 
G01 X-3.1545 Y8.2811 
G01 X-2.9080 Y8.1791 
G01 X-2.6770 Y8.0457 
G01 X-2.4653 Y7.8833 
G01 X-2.2767 Y7.6946 
G01 X-2.1143 Y7.4830 
G01 X-1.9809 Y7.2520 
G01 X-1.8789 Y7.0055 
G01 X-1.8098 Y6.7479 
G01 X-1.7750 Y6.4834 
G01 X-1.7750 Y6.2166 
G01 X-1.8098 Y5.9521 
G01 X-1.8789 Y5.6945 
G01 X-1.9809 Y5.4480 
G01 X-2.1143 Y5.2170 
G01 X-2.2767 Y5.0053 
G01 X-2.4653 Y4.8167 
G01 X-2.6770 Y4.6543 
G01 X-2.9080 Y4.5209 
G01 X-3.1545 Y4.4189 
G01 X-3.4121 Y4.3498 
G01 X-3.6766 Y4.3150 
G01 X-6.4834 Y4.3150 
G01 X-6.7479 Y4.3498 
G01 X-7.0055 Y4.4189 
G01 X-7.2520 Y4.5209 
G01 X-7.4830 Y4.6543 
G01 X-7.6946 Y4.8167 
G01 X-7.8833 Y5.0053 
G01 X-8.0457 Y5.2170 
G01 X-8.1791 Y5.4480 
G01 X-8.2811 Y5.6945 
G01 X-8.3209 Y5.8428 
G01 X-11.2352 Y5.8428 
G00 Z2.5400 
G00 X-4.0647 Y3.0354 
G01 Z-0.2000 f200.00 
G01 X-3.9685 Y3.2678 F60.00 
G01 X-3.8370 Y3.4823 
G01 X-3.6736 Y3.6736 
G01 X-3.4823 Y3.8370 
G01 X-3.2678 Y3.9685 
G01 X-3.0354 Y4.0647 
G01 X-2.7908 Y4.1235 
G01 X-2.5400 Y4.1432 
G01 X-2.2892 Y4.1235 
G01 X-2.0446 Y4.0647 
G01 X-1.8122 Y3.9685 
G01 X-1.5977 Y3.8370 
G01 X-1.4064 Y3.6736 
G01 X-1.2430 Y3.4823 
G01 X-1.1115 Y3.2678 
G01 X-1.0153 Y3.0354 
G01 X-0.9565 Y2.7908 
G01 X-0.9368 Y2.5400 
G01 X-0.9565 Y2.2892 
G01 X-1.0153 Y2.0446 
G01 X-1.1115 Y1.8122 
G01 X-1.2430 Y1.5977 
G01 X-1.4064 Y1.4064 
G01 X-1.5977 Y1.2430 
G01 X-1.8122 Y1.1115 
G01 X-2.0446 Y1.0153 
G01 X-2.2892 Y0.9565 
G01 X-2.5400 Y0.9368 
G01 X-2.7908 Y0.9565 
G01 X-3.0354 Y1.0153 
G01 X-3.2678 Y1.1115 
G01 X-3.4823 Y1.2430 
G01 X-3.6736 Y1.4064 
G01 X-3.8370 Y1.5977 
G01 X-3.9685 Y1.8122 
G01 X-4.0647 Y2.0446 
G01 X-4.1235 Y2.2892 
G01 X-4.1432 Y2.5400 
G01 X-4.1235 Y2.7908 
G01 X-4.0647 Y3.0354 
G00 Z2.5400 
G00 X-15.0495 Y21.1742 
G01 Z-0.2000 f200.00 
G01 X-15.0424 Y21.1847 F60.00 
G01 X-15.0375 Y21.1965 
G01 X-15.0280 Y21.2059 
G01 X-14.8470 Y21.4740 
G01 X-14.8421 Y21.4858 
G01 X-14.8327 Y21.4953 
G01 X-14.8252 Y21.5064 
G01 X-14.8146 Y21.5134 
G01 X-14.8055 Y21.5224 
G01 X-14.7932 Y21.5275 
G01 X-14.7820 Y21.5349 
G01 X-14.7695 Y21.5373 
G01 X-14.7578 Y21.5422 
G01 X-14.7444 Y21.5422 
G01 X-14.7313 Y21.5447 
G01 X-14.7188 Y21.5422 
G01 X-14.5597 Y21.5422 
G01 X-14.5119 Y21.5224 
G01 X-14.4754 Y21.4858 
G01 X-14.4556 Y21.4380 
G01 X-14.4556 Y21.3863 
G01 X-14.4754 Y21.3385 
G01 X-14.5119 Y21.3020 
G01 X-14.5597 Y21.2822 
G01 X-14.6014 Y21.2649 
G01 X-14.8266 Y21.0397 
G01 X-14.8340 Y21.0287 
G01 X-14.8447 Y21.0217 
G01 X-14.8537 Y21.0126 
G01 X-14.8660 Y21.0075 
G01 X-14.8772 Y21.0001 
G01 X-14.8897 Y20.9977 
G01 X-14.9014 Y20.9929 
G01 X-14.9148 Y20.9929 
G01 X-14.9280 Y20.9903 
G01 X-14.9404 Y20.9929 
G01 X-14.9532 Y20.9929 
G01 X-14.9655 Y20.9980 
G01 X-14.9786 Y21.0006 
G01 X-14.9892 Y21.0078 
G01 X-15.0009 Y21.0126 
G01 X-15.0104 Y21.0221 
G01 X-15.0215 Y21.0296 
G01 X-15.0285 Y21.0402 
G01 X-15.0375 Y21.0492 
G01 X-15.0426 Y21.0616 
G01 X-15.0500 Y21.0727 
G01 X-15.0524 Y21.0852 
G01 X-15.0573 Y21.0970 
G01 X-15.0573 Y21.1104 
G01 X-15.0598 Y21.1235 
G01 X-15.0573 Y21.1360 
G01 X-15.0573 Y21.1487 
G01 X-15.0522 Y21.1611 
G01 X-15.0495 Y21.1742 
G00 Z2.5400 
G00 X-15.0846 Y18.8528 
G01 Z-0.2000 f200.00 
G01 X-15.0954 Y18.8268 F60.00 
G01 X-15.1044 Y18.8050 
G01 X-15.1552 Y18.7543 
G01 X-15.1904 Y18.7190 
G01 X-15.2192 Y18.7063 
G01 X-15.2395 Y18.6979 
G01 X-15.2912 Y18.6979 
G01 X-15.3188 Y18.7093 
G01 X-15.3390 Y18.7177 
G01 X-15.3756 Y18.7543 
G01 X-15.3869 Y18.7817 
G01 X-15.3954 Y18.8020 
G01 X-15.3954 Y20.5411 
G01 X-15.4021 Y20.5513 
G01 X-15.4045 Y20.5638 
G01 X-15.4094 Y20.5756 
G01 X-15.4094 Y20.5890 
G01 X-15.4120 Y20.6021 
G01 X-15.4094 Y20.6146 
G01 X-15.4094 Y20.6273 
G01 X-15.4043 Y20.6397 
G01 X-15.4016 Y20.6528 
G01 X-15.3945 Y20.6633 
G01 X-15.3896 Y20.6751 
G01 X-15.3802 Y20.6845 
G01 X-15.1906 Y20.9652 
G01 X-15.1857 Y20.9770 
G01 X-15.1763 Y20.9865 
G01 X-15.1688 Y20.9976 
G01 X-15.1582 Y21.0046 
G01 X-15.1492 Y21.0136 
G01 X-15.1368 Y21.0187 
G01 X-15.1256 Y21.0261 
G01 X-15.1131 Y21.0285 
G01 X-15.1014 Y21.0334 
G01 X-15.0880 Y21.0334 
G01 X-15.0749 Y21.0359 
G01 X-15.0624 Y21.0334 
G01 X-15.0497 Y21.0334 
G01 X-15.0373 Y21.0282 
G01 X-15.0242 Y21.0256 
G01 X-15.0136 Y21.0184 
G01 X-15.0019 Y21.0136 
G01 X-14.9924 Y21.0041 
G01 X-14.9813 Y20.9966 
G01 X-14.9743 Y20.9860 
G01 X-14.9653 Y20.9770 
G01 X-14.9602 Y20.9646 
G01 X-14.9528 Y20.9535 
G01 X-14.9504 Y20.9410 
G01 X-14.9455 Y20.9292 
G01 X-14.9455 Y20.9158 
G01 X-14.9430 Y20.9027 
G01 X-14.9455 Y20.8902 
G01 X-14.9455 Y20.8775 
G01 X-14.9506 Y20.8651 
G01 X-14.9533 Y20.8520 
G01 X-14.9604 Y20.8415 
G01 X-15.0846 Y20.5417 
G01 X-15.0846 Y18.8528 
G00 Z2.5400 
G00 X-19.6814 Y18.1051 
G01 Z-0.2000 f200.00 
G01 X-19.2717 Y17.9354 F60.00 
G01 X-18.8283 Y17.9354 
G01 X-18.4186 Y18.1051 
G01 X-18.1051 Y18.4186 
G01 X-17.9354 Y18.8283 
G01 X-17.9354 Y20.5417 
G01 X-18.1051 Y20.9514 
G01 X-18.4186 Y21.2649 
G01 X-18.8283 Y21.4346 
G01 X-19.2717 Y21.4346 
G01 X-19.6814 Y21.2649 
G01 X-19.9949 Y20.9514 
G01 X-20.1646 Y20.5417 
G01 X-20.1646 Y18.8283 
G01 X-19.9949 Y18.4186 
G01 X-19.6814 Y18.1051 
G00 Z2.5400 
G00 X-20.0182 Y18.9546 
G01 Z-0.2000 f200.00 
G01 X-20.0182 Y20.4154 F60.00 
G01 X-19.9810 Y20.6024 
G01 X-19.9080 Y20.7786 
G01 X-19.8020 Y20.9372 
G01 X-19.6672 Y21.0720 
G01 X-19.5086 Y21.1780 
G01 X-19.3324 Y21.2510 
G01 X-19.1454 Y21.2882 
G01 X-18.9546 Y21.2882 
G01 X-18.7676 Y21.2510 
G01 X-18.5914 Y21.1780 
G01 X-18.4328 Y21.0720 
G01 X-18.2980 Y20.9372 
G01 X-18.1920 Y20.7786 
G01 X-18.1190 Y20.6024 
G01 X-18.0818 Y20.4154 
G01 X-18.0818 Y18.9546 
G01 X-18.1190 Y18.7676 
G01 X-18.1920 Y18.5914 
G01 X-18.2980 Y18.4328 
G01 X-18.4328 Y18.2980 
G01 X-18.5914 Y18.1920 
G01 X-18.7676 Y18.1190 
G01 X-18.9546 Y18.0818 
G01 X-19.1454 Y18.0818 
G01 X-19.3324 Y18.1190 
G01 X-19.5086 Y18.1920 
G01 X-19.6672 Y18.2980 
G01 X-19.8020 Y18.4328 
G01 X-19.9080 Y18.5914 
G01 X-19.9810 Y18.7676 
G01 X-20.0182 Y18.9546 
G00 Z2.5400 
G00 X-3.4653 Y32.8735 
G01 Z-0.2000 f200.00 
G01 X-3.4653 Y32.8735 F60.00 
G01 X-3.4310 Y32.7305 
G01 X-3.3747 Y32.5947 
G01 X-3.2979 Y32.4694 
G01 X-3.2024 Y32.3576 
G01 X-3.0906 Y32.2621 
G01 X-2.9653 Y32.1853 
G01 X-2.8295 Y32.1290 
G01 X-2.6865 Y32.0947 
G01 X-2.5400 Y32.0832 
G01 X-2.3935 Y32.0947 
G01 X-2.2505 Y32.1290 
G01 X-2.1147 Y32.1853 
G01 X-1.9894 Y32.2621 
G01 X-1.8776 Y32.3576 
G01 X-1.7821 Y32.4694 
G01 X-1.7053 Y32.5947 
G01 X-1.6490 Y32.7305 
G01 X-1.6147 Y32.8734 
G01 X-1.6032 Y33.0200 
G01 X-1.6147 Y33.1665 
G01 X-1.6490 Y33.3095 
G01 X-1.7053 Y33.4453 
G01 X-1.7821 Y33.5706 
G01 X-1.8776 Y33.6824 
G01 X-1.9894 Y33.7779 
G01 X-2.1147 Y33.8547 
G01 X-2.2505 Y33.9109 
G01 X-2.3935 Y33.9453 
G01 X-2.5400 Y33.9568 
G01 X-2.6865 Y33.9453 
G01 X-2.8295 Y33.9109 
G01 X-2.9653 Y33.8547 
G01 X-3.0906 Y33.7779 
G01 X-3.2024 Y33.6824 
G01 X-3.2979 Y33.5706 
G01 X-3.3747 Y33.4453 
G01 X-3.4310 Y33.3095 
G01 X-3.4653 Y33.1665 
G01 X-3.4768 Y33.0200 
G01 X-3.4653 Y32.8735 
G00 Z2.5400 
G00 X-3.2452 Y32.6598 
G01 Z-0.2000 f200.00 
G01 X-3.2481 Y32.6668 F60.00 
G01 X-3.2527 Y32.6726 
G01 X-3.2538 Y32.6762 
G01 X-3.2560 Y32.6793 
G01 X-3.2593 Y32.6939 
G01 X-3.2650 Y32.7076 
G01 X-3.2650 Y32.7151 
G01 X-3.2671 Y32.7223 
G01 X-3.2666 Y32.7261 
G01 X-3.3222 Y32.9695 
G01 X-3.3242 Y32.9727 
G01 X-3.3279 Y32.9946 
G01 X-3.3329 Y33.0163 
G01 X-3.3322 Y33.0200 
G01 X-3.3329 Y33.0237 
G01 X-3.3279 Y33.0454 
G01 X-3.3242 Y33.0673 
G01 X-3.3222 Y33.0705 
G01 X-3.2666 Y33.3139 
G01 X-3.2671 Y33.3177 
G01 X-3.2609 Y33.3390 
G01 X-3.2560 Y33.3607 
G01 X-3.2538 Y33.3637 
G01 X-3.2527 Y33.3674 
G01 X-3.2389 Y33.3847 
G01 X-3.2260 Y33.4028 
G01 X-3.2228 Y33.4048 
G01 X-3.0671 Y33.6001 
G01 X-3.0659 Y33.6036 
G01 X-3.0511 Y33.6202 
G01 X-3.0373 Y33.6376 
G01 X-3.0339 Y33.6394 
G01 X-3.0314 Y33.6422 
G01 X-3.0114 Y33.6518 
G01 X-2.9920 Y33.6626 
G01 X-2.9882 Y33.6630 
G01 X-2.7633 Y33.7714 
G01 X-2.7606 Y33.7740 
G01 X-2.7401 Y33.7825 
G01 X-2.7201 Y33.7922 
G01 X-2.7163 Y33.7924 
G01 X-2.7128 Y33.7938 
G01 X-2.6906 Y33.7938 
G01 X-2.6684 Y33.7951 
G01 X-2.6649 Y33.7938 
G01 X-2.4151 Y33.7938 
G01 X-2.4116 Y33.7951 
G01 X-2.3894 Y33.7938 
G01 X-2.3672 Y33.7938 
G01 X-2.3637 Y33.7924 
G01 X-2.3599 Y33.7922 
G01 X-2.3399 Y33.7825 
G01 X-2.3194 Y33.7740 
G01 X-2.3167 Y33.7714 
G01 X-2.0918 Y33.6630 
G01 X-2.0880 Y33.6626 
G01 X-2.0686 Y33.6518 
G01 X-2.0486 Y33.6422 
G01 X-2.0460 Y33.6394 
G01 X-2.0427 Y33.6376 
G01 X-2.0289 Y33.6202 
G01 X-2.0141 Y33.6036 
G01 X-2.0128 Y33.6001 
G01 X-1.8572 Y33.4048 
G01 X-1.8540 Y33.4028 
G01 X-1.8411 Y33.3847 
G01 X-1.8273 Y33.3674 
G01 X-1.8262 Y33.3637 
G01 X-1.8240 Y33.3607 
G01 X-1.8191 Y33.3390 
G01 X-1.8129 Y33.3177 
G01 X-1.8134 Y33.3139 
G01 X-1.7578 Y33.0705 
G01 X-1.7558 Y33.0673 
G01 X-1.7521 Y33.0454 
G01 X-1.7471 Y33.0237 
G01 X-1.7478 Y33.0200 
G01 X-1.7471 Y33.0163 
G01 X-1.7521 Y32.9946 
G01 X-1.7558 Y32.9727 
G01 X-1.7578 Y32.9695 
G01 X-1.8134 Y32.7261 
G01 X-1.8129 Y32.7223 
G01 X-1.8191 Y32.7010 
G01 X-1.8240 Y32.6793 
G01 X-1.8262 Y32.6763 
G01 X-1.8273 Y32.6726 
G01 X-1.8411 Y32.6553 
G01 X-1.8540 Y32.6371 
G01 X-1.8572 Y32.6351 
G01 X-2.0128 Y32.4399 
G01 X-2.0141 Y32.4363 
G01 X-2.0289 Y32.4198 
G01 X-2.0427 Y32.4024 
G01 X-2.0460 Y32.4006 
G01 X-2.0486 Y32.3978 
G01 X-2.0686 Y32.3882 
G01 X-2.0880 Y32.3774 
G01 X-2.0918 Y32.3770 
G01 X-2.3167 Y32.2686 
G01 X-2.3194 Y32.2660 
G01 X-2.3399 Y32.2575 
G01 X-2.3599 Y32.2478 
G01 X-2.3637 Y32.2476 
G01 X-2.3672 Y32.2462 
G01 X-2.3894 Y32.2462 
G01 X-2.4116 Y32.2449 
G01 X-2.4151 Y32.2462 
G01 X-2.6649 Y32.2462 
G01 X-2.6684 Y32.2449 
G01 X-2.6906 Y32.2462 
G01 X-2.7128 Y32.2462 
G01 X-2.7163 Y32.2476 
G01 X-2.7201 Y32.2478 
G01 X-2.7401 Y32.2575 
G01 X-2.7606 Y32.2660 
G01 X-2.7633 Y32.2686 
G01 X-2.9882 Y32.3770 
G01 X-2.9920 Y32.3774 
G01 X-3.0115 Y32.3882 
G01 X-3.0314 Y32.3978 
G01 X-3.0339 Y32.4006 
G01 X-3.0373 Y32.4024 
G01 X-3.0511 Y32.4198 
G01 X-3.0659 Y32.4363 
G01 X-3.0672 Y32.4399 
G01 X-3.2228 Y32.6351 
G01 X-3.2260 Y32.6372 
G01 X-3.2347 Y32.6493 
G01 X-3.2452 Y32.6598 
G00 Z2.5400 
G00 X-4.8482 Y24.2346 
G01 Z-0.2000 f200.00 
G01 X-4.4198 Y24.4120 F60.00 
G01 X-4.0920 Y24.7398 
G01 X-3.9146 Y25.1682 
G01 X-3.9146 Y25.6318 
G01 X-4.0920 Y26.0602 
G01 X-4.4198 Y26.3880 
G01 X-4.7868 Y26.5400 
G01 X-4.8346 Y26.5598 
G01 X-4.8712 Y26.5964 
G01 X-4.8910 Y26.6441 
G01 X-4.8910 Y26.6959 
G01 X-4.8712 Y26.7436 
G01 X-4.8346 Y26.7802 
G01 X-4.4198 Y26.9520 
G01 X-4.0920 Y27.2798 
G01 X-3.9146 Y27.7082 
G01 X-3.9146 Y28.1718 
G01 X-4.0920 Y28.6002 
G01 X-4.4198 Y28.9280 
G01 X-4.8482 Y29.1054 
G01 X-7.8518 Y29.1054 
G01 X-8.2802 Y28.9280 
G01 X-8.6163 Y28.5918 
G01 X-8.6641 Y28.5720 
G01 X-10.9054 Y28.5720 
G01 X-11.1564 Y28.4681 
G01 X-11.3850 Y28.2394 
G01 X-12.9376 Y26.6868 
G01 X-12.9854 Y26.6670 
G01 X-13.5029 Y26.6670 
G01 X-13.5507 Y26.6868 
G01 X-13.5873 Y26.7234 
G01 X-13.6071 Y26.7712 
G01 X-13.6071 Y26.8229 
G01 X-13.5873 Y26.8707 
G01 X-13.5507 Y26.9072 
G01 X-13.5029 Y26.9270 
G01 X-13.3386 Y26.9951 
G01 X-13.0251 Y27.3086 
G01 X-12.8554 Y27.7183 
G01 X-12.8554 Y29.4317 
G01 X-13.0251 Y29.8414 
G01 X-13.3386 Y30.1549 
G01 X-13.7483 Y30.3246 
G01 X-14.1917 Y30.3246 
G01 X-14.6014 Y30.1549 
G01 X-14.9149 Y29.8414 
G01 X-15.0846 Y29.4317 
G01 X-15.0846 Y27.7183 
G01 X-14.9149 Y27.3086 
G01 X-14.6014 Y26.9951 
G01 X-14.4371 Y26.9270 
G01 X-14.3911 Y26.9080 
G01 X-14.3527 Y26.8707 
G01 X-14.3329 Y26.8229 
G01 X-14.3329 Y26.7712 
G01 X-14.3522 Y26.7247 
G01 X-14.3893 Y26.6868 
G01 X-14.4371 Y26.6670 
G01 X-15.5388 Y26.6670 
G01 X-15.5866 Y26.6868 
G01 X-15.6231 Y26.7234 
G01 X-15.7820 Y26.8822 
G01 X-15.8018 Y26.9300 
G01 X-15.8018 Y27.0439 
G01 X-15.7820 Y27.0917 
G01 X-15.7454 Y27.1283 
G01 X-15.5651 Y27.3086 
G01 X-15.3954 Y27.7183 
G01 X-15.3954 Y29.4317 
G01 X-15.5651 Y29.8414 
G01 X-15.8786 Y30.1549 
G01 X-16.2883 Y30.3246 
G01 X-16.7317 Y30.3246 
G01 X-17.1414 Y30.1549 
G01 X-17.4549 Y29.8414 
G01 X-17.6246 Y29.4317 
G01 X-17.6246 Y27.7183 
G01 X-17.4549 Y27.3086 
G01 X-17.1872 Y27.0409 
G01 X-17.1674 Y26.9931 
G01 X-17.1674 Y26.4834 
G01 X-17.0635 Y26.2324 
G01 X-16.4285 Y25.5974 
G01 X-16.2364 Y25.4053 
G01 X-15.9854 Y25.3014 
G01 X-12.5388 Y25.3014 
G01 X-12.2878 Y25.4053 
G01 X-10.5066 Y27.1866 
G01 X-10.4588 Y27.2064 
G01 X-8.5625 Y27.2064 
G01 X-8.5147 Y27.1866 
G01 X-8.4782 Y27.1500 
G01 X-8.2802 Y26.9520 
G01 X-7.9132 Y26.8000 
G01 X-7.8779 Y26.7854 
G01 X-7.8654 Y26.7802 
G01 X-7.8288 Y26.7436 
G01 X-7.8090 Y26.6959 
G01 X-7.8090 Y26.6441 
G01 X-7.8288 Y26.5964 
G01 X-7.8654 Y26.5598 
G01 X-8.2802 Y26.3880 
G01 X-8.6080 Y26.0602 
G01 X-8.7854 Y25.6318 
G01 X-8.7854 Y25.1682 
G01 X-8.7226 Y25.0165 
G01 X-8.7057 Y24.9758 
G01 X-8.7028 Y24.9687 
G01 X-8.7028 Y24.9170 
G01 X-8.7220 Y24.8705 
G01 X-8.7591 Y24.8326 
G01 X-8.8069 Y24.8128 
G01 X-16.6458 Y24.8128 
G01 X-16.8968 Y24.7089 
G01 X-17.7484 Y23.8572 
G01 X-17.7962 Y23.8374 
G01 X-17.9202 Y23.8374 
G01 X-17.9680 Y23.8572 
G01 X-18.0046 Y23.8938 
G01 X-18.0085 Y23.9032 
G01 X-18.0997 Y23.9944 
G01 X-18.1336 Y24.0284 
G01 X-18.1362 Y24.0310 
G01 X-18.1560 Y24.0787 
G01 X-18.1560 Y24.1305 
G01 X-18.1368 Y24.1769 
G01 X-18.0997 Y24.2148 
G01 X-18.0244 Y24.2901 
G01 X-18.0244 Y25.8191 
G01 X-18.1863 Y25.9810 
G01 X-18.2376 Y25.9810 
G01 X-18.2854 Y26.0008 
G01 X-18.3220 Y26.0374 
G01 X-18.3418 Y26.0852 
G01 X-18.3418 Y27.0439 
G01 X-18.3220 Y27.0917 
G01 X-18.2854 Y27.1283 
G01 X-18.1051 Y27.3086 
G01 X-17.9354 Y27.7183 
G01 X-17.9354 Y29.4317 
G01 X-18.1051 Y29.8414 
G01 X-18.4186 Y30.1549 
G01 X-18.8283 Y30.3246 
G01 X-19.2717 Y30.3246 
G01 X-19.6814 Y30.1549 
G01 X-19.9949 Y29.8414 
G01 X-20.1646 Y29.4317 
G01 X-20.1646 Y27.7183 
G01 X-19.9949 Y27.3086 
G01 X-19.7272 Y27.0409 
G01 X-19.7074 Y26.9931 
G01 X-19.7074 Y26.0852 
G01 X-19.7272 Y26.0374 
G01 X-19.7638 Y26.0008 
G01 X-19.8116 Y25.9810 
G01 X-20.0153 Y25.9810 
G01 X-20.1772 Y25.8191 
G01 X-20.1772 Y24.2901 
G01 X-20.0654 Y24.1782 
G01 X-20.0456 Y24.1305 
G01 X-20.0456 Y24.0787 
G01 X-20.0654 Y24.0310 
G01 X-20.1019 Y23.9944 
G01 X-20.1772 Y23.9191 
G01 X-20.1772 Y22.3901 
G01 X-20.0153 Y22.2282 
G01 X-18.1863 Y22.2282 
G01 X-18.0085 Y22.4060 
G01 X-18.0046 Y22.4154 
G01 X-17.9680 Y22.4520 
G01 X-17.9202 Y22.4718 
G01 X-17.3496 Y22.4718 
G01 X-17.0986 Y22.5757 
G01 X-16.8700 Y22.8044 
G01 X-16.2470 Y23.4274 
G01 X-16.1992 Y23.4472 
G01 X-7.4080 Y23.4472 
G01 X-7.1570 Y23.5511 
G01 X-6.9649 Y23.7432 
G01 X-6.4934 Y24.2148 
G01 X-6.4456 Y24.2346 
G01 X-6.3939 Y24.2346 
G01 X-4.8482 Y24.2346 
G00 Z2.5400 
G00 X-10.5474 Y27.3528 
G01 Z-0.2000 f200.00 
G01 X-12.3452 Y25.5550 F60.00 
G01 X-12.4676 Y25.4844 
G01 X-12.6040 Y25.4478 
G01 X-15.9202 Y25.4478 
G01 X-16.0566 Y25.4844 
G01 X-16.1790 Y25.5550 
G01 X-16.2788 Y25.6548 
G01 X-16.9138 Y26.2898 
G01 X-16.9844 Y26.4122 
G01 X-17.0210 Y26.5486 
G01 X-17.0210 Y27.1170 
G01 X-17.1272 Y27.1880 
G01 X-17.2620 Y27.3228 
G01 X-17.3680 Y27.4814 
G01 X-17.4410 Y27.6576 
G01 X-17.4782 Y27.8446 
G01 X-17.4782 Y29.3054 
G01 X-17.4410 Y29.4924 
G01 X-17.3680 Y29.6686 
G01 X-17.2620 Y29.8272 
G01 X-17.1272 Y29.9620 
G01 X-16.9686 Y30.0680 
G01 X-16.7924 Y30.1410 
G01 X-16.6054 Y30.1782 
G01 X-16.4146 Y30.1782 
G01 X-16.2276 Y30.1410 
G01 X-16.0514 Y30.0680 
G01 X-15.8928 Y29.9620 
G01 X-15.7580 Y29.8272 
G01 X-15.6520 Y29.6686 
G01 X-15.5790 Y29.4924 
G01 X-15.5418 Y29.3054 
G01 X-15.5418 Y27.8446 
G01 X-15.5790 Y27.6576 
G01 X-15.6520 Y27.4814 
G01 X-15.7580 Y27.3228 
G01 X-15.8928 Y27.1880 
G01 X-15.9482 Y27.1509 
G01 X-15.9482 Y26.8414 
G01 X-15.6274 Y26.5206 
G01 X-12.8968 Y26.5206 
G01 X-11.1988 Y28.2186 
G01 X-11.0990 Y28.3184 
G01 X-10.9766 Y28.3890 
G01 X-10.8402 Y28.4256 
G01 X-8.5211 Y28.4256 
G01 X-8.4115 Y28.5896 
G01 X-8.2696 Y28.7315 
G01 X-8.1027 Y28.8430 
G01 X-7.9172 Y28.9198 
G01 X-7.7204 Y28.9590 
G01 X-4.9796 Y28.9590 
G01 X-4.7828 Y28.9198 
G01 X-4.5973 Y28.8430 
G01 X-4.4304 Y28.7315 
G01 X-4.2885 Y28.5896 
G01 X-4.1770 Y28.4227 
G01 X-4.1002 Y28.2372 
G01 X-4.0610 Y28.0404 
G01 X-4.0610 Y27.8396 
G01 X-4.1002 Y27.6428 
G01 X-4.1770 Y27.4573 
G01 X-4.2885 Y27.2904 
G01 X-4.4304 Y27.1485 
G01 X-4.5973 Y27.0370 
G01 X-4.7828 Y26.9602 
G01 X-4.9796 Y26.9210 
G01 X-7.7204 Y26.9210 
G01 X-7.9172 Y26.9602 
G01 X-8.1027 Y27.0370 
G01 X-8.2696 Y27.1485 
G01 X-8.4115 Y27.2904 
G01 X-8.4532 Y27.3528 
G01 X-10.5474 Y27.3528 
G00 Z2.5400 
G00 X-19.9267 Y23.9346 
G01 Z-0.2000 f200.00 
G01 X-18.2749 Y23.9346 F60.00 
G01 X-18.2272 Y23.9148 
G01 X-18.1906 Y23.8782 
G01 X-18.1708 Y23.8305 
G01 X-18.1708 Y23.6910 
G01 X-17.7076 Y23.6910 
G01 X-16.9392 Y24.4594 
G01 X-16.8394 Y24.5592 
G01 X-16.7170 Y24.6298 
G01 X-16.5806 Y24.6664 
G01 X-8.3275 Y24.6664 
G01 X-8.4115 Y24.7504 
G01 X-8.5230 Y24.9173 
G01 X-8.5998 Y25.1028 
G01 X-8.6390 Y25.2996 
G01 X-8.6390 Y25.5004 
G01 X-8.5998 Y25.6972 
G01 X-8.5230 Y25.8827 
G01 X-8.4115 Y26.0496 
G01 X-8.2696 Y26.1915 
G01 X-8.1027 Y26.3030 
G01 X-7.9172 Y26.3798 
G01 X-7.7204 Y26.4190 
G01 X-4.9796 Y26.4190 
G01 X-4.7828 Y26.3798 
G01 X-4.5973 Y26.3030 
G01 X-4.4304 Y26.1915 
G01 X-4.2885 Y26.0496 
G01 X-4.1770 Y25.8827 
G01 X-4.1002 Y25.6972 
G01 X-4.0610 Y25.5004 
G01 X-4.0610 Y25.2996 
G01 X-4.1002 Y25.1028 
G01 X-4.1770 Y24.9173 
G01 X-4.2885 Y24.7504 
G01 X-4.4304 Y24.6085 
G01 X-4.5973 Y24.4970 
G01 X-4.7828 Y24.4202 
G01 X-4.9796 Y24.3810 
G01 X-6.5342 Y24.3810 
G01 X-7.1146 Y23.8006 
G01 X-7.2144 Y23.7008 
G01 X-7.3368 Y23.6302 
G01 X-7.4732 Y23.5936 
G01 X-16.2878 Y23.5936 
G01 X-17.0562 Y22.8252 
G01 X-17.1560 Y22.7254 
G01 X-17.2784 Y22.6548 
G01 X-17.4148 Y22.6182 
G01 X-18.1708 Y22.6182 
G01 X-18.1708 Y22.4787 
G01 X-18.1906 Y22.4310 
G01 X-18.2272 Y22.3944 
G01 X-18.2749 Y22.3746 
G01 X-19.9267 Y22.3746 
G01 X-19.9744 Y22.3944 
G01 X-20.0110 Y22.4310 
G01 X-20.0308 Y22.4787 
G01 X-20.0308 Y23.8305 
G01 X-20.0110 Y23.8782 
G01 X-19.9744 Y23.9148 
G01 X-19.9267 Y23.9346 
G00 Z2.5400 
G00 X-18.4882 Y25.8346 
G01 Z-0.2000 f200.00 
G01 X-18.2749 Y25.8346 F60.00 
G01 X-18.2272 Y25.8148 
G01 X-18.1906 Y25.7782 
G01 X-18.1708 Y25.7305 
G01 X-18.1708 Y24.3787 
G01 X-18.1906 Y24.3310 
G01 X-18.2272 Y24.2944 
G01 X-18.2749 Y24.2746 
G01 X-19.9267 Y24.2746 
G01 X-19.9744 Y24.2944 
G01 X-20.0110 Y24.3310 
G01 X-20.0308 Y24.3787 
G01 X-20.0308 Y25.7305 
G01 X-20.0110 Y25.7782 
G01 X-19.9744 Y25.8148 
G01 X-19.9267 Y25.8346 
G01 X-19.5610 Y25.8346 
G01 X-19.5610 Y27.1170 
G01 X-19.6672 Y27.1880 
G01 X-19.8020 Y27.3228 
G01 X-19.9080 Y27.4814 
G01 X-19.9810 Y27.6576 
G01 X-20.0182 Y27.8446 
G01 X-20.0182 Y29.3054 
G01 X-19.9810 Y29.4924 
G01 X-19.9080 Y29.6686 
G01 X-19.8020 Y29.8272 
G01 X-19.6672 Y29.9620 
G01 X-19.5086 Y30.0680 
G01 X-19.3324 Y30.1410 
G01 X-19.1454 Y30.1782 
G01 X-18.9546 Y30.1782 
G01 X-18.7676 Y30.1410 
G01 X-18.5914 Y30.0680 
G01 X-18.4328 Y29.9620 
G01 X-18.2980 Y29.8272 
G01 X-18.1920 Y29.6686 
G01 X-18.1190 Y29.4924 
G01 X-18.0818 Y29.3054 
G01 X-18.0818 Y27.8446 
G01 X-18.1190 Y27.6576 
G01 X-18.1920 Y27.4814 
G01 X-18.2980 Y27.3228 
G01 X-18.4328 Y27.1880 
G01 X-18.4882 Y27.1509 
G01 X-18.4882 Y25.8346 
G00 Z2.5400 
G00 X-14.9382 Y27.8446 
G01 Z-0.2000 f200.00 
G01 X-14.9382 Y29.3054 F60.00 
G01 X-14.9010 Y29.4924 
G01 X-14.8280 Y29.6686 
G01 X-14.7220 Y29.8272 
G01 X-14.5872 Y29.9620 
G01 X-14.4286 Y30.0680 
G01 X-14.2524 Y30.1410 
G01 X-14.0654 Y30.1782 
G01 X-13.8746 Y30.1782 
G01 X-13.6876 Y30.1410 
G01 X-13.5114 Y30.0680 
G01 X-13.3528 Y29.9620 
G01 X-13.2180 Y29.8272 
G01 X-13.1120 Y29.6686 
G01 X-13.0390 Y29.4924 
G01 X-13.0018 Y29.3054 
G01 X-13.0018 Y27.8446 
G01 X-13.0390 Y27.6576 
G01 X-13.1120 Y27.4814 
G01 X-13.2180 Y27.3228 
G01 X-13.3528 Y27.1880 
G01 X-13.5114 Y27.0820 
G01 X-13.6876 Y27.0090 
G01 X-13.8746 Y26.9718 
G01 X-14.0654 Y26.9718 
G01 X-14.2524 Y27.0090 
G01 X-14.4286 Y27.0820 
G01 X-14.5872 Y27.1880 
G01 X-14.7220 Y27.3228 
G01 X-14.8280 Y27.4814 
G01 X-14.9010 Y27.6576 
G01 X-14.9382 Y27.8446 
G00 Z2.5400 
G00 X-4.1133 Y32.2623 
G01 Z-0.2000 f200.00 
G01 X-3.6288 Y31.6547 F60.00 
G01 X-2.9286 Y31.3175 
G01 X-2.1514 Y31.3175 
G01 X-1.4512 Y31.6547 
G01 X-0.9667 Y32.2623 
G01 X-0.7937 Y33.0200 
G01 X-0.9667 Y33.7777 
G01 X-1.4512 Y34.3853 
G01 X-2.1514 Y34.7225 
G01 X-2.9286 Y34.7225 
G01 X-3.6288 Y34.3853 
G01 X-4.1133 Y33.7777 
G01 X-4.2863 Y33.0200 
G01 X-4.1133 Y32.2623 
G00 Z2.5400 
G00 X-4.0647 Y33.5154 
G01 Z-0.2000 f200.00 
G01 X-3.9685 Y33.7478 F60.00 
G01 X-3.8370 Y33.9623 
G01 X-3.6736 Y34.1536 
G01 X-3.4823 Y34.3170 
G01 X-3.2678 Y34.4485 
G01 X-3.0354 Y34.5447 
G01 X-2.7908 Y34.6035 
G01 X-2.5400 Y34.6232 
G01 X-2.2892 Y34.6035 
G01 X-2.0446 Y34.5447 
G01 X-1.8122 Y34.4485 
G01 X-1.5977 Y34.3170 
G01 X-1.4064 Y34.1536 
G01 X-1.2430 Y33.9623 
G01 X-1.1115 Y33.7478 
G01 X-1.0153 Y33.5154 
G01 X-0.9565 Y33.2708 
G01 X-0.9368 Y33.0200 
G01 X-0.9565 Y32.7692 
G01 X-1.0153 Y32.5246 
G01 X-1.1115 Y32.2922 
G01 X-1.2430 Y32.0777 
G01 X-1.4064 Y31.8864 
G01 X-1.5977 Y31.7230 
G01 X-1.8122 Y31.5915 
G01 X-2.0446 Y31.4953 
G01 X-2.2892 Y31.4365 
G01 X-2.5400 Y31.4168 
G01 X-2.7908 Y31.4365 
G01 X-3.0354 Y31.4953 
G01 X-3.2678 Y31.5915 
G01 X-3.4823 Y31.7230 
G01 X-3.6736 Y31.8864 
G01 X-3.8370 Y32.0777 
G01 X-3.9685 Y32.2922 
G01 X-4.0647 Y32.5246 
G01 X-4.1235 Y32.7692 
G01 X-4.1432 Y33.0200 
G01 X-4.1235 Y33.2708 
G01 X-4.0647 Y33.5154 
G00 Z2.5400 
G00 X-1.7242 Y24.6188 
G01 Z-0.2000 f200.00 
G01 X-1.6512 Y24.4425 F60.00 
G01 X-1.5163 Y24.3076 
G01 X-1.3400 Y24.2346 
G01 X-1.1492 Y24.2346 
G01 X-0.9729 Y24.3076 
G01 X-0.8380 Y24.4425 
G01 X-0.7650 Y24.6188 
G01 X-0.7650 Y26.0796 
G01 X-0.8380 Y26.2559 
G01 X-0.9729 Y26.3908 
G01 X-1.1492 Y26.4638 
G01 X-1.3400 Y26.4638 
G01 X-1.5163 Y26.3908 
G01 X-1.6512 Y26.2559 
G01 X-1.7242 Y26.0796 
G01 X-1.7242 Y25.9330 
G01 X-1.7440 Y25.8852 
G01 X-1.7806 Y25.8486 
G01 X-1.8284 Y25.8288 
G01 X-2.6100 Y25.8288 
G01 X-2.7863 Y25.7558 
G01 X-2.9212 Y25.6209 
G01 X-2.9942 Y25.4446 
G01 X-2.9942 Y25.2538 
G01 X-2.9212 Y25.0775 
G01 X-2.7863 Y24.9426 
G01 X-2.6100 Y24.8696 
G01 X-1.8284 Y24.8696 
G01 X-1.7806 Y24.8498 
G01 X-1.7440 Y24.8132 
G01 X-1.7242 Y24.7654 
G01 X-1.7242 Y24.7137 
G01 X-1.7242 Y24.6188 
G00 Z2.5400 
G00 X-2.5585 Y25.0160 
G01 Z-0.2000 f200.00 
G01 X-2.6432 Y25.0387 F60.00 
G01 X-2.7192 Y25.0826 
G01 X-2.7812 Y25.1446 
G01 X-2.8251 Y25.2206 
G01 X-2.8478 Y25.3053 
G01 X-2.8478 Y25.3931 
G01 X-2.8251 Y25.4778 
G01 X-2.7812 Y25.5538 
G01 X-2.7192 Y25.6158 
G01 X-2.6432 Y25.6597 
G01 X-2.5585 Y25.6824 
G01 X-1.5778 Y25.6824 
G01 X-1.5778 Y26.0281 
G01 X-1.5551 Y26.1128 
G01 X-1.5112 Y26.1888 
G01 X-1.4492 Y26.2508 
G01 X-1.3732 Y26.2947 
G01 X-1.2885 Y26.3174 
G01 X-1.2007 Y26.3174 
G01 X-1.1160 Y26.2947 
G01 X-1.0400 Y26.2508 
G01 X-0.9780 Y26.1888 
G01 X-0.9341 Y26.1128 
G01 X-0.9114 Y26.0281 
G01 X-0.9114 Y24.6703 
G01 X-0.9341 Y24.5856 
G01 X-0.9780 Y24.5096 
G01 X-1.0400 Y24.4476 
G01 X-1.1160 Y24.4037 
G01 X-1.2007 Y24.3810 
G01 X-1.2885 Y24.3810 
G01 X-1.3732 Y24.4037 
G01 X-1.4492 Y24.4476 
G01 X-1.5112 Y24.5096 
G01 X-1.5551 Y24.5856 
G01 X-1.5778 Y24.6703 
G01 X-1.5778 Y25.0160 
G01 X-2.5585 Y25.0160 
G00 Z2.5400 
G00 X-1.6079 Y28.9308 
G01 Z-0.2000 f200.00 
G01 X-1.7842 Y29.0038 F60.00 
G01 X-1.9750 Y29.0038 
G01 X-2.1513 Y28.9308 
G01 X-2.7863 Y28.2958 
G01 X-2.9212 Y28.1609 
G01 X-2.9942 Y27.9846 
G01 X-2.9942 Y27.7938 
G01 X-2.9212 Y27.6175 
G01 X-2.1513 Y26.8476 
G01 X-1.9750 Y26.7746 
G01 X-1.7842 Y26.7746 
G01 X-1.6079 Y26.8476 
G01 X-1.4730 Y26.9825 
G01 X-1.4000 Y27.1588 
G01 X-1.4000 Y27.3054 
G01 X-1.3802 Y27.3532 
G01 X-1.3436 Y27.3898 
G01 X-1.2958 Y27.4096 
G01 X-1.1492 Y27.4096 
G01 X-0.9729 Y27.4826 
G01 X-0.8380 Y27.6175 
G01 X-0.7650 Y27.7938 
G01 X-0.7650 Y27.9846 
G01 X-0.8380 Y28.1609 
G01 X-0.9729 Y28.2958 
G01 X-1.1492 Y28.3688 
G01 X-1.2958 Y28.3688 
G01 X-1.3436 Y28.3886 
G01 X-1.3802 Y28.4252 
G01 X-1.4000 Y28.4730 
G01 X-1.4000 Y28.6196 
G01 X-1.4730 Y28.7959 
G01 X-1.6079 Y28.9308 
G00 Z2.5400 
G00 X-1.2007 Y28.2224 
G01 Z-0.2000 f200.00 
G01 X-1.1160 Y28.1997 F60.00 
G01 X-1.0400 Y28.1558 
G01 X-0.9780 Y28.0938 
G01 X-0.9341 Y28.0178 
G01 X-0.9114 Y27.9331 
G01 X-0.9114 Y27.8453 
G01 X-0.9341 Y27.7606 
G01 X-0.9780 Y27.6846 
G01 X-1.0400 Y27.6226 
G01 X-1.1160 Y27.5787 
G01 X-1.2007 Y27.5560 
G01 X-1.7102 Y27.5560 
G01 X-1.6130 Y27.4588 
G01 X-1.5691 Y27.3828 
G01 X-1.5464 Y27.2981 
G01 X-1.5464 Y27.2103 
G01 X-1.5691 Y27.1256 
G01 X-1.6130 Y27.0496 
G01 X-1.6750 Y26.9876 
G01 X-1.7510 Y26.9437 
G01 X-1.8357 Y26.9210 
G01 X-1.9235 Y26.9210 
G01 X-2.0082 Y26.9437 
G01 X-2.0842 Y26.9876 
G01 X-2.7812 Y27.6846 
G01 X-2.8251 Y27.7606 
G01 X-2.8478 Y27.8453 
G01 X-2.8478 Y27.9331 
G01 X-2.8251 Y28.0178 
G01 X-2.7812 Y28.0938 
G01 X-2.7192 Y28.1558 
G01 X-2.0842 Y28.7908 
G01 X-2.0082 Y28.8347 
G01 X-1.9235 Y28.8574 
G01 X-1.8357 Y28.8574 
G01 X-1.7510 Y28.8347 
G01 X-1.6750 Y28.7908 
G01 X-1.6130 Y28.7288 
G01 X-1.5691 Y28.6528 
G01 X-1.5464 Y28.5681 
G01 X-1.5464 Y28.4803 
G01 X-1.5691 Y28.3956 
G01 X-1.6130 Y28.3196 
G01 X-1.7102 Y28.2224 
G01 X-1.2007 Y28.2224 
G00 Z2.5400 
G00 X-6.3246 Y27.8892 
G01 Z-0.2794 f200.00 
G00 Z2.5400 
G00 X-6.3246 Y25.3492 
G01 Z-0.2794 f200.00 
G00 Z2.5400 
G00 X-19.0246 Y27.8892 
G01 Z-0.2794 f200.00 
G00 Z2.5400 
G00 X-16.4846 Y27.8892 
G01 Z-0.2794 f200.00 
G00 Z2.5400 
G00 X-13.9446 Y27.8892 
G01 Z-0.2794 f200.00 
G00 Z2.5400 
G00 X-13.9446 Y20.2692 
G01 Z-0.2794 f200.00 
G00 Z2.5400 
G00 X-16.4846 Y20.2692 
G01 Z-0.2794 f200.00 
G00 Z2.5400 
G00 X-19.0246 Y20.2692 
G01 Z-0.2794 f200.00 
G00 Z2.5400 
G00 X-5.0346 Y16.3792 
G01 Z-0.2794 f200.00 
G00 Z2.5400 
G00 X-5.0346 Y11.3792 
G01 Z-0.2794 f200.00 
G00 Z2.5400 
G00 X-5.0346 Y6.3792 
G01 Z-0.2794 f200.00 
G00 Z2.5400 
G00 Z12.7000 
M05
M02
