(This is simple header)
g21
(Header end)
G0 Z1.000000
G0 X2.300000 Y2.600000
G1 X2.300000 Y2.600000 F400.000000
G0 X16.300000 Y2.600000
G1 Z-0.333333
G0 Z1.000000
G0 X20.300000 Y2.600000
G1 Z-0.329412
G0 Z1.000000
G0 X33.300000 Y2.600000
G1 Z-0.339216
G0 Z1.000000
G0 X34.300000 Y2.600000
G1 Z-0.323529
G0 Z1.000000
G0 X36.300000 Y2.600000
G1 Z-0.307843
G0 Z1.000000
G0 X37.300000 Y2.600000
G1 Z-0.327451
G0 Z1.000000
G0 X47.300000 Y2.600000
G1 Z-0.360784
G0 Z1.000000
G0 X16.300000 Y3.600000
G1 Z-0.343137
G0 Z1.000000
G0 X33.300000 Y3.600000
G1 Z-0.333333
G0 Z1.000000
G0 X36.300000 Y3.600000
G1 Z-0.325490
G0 Z1.000000
G0 X37.300000 Y3.600000
G1 Z-0.331373
G0 Z1.000000
G0 X43.300000 Y3.600000
G1 Z-0.307843
G0 Z1.000000
G0 X47.300000 Y3.600000
G1 Z-0.345098
G0 Z1.000000
G0 X34.300000 Y4.600000
G1 Z-0.323529
G0 Z1.000000
G0 X36.300000 Y4.600000
G1 Z-0.307843
G0 Z1.000000
G0 X37.300000 Y4.600000
G1 Z-0.335294
G0 Z1.000000
G0 X43.300000 Y4.600000
G1 Z-0.335294
G0 Z1.000000
G0 X48.300000 Y4.600000
G1 Z-0.307843
G0 Z1.000000
(Add here Gcode to clean the head)
(Something like G00 X... Y...)
(Machine will go cleaning each "row", or after reaching some "sum")
G0 X21.300000 Y5.600000
G1 Z-0.500000
G0 Z1.000000
G0 X22.300000 Y5.600000
G1 Z-0.470588
G0 Z1.000000
G0 X23.300000 Y5.600000
G1 Z-0.441176
G0 Z1.000000
G0 X24.300000 Y5.600000
G1 Z-0.431373
G0 Z1.000000
G0 X25.300000 Y5.600000
G1 Z-0.372549
G0 Z1.000000
G0 X26.300000 Y5.600000
G1 Z-0.301961
G0 Z1.000000
G0 X43.300000 Y5.600000
G1 Z-0.309804
G0 Z1.000000
G0 X21.300000 Y6.600000
G1 Z-0.496078
G0 Z1.000000
G0 X22.300000 Y6.600000
G1 Z-0.498039
G0 Z1.000000
G0 X23.300000 Y6.600000
G1 Z-0.500000
G0 Z1.000000
G0 X24.300000 Y6.600000
G1 Z-0.500000
G0 Z1.000000
G0 X25.300000 Y6.600000
G1 Z-0.500000
G0 Z1.000000
G0 X26.300000 Y6.600000
G1 Z-0.500000
G0 Z1.000000
G0 X27.300000 Y6.600000
G1 Z-0.370588
G0 Z1.000000
G0 X43.300000 Y6.600000
G1 Z-0.325490
G0 Z1.000000
G0 X47.300000 Y6.600000
G1 Z-0.317647
G0 Z1.000000
G0 X20.300000 Y7.600000
G1 Z-0.337255
G0 Z1.000000
G0 X21.300000 Y7.600000
G1 Z-0.464706
G0 Z1.000000
G0 X22.300000 Y7.600000
G1 Z-0.500000
G0 Z1.000000
G0 X23.300000 Y7.600000
G1 Z-0.500000
G0 Z1.000000
G0 X24.300000 Y7.600000
G1 Z-0.498039
G0 Z1.000000
G0 X25.300000 Y7.600000
G1 Z-0.500000
G0 Z1.000000
G0 X26.300000 Y7.600000
G1 Z-0.500000
G0 Z1.000000
G0 X27.300000 Y7.600000
G1 Z-0.445098
G0 Z1.000000
G0 X43.300000 Y7.600000
G1 Z-0.349020
G0 Z1.000000
G0 X47.300000 Y7.600000
G1 Z-0.345098
G0 Z1.000000
G0 X20.300000 Y8.600000
G1 Z-0.423529
G0 Z1.000000
G0 X21.300000 Y8.600000
G1 Z-0.382353
G0 Z1.000000
G0 X22.300000 Y8.600000
G1 Z-0.376471
G0 Z1.000000
G0 X23.300000 Y8.600000
G1 Z-0.392157
G0 Z1.000000
G0 X24.300000 Y8.600000
G1 Z-0.494118
G0 Z1.000000
G0 X25.300000 Y8.600000
G1 Z-0.445098
G0 Z1.000000
G0 X26.300000 Y8.600000
G1 Z-0.462745
G0 Z1.000000
G0 X27.300000 Y8.600000
G1 Z-0.401961
G0 Z1.000000
(Add here Gcode to clean the head)
(Something like G00 X... Y...)
(Machine will go cleaning each "row", or after reaching some "sum")
G0 X6.300000 Y9.600000
G1 Z-0.307843
G0 Z1.000000
G0 X20.300000 Y9.600000
G1 Z-0.407843
G0 Z1.000000
G0 X21.300000 Y9.600000
G1 Z-0.384314
G0 Z1.000000
G0 X22.300000 Y9.600000
G1 Z-0.337255
G0 Z1.000000
G0 X23.300000 Y9.600000
G1 Z-0.388235
G0 Z1.000000
G0 X24.300000 Y9.600000
G1 Z-0.472549
G0 Z1.000000
G0 X25.300000 Y9.600000
G1 Z-0.339216
G0 Z1.000000
G0 X27.300000 Y9.600000
G1 Z-0.301961
G0 Z1.000000
G0 X43.300000 Y9.600000
G1 Z-0.317647
G0 Z1.000000
G0 X48.300000 Y9.600000
G1 Z-0.341176
G0 Z1.000000
G0 X19.300000 Y10.600000
G1 Z-0.317647
G0 Z1.000000
G0 X20.300000 Y10.600000
G1 Z-0.411765
G0 Z1.000000
G0 X21.300000 Y10.600000
G1 Z-0.500000
G0 Z1.000000
G0 X22.300000 Y10.600000
G1 Z-0.500000
G0 Z1.000000
G0 X23.300000 Y10.600000
G1 Z-0.496078
G0 Z1.000000
G0 X24.300000 Y10.600000
G1 Z-0.445098
G0 Z1.000000
G0 X25.300000 Y10.600000
G1 Z-0.480392
G0 Z1.000000
G0 X26.300000 Y10.600000
G1 Z-0.458824
G0 Z1.000000
G0 X27.300000 Y10.600000
G1 Z-0.372549
G0 Z1.000000
G0 X48.300000 Y10.600000
G1 Z-0.319608
G0 Z1.000000
G0 X19.300000 Y11.600000
G1 Z-0.370588
G0 Z1.000000
G0 X20.300000 Y11.600000
G1 Z-0.382353
G0 Z1.000000
G0 X21.300000 Y11.600000
G1 Z-0.496078
G0 Z1.000000
G0 X22.300000 Y11.600000
G1 Z-0.500000
G0 Z1.000000
G0 X23.300000 Y11.600000
G1 Z-0.419608
G0 Z1.000000
G0 X24.300000 Y11.600000
G1 Z-0.319608
G0 Z1.000000
G0 X25.300000 Y11.600000
G1 Z-0.362745
G0 Z1.000000
G0 X26.300000 Y11.600000
G1 Z-0.494118
G0 Z1.000000
G0 X27.300000 Y11.600000
G1 Z-0.325490
G0 Z1.000000
G0 X43.300000 Y11.600000
G1 Z-0.303922
G0 Z1.000000
G0 X48.300000 Y11.600000
G1 Z-0.311765
G0 Z1.000000
G0 X49.300000 Y11.600000
G1 Z-0.333333
G0 Z1.000000
G0 X20.300000 Y12.600000
G1 Z-0.411765
G0 Z1.000000
G0 X21.300000 Y12.600000
G1 Z-0.480392
G0 Z1.000000
G0 X22.300000 Y12.600000
G1 Z-0.462745
G0 Z1.000000
G0 X23.300000 Y12.600000
G1 Z-0.382353
G0 Z1.000000
G0 X24.300000 Y12.600000
G1 Z-0.411765
G0 Z1.000000
G0 X25.300000 Y12.600000
G1 Z-0.376471
G0 Z1.000000
G0 X26.300000 Y12.600000
G1 Z-0.411765
G0 Z1.000000
(Add here Gcode to clean the head)
(Something like G00 X... Y...)
(Machine will go cleaning each "row", or after reaching some "sum")
G0 X47.300000 Y12.600000
G1 Z-0.331373
G0 Z1.000000
G0 X48.300000 Y12.600000
G1 Z-0.390196
G0 Z1.000000
G0 X49.300000 Y12.600000
G1 Z-0.331373
G0 Z1.000000
G0 X50.300000 Y12.600000
G1 Z-0.305882
G0 Z1.000000
G0 X20.300000 Y13.600000
G1 Z-0.384314
G0 Z1.000000
G0 X21.300000 Y13.600000
G1 Z-0.454902
G0 Z1.000000
G0 X22.300000 Y13.600000
G1 Z-0.494118
G0 Z1.000000
G0 X23.300000 Y13.600000
G1 Z-0.464706
G0 Z1.000000
G0 X24.300000 Y13.600000
G1 Z-0.417647
G0 Z1.000000
G0 X25.300000 Y13.600000
G1 Z-0.380392
G0 Z1.000000
G0 X26.300000 Y13.600000
G1 Z-0.376471
G0 Z1.000000
G0 X33.300000 Y13.600000
G1 Z-0.496078
G0 Z1.000000
G0 X34.300000 Y13.600000
G1 Z-0.350980
G0 Z1.000000
G0 X35.300000 Y13.600000
G1 Z-0.364706
G0 Z1.000000
G0 X36.300000 Y13.600000
G1 Z-0.421569
G0 Z1.000000
G0 X47.300000 Y13.600000
G1 Z-0.315686
G0 Z1.000000
G0 X48.300000 Y13.600000
G1 Z-0.356863
G0 Z1.000000
G0 X50.300000 Y13.600000
G1 Z-0.307843
G0 Z1.000000
G0 X20.300000 Y14.600000
G1 Z-0.327451
G0 Z1.000000
G0 X21.300000 Y14.600000
G1 Z-0.407843
G0 Z1.000000
G0 X22.300000 Y14.600000
G1 Z-0.396078
G0 Z1.000000
G0 X23.300000 Y14.600000
G1 Z-0.454902
G0 Z1.000000
G0 X24.300000 Y14.600000
G1 Z-0.500000
G0 Z1.000000
G0 X25.300000 Y14.600000
G1 Z-0.396078
G0 Z1.000000
G0 X31.300000 Y14.600000
G1 Z-0.405882
G0 Z1.000000
G0 X32.300000 Y14.600000
G1 Z-0.372549
G0 Z1.000000
G0 X33.300000 Y14.600000
G1 Z-0.500000
G0 Z1.000000
G0 X34.300000 Y14.600000
G1 Z-0.500000
G0 Z1.000000
G0 X35.300000 Y14.600000
G1 Z-0.500000
G0 Z1.000000
G0 X36.300000 Y14.600000
G1 Z-0.500000
G0 Z1.000000
G0 X37.300000 Y14.600000
G1 Z-0.466667
G0 Z1.000000
G0 X43.300000 Y14.600000
G1 Z-0.301961
G0 Z1.000000
G0 X48.300000 Y14.600000
G1 Z-0.345098
G0 Z1.000000
G0 X49.300000 Y14.600000
G1 Z-0.331373
G0 Z1.000000
G0 X50.300000 Y14.600000
G1 Z-0.339216
G0 Z1.000000
G0 X6.300000 Y15.600000
G1 Z-0.309804
G0 Z1.000000
G0 X20.300000 Y15.600000
G1 Z-0.382353
G0 Z1.000000
G0 X21.300000 Y15.600000
G1 Z-0.388235
G0 Z1.000000
G0 X22.300000 Y15.600000
G1 Z-0.372549
G0 Z1.000000
G0 X23.300000 Y15.600000
G1 Z-0.327451
G0 Z1.000000
G0 X24.300000 Y15.600000
G1 Z-0.362745
G0 Z1.000000
G0 X31.300000 Y15.600000
G1 Z-0.480392
G0 Z1.000000
G0 X32.300000 Y15.600000
G1 Z-0.356863
G0 Z1.000000
G0 X33.300000 Y15.600000
G1 Z-0.500000
G0 Z1.000000
G0 X34.300000 Y15.600000
G1 Z-0.484314
G0 Z1.000000
G0 X35.300000 Y15.600000
G1 Z-0.490196
G0 Z1.000000
G0 X36.300000 Y15.600000
G1 Z-0.500000
G0 Z1.000000
G0 X37.300000 Y15.600000
G1 Z-0.421569
G0 Z1.000000
G0 X43.300000 Y15.600000
G1 Z-0.343137
G0 Z1.000000
G0 X48.300000 Y15.600000
G1 Z-0.305882
G0 Z1.000000
G0 X49.300000 Y15.600000
G1 Z-0.343137
G0 Z1.000000
G0 X50.300000 Y15.600000
G1 Z-0.305882
G0 Z1.000000
G0 X51.300000 Y15.600000
G1 Z-0.350980
G0 Z1.000000
G0 X19.300000 Y16.600000
G1 Z-0.360784
G0 Z1.000000
G0 X20.300000 Y16.600000
G1 Z-0.380392
G0 Z1.000000
G0 X21.300000 Y16.600000
G1 Z-0.460784
G0 Z1.000000
G0 X22.300000 Y16.600000
G1 Z-0.378431
G0 Z1.000000
G0 X23.300000 Y16.600000
G1 Z-0.376471
G0 Z1.000000
G0 X24.300000 Y16.600000
G1 Z-0.347059
G0 Z1.000000
G0 X25.300000 Y16.600000
G1 Z-0.323529
G0 Z1.000000
G0 X27.300000 Y16.600000
G1 Z-0.337255
G0 Z1.000000
G0 X31.300000 Y16.600000
G1 Z-0.378431
G0 Z1.000000
G0 X32.300000 Y16.600000
G1 Z-0.400000
G0 Z1.000000
G0 X33.300000 Y16.600000
G1 Z-0.380392
G0 Z1.000000
G0 X34.300000 Y16.600000
G1 Z-0.500000
G0 Z1.000000
G0 X35.300000 Y16.600000
G1 Z-0.476471
G0 Z1.000000
G0 X36.300000 Y16.600000
G1 Z-0.431373
G0 Z1.000000
G0 X37.300000 Y16.600000
G1 Z-0.449020
G0 Z1.000000
(Add here Gcode to clean the head)
(Something like G00 X... Y...)
(Machine will go cleaning each "row", or after reaching some "sum")
G0 X43.300000 Y16.600000
G1 Z-0.337255
G0 Z1.000000
G0 X50.300000 Y16.600000
G1 Z-0.352941
G0 Z1.000000
G0 X18.300000 Y17.600000
G1 Z-0.476471
G0 Z1.000000
G0 X19.300000 Y17.600000
G1 Z-0.500000
G0 Z1.000000
G0 X20.300000 Y17.600000
G1 Z-0.376471
G0 Z1.000000
G0 X21.300000 Y17.600000
G1 Z-0.500000
G0 Z1.000000
G0 X22.300000 Y17.600000
G1 Z-0.466667
G0 Z1.000000
G0 X23.300000 Y17.600000
G1 Z-0.388235
G0 Z1.000000
G0 X24.300000 Y17.600000
G1 Z-0.394118
G0 Z1.000000
G0 X25.300000 Y17.600000
G1 Z-0.311765
G0 Z1.000000
G0 X27.300000 Y17.600000
G1 Z-0.354902
G0 Z1.000000
G0 X35.300000 Y17.600000
G1 Z-0.362745
G0 Z1.000000
G0 X36.300000 Y17.600000
G1 Z-0.500000
G0 Z1.000000
G0 X37.300000 Y17.600000
G1 Z-0.335294
G0 Z1.000000
G0 X43.300000 Y17.600000
G1 Z-0.303922
G0 Z1.000000
G0 X50.300000 Y17.600000
G1 Z-0.315686
G0 Z1.000000
G0 X16.300000 Y18.600000
G1 Z-0.454902
G0 Z1.000000
G0 X17.300000 Y18.600000
G1 Z-0.500000
G0 Z1.000000
G0 X18.300000 Y18.600000
G1 Z-0.498039
G0 Z1.000000
G0 X19.300000 Y18.600000
G1 Z-0.498039
G0 Z1.000000
G0 X20.300000 Y18.600000
G1 Z-0.474510
G0 Z1.000000
G0 X21.300000 Y18.600000
G1 Z-0.486275
G0 Z1.000000
G0 X22.300000 Y18.600000
G1 Z-0.500000
G0 Z1.000000
G0 X23.300000 Y18.600000
G1 Z-0.468627
G0 Z1.000000
G0 X24.300000 Y18.600000
G1 Z-0.421569
G0 Z1.000000
G0 X25.300000 Y18.600000
G1 Z-0.335294
G0 Z1.000000
G0 X27.300000 Y18.600000
G1 Z-0.462745
G0 Z1.000000
G0 X32.300000 Y18.600000
G1 Z-0.321569
G0 Z1.000000
G0 X34.300000 Y18.600000
G1 Z-0.419608
G0 Z1.000000
G0 X35.300000 Y18.600000
G1 Z-0.500000
G0 Z1.000000
G0 X36.300000 Y18.600000
G1 Z-0.441176
G0 Z1.000000
G0 X49.300000 Y18.600000
G1 Z-0.317647
G0 Z1.000000
G0 X50.300000 Y18.600000
G1 Z-0.347059
G0 Z1.000000
G0 X15.300000 Y19.600000
G1 Z-0.500000
G0 Z1.000000
G0 X16.300000 Y19.600000
G1 Z-0.498039
G0 Z1.000000
G0 X17.300000 Y19.600000
G1 Z-0.500000
G0 Z1.000000
G0 X18.300000 Y19.600000
G1 Z-0.498039
G0 Z1.000000
G0 X19.300000 Y19.600000
G1 Z-0.498039
G0 Z1.000000
G0 X20.300000 Y19.600000
G1 Z-0.500000
G0 Z1.000000
G0 X21.300000 Y19.600000
G1 Z-0.476471
G0 Z1.000000
G0 X22.300000 Y19.600000
G1 Z-0.500000
G0 Z1.000000
G0 X23.300000 Y19.600000
G1 Z-0.498039
G0 Z1.000000
G0 X24.300000 Y19.600000
G1 Z-0.482353
G0 Z1.000000
G0 X25.300000 Y19.600000
G1 Z-0.362745
G0 Z1.000000
G0 X27.300000 Y19.600000
G1 Z-0.360784
G0 Z1.000000
G0 X33.300000 Y19.600000
G1 Z-0.454902
G0 Z1.000000
G0 X34.300000 Y19.600000
G1 Z-0.500000
G0 Z1.000000
G0 X35.300000 Y19.600000
G1 Z-0.441176
G0 Z1.000000
G0 X36.300000 Y19.600000
G1 Z-0.362745
G0 Z1.000000
G0 X49.300000 Y19.600000
G1 Z-0.311765
G0 Z1.000000
G0 X50.300000 Y19.600000
G1 Z-0.323529
G0 Z1.000000
G0 X8.300000 Y20.600000
G1 Z-0.301961
G0 Z1.000000
G0 X13.300000 Y20.600000
G1 Z-0.494118
G0 Z1.000000
G0 X14.300000 Y20.600000
G1 Z-0.500000
G0 Z1.000000
G0 X15.300000 Y20.600000
G1 Z-0.500000
G0 Z1.000000
G0 X16.300000 Y20.600000
G1 Z-0.500000
G0 Z1.000000
G0 X17.300000 Y20.600000
G1 Z-0.494118
G0 Z1.000000
G0 X18.300000 Y20.600000
G1 Z-0.500000
G0 Z1.000000
G0 X19.300000 Y20.600000
G1 Z-0.496078
G0 Z1.000000
G0 X20.300000 Y20.600000
G1 Z-0.354902
G0 Z1.000000
G0 X21.300000 Y20.600000
G1 Z-0.480392
G0 Z1.000000
G0 X22.300000 Y20.600000
G1 Z-0.500000
G0 Z1.000000
G0 X23.300000 Y20.600000
G1 Z-0.498039
G0 Z1.000000
G0 X24.300000 Y20.600000
G1 Z-0.500000
G0 Z1.000000
G0 X25.300000 Y20.600000
G1 Z-0.484314
G0 Z1.000000
G0 X26.300000 Y20.600000
G1 Z-0.400000
G0 Z1.000000
G0 X35.300000 Y20.600000
G1 Z-0.386275
G0 Z1.000000
G0 X36.300000 Y20.600000
G1 Z-0.415686
G0 Z1.000000
G0 X49.300000 Y20.600000
G1 Z-0.321569
G0 Z1.000000
G0 X50.300000 Y20.600000
G1 Z-0.349020
G0 Z1.000000
(Add here Gcode to clean the head)
(Something like G00 X... Y...)
(Machine will go cleaning each "row", or after reaching some "sum")
G0 X12.300000 Y21.600000
G1 Z-0.500000
G0 Z1.000000
G0 X13.300000 Y21.600000
G1 Z-0.498039
G0 Z1.000000
G0 X14.300000 Y21.600000
G1 Z-0.500000
G0 Z1.000000
G0 X15.300000 Y21.600000
G1 Z-0.500000
G0 Z1.000000
G0 X16.300000 Y21.600000
G1 Z-0.500000
G0 Z1.000000
G0 X17.300000 Y21.600000
G1 Z-0.488235
G0 Z1.000000
G0 X18.300000 Y21.600000
G1 Z-0.462745
G0 Z1.000000
G0 X19.300000 Y21.600000
G1 Z-0.466667
G0 Z1.000000
G0 X20.300000 Y21.600000
G1 Z-0.476471
G0 Z1.000000
G0 X21.300000 Y21.600000
G1 Z-0.341176
G0 Z1.000000
G0 X22.300000 Y21.600000
G1 Z-0.466667
G0 Z1.000000
G0 X23.300000 Y21.600000
G1 Z-0.496078
G0 Z1.000000
G0 X24.300000 Y21.600000
G1 Z-0.500000
G0 Z1.000000
G0 X34.300000 Y21.600000
G1 Z-0.378431
G0 Z1.000000
G0 X35.300000 Y21.600000
G1 Z-0.450980
G0 Z1.000000
G0 X36.300000 Y21.600000
G1 Z-0.419608
G0 Z1.000000
G0 X50.300000 Y21.600000
G1 Z-0.331373
G0 Z1.000000
G0 X11.300000 Y22.600000
G1 Z-0.500000
G0 Z1.000000
G0 X12.300000 Y22.600000
G1 Z-0.500000
G0 Z1.000000
G0 X13.300000 Y22.600000
G1 Z-0.500000
G0 Z1.000000
G0 X14.300000 Y22.600000
G1 Z-0.500000
G0 Z1.000000
G0 X15.300000 Y22.600000
G1 Z-0.500000
G0 Z1.000000
G0 X16.300000 Y22.600000
G1 Z-0.498039
G0 Z1.000000
G0 X17.300000 Y22.600000
G1 Z-0.500000
G0 Z1.000000
G0 X18.300000 Y22.600000
G1 Z-0.500000
G0 Z1.000000
G0 X19.300000 Y22.600000
G1 Z-0.498039
G0 Z1.000000
G0 X20.300000 Y22.600000
G1 Z-0.498039
G0 Z1.000000
G0 X21.300000 Y22.600000
G1 Z-0.500000
G0 Z1.000000
G0 X22.300000 Y22.600000
G1 Z-0.500000
G0 Z1.000000
G0 X23.300000 Y22.600000
G1 Z-0.488235
G0 Z1.000000
G0 X24.300000 Y22.600000
G1 Z-0.425490
G0 Z1.000000
G0 X25.300000 Y22.600000
G1 Z-0.435294
G0 Z1.000000
G0 X26.300000 Y22.600000
G1 Z-0.405882
G0 Z1.000000
G0 X27.300000 Y22.600000
G1 Z-0.472549
G0 Z1.000000
G0 X28.300000 Y22.600000
G1 Z-0.476471
G0 Z1.000000
G0 X33.300000 Y22.600000
G1 Z-0.362745
G0 Z1.000000
G0 X34.300000 Y22.600000
G1 Z-0.415686
G0 Z1.000000
G0 X35.300000 Y22.600000
G1 Z-0.460784
G0 Z1.000000
G0 X36.300000 Y22.600000
G1 Z-0.429412
G0 Z1.000000
G0 X49.300000 Y22.600000
G1 Z-0.323529
G0 Z1.000000
G0 X50.300000 Y22.600000
G1 Z-0.325490
G0 Z1.000000
G0 X10.300000 Y23.600000
G1 Z-0.443137
G0 Z1.000000
G0 X11.300000 Y23.600000
G1 Z-0.498039
G0 Z1.000000
G0 X12.300000 Y23.600000
G1 Z-0.500000
G0 Z1.000000
G0 X13.300000 Y23.600000
G1 Z-0.500000
G0 Z1.000000
G0 X14.300000 Y23.600000
G1 Z-0.500000
G0 Z1.000000
G0 X15.300000 Y23.600000
G1 Z-0.500000
G0 Z1.000000
G0 X16.300000 Y23.600000
G1 Z-0.500000
G0 Z1.000000
G0 X17.300000 Y23.600000
G1 Z-0.500000
G0 Z1.000000
G0 X18.300000 Y23.600000
G1 Z-0.500000
G0 Z1.000000
G0 X19.300000 Y23.600000
G1 Z-0.500000
G0 Z1.000000
G0 X20.300000 Y23.600000
G1 Z-0.500000
G0 Z1.000000
G0 X21.300000 Y23.600000
G1 Z-0.500000
G0 Z1.000000
G0 X22.300000 Y23.600000
G1 Z-0.500000
G0 Z1.000000
G0 X23.300000 Y23.600000
G1 Z-0.500000
G0 Z1.000000
G0 X24.300000 Y23.600000
G1 Z-0.496078
G0 Z1.000000
G0 X25.300000 Y23.600000
G1 Z-0.445098
G0 Z1.000000
G0 X26.300000 Y23.600000
G1 Z-0.500000
G0 Z1.000000
G0 X27.300000 Y23.600000
G1 Z-0.498039
G0 Z1.000000
G0 X28.300000 Y23.600000
G1 Z-0.492157
G0 Z1.000000
G0 X29.300000 Y23.600000
G1 Z-0.394118
G0 Z1.000000
G0 X33.300000 Y23.600000
G1 Z-0.454902
G0 Z1.000000
G0 X34.300000 Y23.600000
G1 Z-0.500000
G0 Z1.000000
G0 X35.300000 Y23.600000
G1 Z-0.500000
G0 Z1.000000
G0 X36.300000 Y23.600000
G1 Z-0.454902
G0 Z1.000000
G0 X37.300000 Y23.600000
G1 Z-0.452941
G0 Z1.000000
G0 X49.300000 Y23.600000
G1 Z-0.309804
G0 Z1.000000
G0 X10.300000 Y24.600000
G1 Z-0.500000
G0 Z1.000000
G0 X11.300000 Y24.600000
G1 Z-0.500000
G0 Z1.000000
G0 X12.300000 Y24.600000
G1 Z-0.500000
G0 Z1.000000
G0 X13.300000 Y24.600000
G1 Z-0.500000
G0 Z1.000000
G0 X14.300000 Y24.600000
G1 Z-0.498039
G0 Z1.000000
G0 X15.300000 Y24.600000
G1 Z-0.498039
G0 Z1.000000
G0 X16.300000 Y24.600000
G1 Z-0.500000
G0 Z1.000000
G0 X17.300000 Y24.600000
G1 Z-0.500000
G0 Z1.000000
G0 X18.300000 Y24.600000
G1 Z-0.500000
G0 Z1.000000
G0 X19.300000 Y24.600000
G1 Z-0.500000
G0 Z1.000000
G0 X20.300000 Y24.600000
G1 Z-0.500000
G0 Z1.000000
G0 X21.300000 Y24.600000
G1 Z-0.500000
G0 Z1.000000
G0 X22.300000 Y24.600000
G1 Z-0.500000
G0 Z1.000000
G0 X23.300000 Y24.600000
G1 Z-0.498039
G0 Z1.000000
G0 X24.300000 Y24.600000
G1 Z-0.474510
G0 Z1.000000
G0 X25.300000 Y24.600000
G1 Z-0.443137
G0 Z1.000000
G0 X26.300000 Y24.600000
G1 Z-0.500000
G0 Z1.000000
G0 X27.300000 Y24.600000
G1 Z-0.500000
G0 Z1.000000
G0 X28.300000 Y24.600000
G1 Z-0.498039
G0 Z1.000000
G0 X29.300000 Y24.600000
G1 Z-0.500000
G0 Z1.000000
G0 X30.300000 Y24.600000
G1 Z-0.301961
G0 Z1.000000
G0 X33.300000 Y24.600000
G1 Z-0.354902
G0 Z1.000000
G0 X34.300000 Y24.600000
G1 Z-0.500000
G0 Z1.000000
G0 X35.300000 Y24.600000
G1 Z-0.500000
G0 Z1.000000
G0 X36.300000 Y24.600000
G1 Z-0.500000
G0 Z1.000000
G0 X37.300000 Y24.600000
G1 Z-0.500000
G0 Z1.000000
G0 X38.300000 Y24.600000
G1 Z-0.301961
G0 Z1.000000
G0 X44.300000 Y24.600000
G1 Z-0.378431
G0 Z1.000000
G0 X49.300000 Y24.600000
G1 Z-0.313725
G0 Z1.000000
G0 X9.300000 Y25.600000
G1 Z-0.435294
G0 Z1.000000
G0 X10.300000 Y25.600000
G1 Z-0.498039
G0 Z1.000000
G0 X11.300000 Y25.600000
G1 Z-0.500000
G0 Z1.000000
G0 X12.300000 Y25.600000
G1 Z-0.500000
G0 Z1.000000
G0 X13.300000 Y25.600000
G1 Z-0.500000
G0 Z1.000000
G0 X14.300000 Y25.600000
G1 Z-0.500000
G0 Z1.000000
G0 X15.300000 Y25.600000
G1 Z-0.500000
G0 Z1.000000
G0 X16.300000 Y25.600000
G1 Z-0.500000
G0 Z1.000000
G0 X17.300000 Y25.600000
G1 Z-0.500000
G0 Z1.000000
G0 X18.300000 Y25.600000
G1 Z-0.500000
G0 Z1.000000
G0 X19.300000 Y25.600000
G1 Z-0.500000
G0 Z1.000000
G0 X20.300000 Y25.600000
G1 Z-0.500000
G0 Z1.000000
G0 X21.300000 Y25.600000
G1 Z-0.500000
G0 Z1.000000
G0 X22.300000 Y25.600000
G1 Z-0.500000
G0 Z1.000000
G0 X23.300000 Y25.600000
G1 Z-0.486275
G0 Z1.000000
G0 X24.300000 Y25.600000
G1 Z-0.382353
G0 Z1.000000
G0 X25.300000 Y25.600000
G1 Z-0.472549
G0 Z1.000000
G0 X26.300000 Y25.600000
G1 Z-0.500000
G0 Z1.000000
G0 X27.300000 Y25.600000
G1 Z-0.500000
G0 Z1.000000
G0 X28.300000 Y25.600000
G1 Z-0.500000
G0 Z1.000000
G0 X29.300000 Y25.600000
G1 Z-0.500000
G0 Z1.000000
G0 X30.300000 Y25.600000
G1 Z-0.319608
G0 Z1.000000
G0 X34.300000 Y25.600000
G1 Z-0.500000
G0 Z1.000000
G0 X35.300000 Y25.600000
G1 Z-0.500000
G0 Z1.000000
G0 X36.300000 Y25.600000
G1 Z-0.500000
G0 Z1.000000
G0 X37.300000 Y25.600000
G1 Z-0.498039
G0 Z1.000000
G0 X38.300000 Y25.600000
G1 Z-0.447059
G0 Z1.000000
G0 X44.300000 Y25.600000
G1 Z-0.464706
G0 Z1.000000
G0 X49.300000 Y25.600000
G1 Z-0.303922
G0 Z1.000000
G0 X50.300000 Y25.600000
G1 Z-0.317647
G0 Z1.000000
G0 X9.300000 Y26.600000
G1 Z-0.500000
G0 Z1.000000
G0 X10.300000 Y26.600000
G1 Z-0.500000
G0 Z1.000000
G0 X11.300000 Y26.600000
G1 Z-0.500000
G0 Z1.000000
G0 X12.300000 Y26.600000
G1 Z-0.500000
G0 Z1.000000
G0 X13.300000 Y26.600000
G1 Z-0.500000
G0 Z1.000000
G0 X14.300000 Y26.600000
G1 Z-0.498039
G0 Z1.000000
G0 X15.300000 Y26.600000
G1 Z-0.498039
G0 Z1.000000
G0 X16.300000 Y26.600000
G1 Z-0.500000
G0 Z1.000000
G0 X17.300000 Y26.600000
G1 Z-0.500000
G0 Z1.000000
G0 X18.300000 Y26.600000
G1 Z-0.500000
G0 Z1.000000
G0 X19.300000 Y26.600000
G1 Z-0.500000
G0 Z1.000000
G0 X20.300000 Y26.600000
G1 Z-0.500000
G0 Z1.000000
G0 X21.300000 Y26.600000
G1 Z-0.500000
G0 Z1.000000
G0 X22.300000 Y26.600000
G1 Z-0.500000
G0 Z1.000000
G0 X23.300000 Y26.600000
G1 Z-0.480392
G0 Z1.000000
G0 X24.300000 Y26.600000
G1 Z-0.376471
G0 Z1.000000
G0 X25.300000 Y26.600000
G1 Z-0.478431
G0 Z1.000000
G0 X26.300000 Y26.600000
G1 Z-0.500000
G0 Z1.000000
G0 X27.300000 Y26.600000
G1 Z-0.500000
G0 Z1.000000
G0 X28.300000 Y26.600000
G1 Z-0.500000
G0 Z1.000000
G0 X29.300000 Y26.600000
G1 Z-0.500000
G0 Z1.000000
G0 X34.300000 Y26.600000
G1 Z-0.435294
G0 Z1.000000
G0 X35.300000 Y26.600000
G1 Z-0.500000
G0 Z1.000000
G0 X36.300000 Y26.600000
G1 Z-0.500000
G0 Z1.000000
G0 X37.300000 Y26.600000
G1 Z-0.500000
G0 Z1.000000
G0 X38.300000 Y26.600000
G1 Z-0.500000
G0 Z1.000000
G0 X44.300000 Y26.600000
G1 Z-0.376471
G0 Z1.000000
G0 X45.300000 Y26.600000
G1 Z-0.315686
G0 Z1.000000
G0 X49.300000 Y26.600000
G1 Z-0.321569
G0 Z1.000000
(Add here Gcode to clean the head)
(Something like G00 X... Y...)
(Machine will go cleaning each "row", or after reaching some "sum")
G0 X8.300000 Y27.600000
G1 Z-0.329412
G0 Z1.000000
G0 X9.300000 Y27.600000
G1 Z-0.480392
G0 Z1.000000
G0 X10.300000 Y27.600000
G1 Z-0.488235
G0 Z1.000000
G0 X11.300000 Y27.600000
G1 Z-0.498039
G0 Z1.000000
G0 X12.300000 Y27.600000
G1 Z-0.500000
G0 Z1.000000
G0 X13.300000 Y27.600000
G1 Z-0.500000
G0 Z1.000000
G0 X14.300000 Y27.600000
G1 Z-0.496078
G0 Z1.000000
G0 X15.300000 Y27.600000
G1 Z-0.498039
G0 Z1.000000
G0 X16.300000 Y27.600000
G1 Z-0.500000
G0 Z1.000000
G0 X17.300000 Y27.600000
G1 Z-0.500000
G0 Z1.000000
G0 X18.300000 Y27.600000
G1 Z-0.500000
G0 Z1.000000
G0 X19.300000 Y27.600000
G1 Z-0.500000
G0 Z1.000000
G0 X20.300000 Y27.600000
G1 Z-0.500000
G0 Z1.000000
G0 X21.300000 Y27.600000
G1 Z-0.500000
G0 Z1.000000
G0 X22.300000 Y27.600000
G1 Z-0.500000
G0 Z1.000000
G0 X23.300000 Y27.600000
G1 Z-0.409804
G0 Z1.000000
G0 X24.300000 Y27.600000
G1 Z-0.407843
G0 Z1.000000
G0 X25.300000 Y27.600000
G1 Z-0.492157
G0 Z1.000000
G0 X26.300000 Y27.600000
G1 Z-0.500000
G0 Z1.000000
G0 X27.300000 Y27.600000
G1 Z-0.500000
G0 Z1.000000
G0 X28.300000 Y27.600000
G1 Z-0.498039
G0 Z1.000000
G0 X29.300000 Y27.600000
G1 Z-0.474510
G0 Z1.000000
G0 X35.300000 Y27.600000
G1 Z-0.500000
G0 Z1.000000
G0 X36.300000 Y27.600000
G1 Z-0.498039
G0 Z1.000000
G0 X37.300000 Y27.600000
G1 Z-0.500000
G0 Z1.000000
G0 X38.300000 Y27.600000
G1 Z-0.498039
G0 Z1.000000
G0 X39.300000 Y27.600000
G1 Z-0.500000
G0 Z1.000000
G0 X40.300000 Y27.600000
G1 Z-0.327451
G0 Z1.000000
G0 X44.300000 Y27.600000
G1 Z-0.337255
G0 Z1.000000
G0 X45.300000 Y27.600000
G1 Z-0.366667
G0 Z1.000000
G0 X50.300000 Y27.600000
G1 Z-0.303922
G0 Z1.000000
G0 X8.300000 Y28.600000
G1 Z-0.449020
G0 Z1.000000
G0 X9.300000 Y28.600000
G1 Z-0.500000
G0 Z1.000000
G0 X10.300000 Y28.600000
G1 Z-0.496078
G0 Z1.000000
G0 X11.300000 Y28.600000
G1 Z-0.494118
G0 Z1.000000
G0 X12.300000 Y28.600000
G1 Z-0.500000
G0 Z1.000000
G0 X13.300000 Y28.600000
G1 Z-0.500000
G0 Z1.000000
G0 X14.300000 Y28.600000
G1 Z-0.500000
G0 Z1.000000
G0 X15.300000 Y28.600000
G1 Z-0.447059
G0 Z1.000000
G0 X16.300000 Y28.600000
G1 Z-0.500000
G0 Z1.000000
G0 X17.300000 Y28.600000
G1 Z-0.500000
G0 Z1.000000
G0 X18.300000 Y28.600000
G1 Z-0.500000
G0 Z1.000000
G0 X19.300000 Y28.600000
G1 Z-0.500000
G0 Z1.000000
G0 X20.300000 Y28.600000
G1 Z-0.500000
G0 Z1.000000
G0 X21.300000 Y28.600000
G1 Z-0.500000
G0 Z1.000000
G0 X22.300000 Y28.600000
G1 Z-0.500000
G0 Z1.000000
G0 X23.300000 Y28.600000
G1 Z-0.350980
G0 Z1.000000
G0 X24.300000 Y28.600000
G1 Z-0.401961
G0 Z1.000000
G0 X25.300000 Y28.600000
G1 Z-0.480392
G0 Z1.000000
G0 X26.300000 Y28.600000
G1 Z-0.500000
G0 Z1.000000
G0 X27.300000 Y28.600000
G1 Z-0.500000
G0 Z1.000000
G0 X28.300000 Y28.600000
G1 Z-0.421569
G0 Z1.000000
G0 X29.300000 Y28.600000
G1 Z-0.305882
G0 Z1.000000
G0 X35.300000 Y28.600000
G1 Z-0.364706
G0 Z1.000000
G0 X36.300000 Y28.600000
G1 Z-0.500000
G0 Z1.000000
G0 X37.300000 Y28.600000
G1 Z-0.500000
G0 Z1.000000
G0 X38.300000 Y28.600000
G1 Z-0.500000
G0 Z1.000000
G0 X39.300000 Y28.600000
G1 Z-0.500000
G0 Z1.000000
G0 X40.300000 Y28.600000
G1 Z-0.500000
G0 Z1.000000
G0 X44.300000 Y28.600000
G1 Z-0.374510
G0 Z1.000000
G0 X45.300000 Y28.600000
G1 Z-0.398039
G0 Z1.000000
G0 X8.300000 Y29.600000
G1 Z-0.500000
G0 Z1.000000
G0 X9.300000 Y29.600000
G1 Z-0.488235
G0 Z1.000000
G0 X10.300000 Y29.600000
G1 Z-0.492157
G0 Z1.000000
G0 X11.300000 Y29.600000
G1 Z-0.498039
G0 Z1.000000
G0 X12.300000 Y29.600000
G1 Z-0.500000
G0 Z1.000000
G0 X13.300000 Y29.600000
G1 Z-0.500000
G0 Z1.000000
G0 X14.300000 Y29.600000
G1 Z-0.498039
G0 Z1.000000
G0 X15.300000 Y29.600000
G1 Z-0.490196
G0 Z1.000000
G0 X16.300000 Y29.600000
G1 Z-0.500000
G0 Z1.000000
G0 X17.300000 Y29.600000
G1 Z-0.500000
G0 Z1.000000
G0 X18.300000 Y29.600000
G1 Z-0.500000
G0 Z1.000000
G0 X19.300000 Y29.600000
G1 Z-0.500000
G0 Z1.000000
G0 X20.300000 Y29.600000
G1 Z-0.500000
G0 Z1.000000
G0 X21.300000 Y29.600000
G1 Z-0.498039
G0 Z1.000000
G0 X22.300000 Y29.600000
G1 Z-0.490196
G0 Z1.000000
G0 X23.300000 Y29.600000
G1 Z-0.337255
G0 Z1.000000
G0 X24.300000 Y29.600000
G1 Z-0.376471
G0 Z1.000000
G0 X25.300000 Y29.600000
G1 Z-0.472549
G0 Z1.000000
G0 X26.300000 Y29.600000
G1 Z-0.500000
G0 Z1.000000
G0 X27.300000 Y29.600000
G1 Z-0.484314
G0 Z1.000000
G0 X28.300000 Y29.600000
G1 Z-0.313725
G0 Z1.000000
G0 X36.300000 Y29.600000
G1 Z-0.447059
G0 Z1.000000
G0 X37.300000 Y29.600000
G1 Z-0.498039
G0 Z1.000000
G0 X38.300000 Y29.600000
G1 Z-0.500000
G0 Z1.000000
G0 X39.300000 Y29.600000
G1 Z-0.500000
G0 Z1.000000
G0 X40.300000 Y29.600000
G1 Z-0.500000
G0 Z1.000000
G0 X41.300000 Y29.600000
G1 Z-0.464706
G0 Z1.000000
G0 X45.300000 Y29.600000
G1 Z-0.380392
G0 Z1.000000
G0 X8.300000 Y30.600000
G1 Z-0.500000
G0 Z1.000000
G0 X9.300000 Y30.600000
G1 Z-0.498039
G0 Z1.000000
G0 X10.300000 Y30.600000
G1 Z-0.500000
G0 Z1.000000
G0 X11.300000 Y30.600000
G1 Z-0.500000
G0 Z1.000000
G0 X12.300000 Y30.600000
G1 Z-0.500000
G0 Z1.000000
G0 X13.300000 Y30.600000
G1 Z-0.500000
G0 Z1.000000
G0 X14.300000 Y30.600000
G1 Z-0.498039
G0 Z1.000000
G0 X15.300000 Y30.600000
G1 Z-0.494118
G0 Z1.000000
G0 X16.300000 Y30.600000
G1 Z-0.500000
G0 Z1.000000
G0 X17.300000 Y30.600000
G1 Z-0.500000
G0 Z1.000000
G0 X18.300000 Y30.600000
G1 Z-0.500000
G0 Z1.000000
G0 X19.300000 Y30.600000
G1 Z-0.500000
G0 Z1.000000
G0 X20.300000 Y30.600000
G1 Z-0.500000
G0 Z1.000000
G0 X21.300000 Y30.600000
G1 Z-0.500000
G0 Z1.000000
G0 X22.300000 Y30.600000
G1 Z-0.400000
G0 Z1.000000
G0 X23.300000 Y30.600000
G1 Z-0.323529
G0 Z1.000000
G0 X24.300000 Y30.600000
G1 Z-0.415686
G0 Z1.000000
G0 X25.300000 Y30.600000
G1 Z-0.462745
G0 Z1.000000
G0 X26.300000 Y30.600000
G1 Z-0.500000
G0 Z1.000000
G0 X27.300000 Y30.600000
G1 Z-0.494118
G0 Z1.000000
G0 X37.300000 Y30.600000
G1 Z-0.417647
G0 Z1.000000
G0 X38.300000 Y30.600000
G1 Z-0.482353
G0 Z1.000000
G0 X39.300000 Y30.600000
G1 Z-0.500000
G0 Z1.000000
G0 X40.300000 Y30.600000
G1 Z-0.498039
G0 Z1.000000
G0 X41.300000 Y30.600000
G1 Z-0.439216
G0 Z1.000000
G0 X44.300000 Y30.600000
G1 Z-0.435294
G0 Z1.000000
G0 X45.300000 Y30.600000
G1 Z-0.390196
G0 Z1.000000
G0 X7.300000 Y31.600000
G1 Z-0.345098
G0 Z1.000000
G0 X8.300000 Y31.600000
G1 Z-0.492157
G0 Z1.000000
G0 X9.300000 Y31.600000
G1 Z-0.500000
G0 Z1.000000
G0 X10.300000 Y31.600000
G1 Z-0.500000
G0 Z1.000000
G0 X11.300000 Y31.600000
G1 Z-0.500000
G0 Z1.000000
G0 X12.300000 Y31.600000
G1 Z-0.500000
G0 Z1.000000
G0 X13.300000 Y31.600000
G1 Z-0.500000
G0 Z1.000000
G0 X14.300000 Y31.600000
G1 Z-0.458824
G0 Z1.000000
G0 X15.300000 Y31.600000
G1 Z-0.500000
G0 Z1.000000
G0 X16.300000 Y31.600000
G1 Z-0.498039
G0 Z1.000000
G0 X17.300000 Y31.600000
G1 Z-0.500000
G0 Z1.000000
G0 X18.300000 Y31.600000
G1 Z-0.500000
G0 Z1.000000
G0 X19.300000 Y31.600000
G1 Z-0.498039
G0 Z1.000000
G0 X20.300000 Y31.600000
G1 Z-0.500000
G0 Z1.000000
G0 X21.300000 Y31.600000
G1 Z-0.439216
G0 Z1.000000
G0 X22.300000 Y31.600000
G1 Z-0.405882
G0 Z1.000000
G0 X23.300000 Y31.600000
G1 Z-0.333333
G0 Z1.000000
G0 X24.300000 Y31.600000
G1 Z-0.415686
G0 Z1.000000
G0 X25.300000 Y31.600000
G1 Z-0.454902
G0 Z1.000000
G0 X26.300000 Y31.600000
G1 Z-0.500000
G0 Z1.000000
G0 X27.300000 Y31.600000
G1 Z-0.484314
G0 Z1.000000
G0 X39.300000 Y31.600000
G1 Z-0.439216
G0 Z1.000000
G0 X40.300000 Y31.600000
G1 Z-0.378431
G0 Z1.000000
G0 X44.300000 Y31.600000
G1 Z-0.456863
G0 Z1.000000
G0 X45.300000 Y31.600000
G1 Z-0.392157
G0 Z1.000000
G0 X7.300000 Y32.600000
G1 Z-0.378431
G0 Z1.000000
G0 X8.300000 Y32.600000
G1 Z-0.500000
G0 Z1.000000
G0 X9.300000 Y32.600000
G1 Z-0.500000
G0 Z1.000000
G0 X10.300000 Y32.600000
G1 Z-0.500000
G0 Z1.000000
G0 X11.300000 Y32.600000
G1 Z-0.500000
G0 Z1.000000
G0 X12.300000 Y32.600000
G1 Z-0.500000
G0 Z1.000000
G0 X13.300000 Y32.600000
G1 Z-0.500000
G0 Z1.000000
G0 X14.300000 Y32.600000
G1 Z-0.374510
G0 Z1.000000
G0 X15.300000 Y32.600000
G1 Z-0.498039
G0 Z1.000000
G0 X16.300000 Y32.600000
G1 Z-0.500000
G0 Z1.000000
G0 X17.300000 Y32.600000
G1 Z-0.494118
G0 Z1.000000
G0 X18.300000 Y32.600000
G1 Z-0.449020
G0 Z1.000000
G0 X19.300000 Y32.600000
G1 Z-0.449020
G0 Z1.000000
G0 X20.300000 Y32.600000
G1 Z-0.500000
G0 Z1.000000
G0 X21.300000 Y32.600000
G1 Z-0.411765
G0 Z1.000000
G0 X22.300000 Y32.600000
G1 Z-0.450980
G0 Z1.000000
G0 X23.300000 Y32.600000
G1 Z-0.343137
G0 Z1.000000
G0 X24.300000 Y32.600000
G1 Z-0.396078
G0 Z1.000000
G0 X25.300000 Y32.600000
G1 Z-0.476471
G0 Z1.000000
G0 X26.300000 Y32.600000
G1 Z-0.500000
G0 Z1.000000
G0 X27.300000 Y32.600000
G1 Z-0.372549
G0 Z1.000000
G0 X44.300000 Y32.600000
G1 Z-0.380392
G0 Z1.000000
G0 X45.300000 Y32.600000
G1 Z-0.417647
G0 Z1.000000
G0 X7.300000 Y33.600000
G1 Z-0.388235
G0 Z1.000000
G0 X8.300000 Y33.600000
G1 Z-0.500000
G0 Z1.000000
G0 X9.300000 Y33.600000
G1 Z-0.500000
G0 Z1.000000
G0 X10.300000 Y33.600000
G1 Z-0.500000
G0 Z1.000000
G0 X11.300000 Y33.600000
G1 Z-0.500000
G0 Z1.000000
G0 X12.300000 Y33.600000
G1 Z-0.500000
G0 Z1.000000
G0 X13.300000 Y33.600000
G1 Z-0.500000
G0 Z1.000000
G0 X14.300000 Y33.600000
G1 Z-0.409804
G0 Z1.000000
G0 X15.300000 Y33.600000
G1 Z-0.460784
G0 Z1.000000
G0 X16.300000 Y33.600000
G1 Z-0.423529
G0 Z1.000000
G0 X17.300000 Y33.600000
G1 Z-0.407843
G0 Z1.000000
G0 X18.300000 Y33.600000
G1 Z-0.449020
G0 Z1.000000
(Add here Gcode to clean the head)
(Something like G00 X... Y...)
(Machine will go cleaning each "row", or after reaching some "sum")
G0 X19.300000 Y33.600000
G1 Z-0.476471
G0 Z1.000000
G0 X20.300000 Y33.600000
G1 Z-0.452941
G0 Z1.000000
G0 X21.300000 Y33.600000
G1 Z-0.435294
G0 Z1.000000
G0 X22.300000 Y33.600000
G1 Z-0.456863
G0 Z1.000000
G0 X23.300000 Y33.600000
G1 Z-0.427451
G0 Z1.000000
G0 X24.300000 Y33.600000
G1 Z-0.500000
G0 Z1.000000
G0 X25.300000 Y33.600000
G1 Z-0.472549
G0 Z1.000000
G0 X26.300000 Y33.600000
G1 Z-0.480392
G0 Z1.000000
G0 X44.300000 Y33.600000
G1 Z-0.323529
G0 Z1.000000
G0 X45.300000 Y33.600000
G1 Z-0.415686
G0 Z1.000000
G0 X49.300000 Y33.600000
G1 Z-0.307843
G0 Z1.000000
G0 X7.300000 Y34.600000
G1 Z-0.454902
G0 Z1.000000
G0 X8.300000 Y34.600000
G1 Z-0.500000
G0 Z1.000000
G0 X9.300000 Y34.600000
G1 Z-0.492157
G0 Z1.000000
G0 X10.300000 Y34.600000
G1 Z-0.433333
G0 Z1.000000
G0 X11.300000 Y34.600000
G1 Z-0.498039
G0 Z1.000000
G0 X12.300000 Y34.600000
G1 Z-0.500000
G0 Z1.000000
G0 X13.300000 Y34.600000
G1 Z-0.500000
G0 Z1.000000
G0 X14.300000 Y34.600000
G1 Z-0.331373
G0 Z1.000000
G0 X15.300000 Y34.600000
G1 Z-0.425490
G0 Z1.000000
G0 X16.300000 Y34.600000
G1 Z-0.343137
G0 Z1.000000
G0 X17.300000 Y34.600000
G1 Z-0.427451
G0 Z1.000000
G0 X18.300000 Y34.600000
G1 Z-0.476471
G0 Z1.000000
G0 X19.300000 Y34.600000
G1 Z-0.433333
G0 Z1.000000
G0 X20.300000 Y34.600000
G1 Z-0.452941
G0 Z1.000000
G0 X21.300000 Y34.600000
G1 Z-0.460784
G0 Z1.000000
G0 X22.300000 Y34.600000
G1 Z-0.498039
G0 Z1.000000
G0 X23.300000 Y34.600000
G1 Z-0.307843
G0 Z1.000000
G0 X25.300000 Y34.600000
G1 Z-0.358824
G0 Z1.000000
G0 X26.300000 Y34.600000
G1 Z-0.445098
G0 Z1.000000
G0 X45.300000 Y34.600000
G1 Z-0.415686
G0 Z1.000000
G0 X7.300000 Y35.600000
G1 Z-0.425490
G0 Z1.000000
G0 X8.300000 Y35.600000
G1 Z-0.490196
G0 Z1.000000
G0 X9.300000 Y35.600000
G1 Z-0.498039
G0 Z1.000000
G0 X10.300000 Y35.600000
G1 Z-0.500000
G0 Z1.000000
G0 X11.300000 Y35.600000
G1 Z-0.500000
G0 Z1.000000
G0 X12.300000 Y35.600000
G1 Z-0.500000
G0 Z1.000000
G0 X13.300000 Y35.600000
G1 Z-0.498039
G0 Z1.000000
G0 X14.300000 Y35.600000
G1 Z-0.500000
G0 Z1.000000
G0 X15.300000 Y35.600000
G1 Z-0.498039
G0 Z1.000000
G0 X16.300000 Y35.600000
G1 Z-0.492157
G0 Z1.000000
G0 X17.300000 Y35.600000
G1 Z-0.496078
G0 Z1.000000
G0 X18.300000 Y35.600000
G1 Z-0.496078
G0 Z1.000000
G0 X19.300000 Y35.600000
G1 Z-0.492157
G0 Z1.000000
G0 X20.300000 Y35.600000
G1 Z-0.498039
G0 Z1.000000
G0 X21.300000 Y35.600000
G1 Z-0.496078
G0 Z1.000000
G0 X22.300000 Y35.600000
G1 Z-0.500000
G0 Z1.000000
G0 X23.300000 Y35.600000
G1 Z-0.490196
G0 Z1.000000
G0 X24.300000 Y35.600000
G1 Z-0.445098
G0 Z1.000000
G0 X25.300000 Y35.600000
G1 Z-0.494118
G0 Z1.000000
G0 X26.300000 Y35.600000
G1 Z-0.386275
G0 Z1.000000
G0 X44.300000 Y35.600000
G1 Z-0.341176
G0 Z1.000000
G0 X45.300000 Y35.600000
G1 Z-0.413725
G0 Z1.000000
G0 X7.300000 Y36.600000
G1 Z-0.492157
G0 Z1.000000
G0 X8.300000 Y36.600000
G1 Z-0.476471
G0 Z1.000000
G0 X9.300000 Y36.600000
G1 Z-0.488235
G0 Z1.000000
G0 X10.300000 Y36.600000
G1 Z-0.500000
G0 Z1.000000
G0 X11.300000 Y36.600000
G1 Z-0.500000
G0 Z1.000000
G0 X12.300000 Y36.600000
G1 Z-0.500000
G0 Z1.000000
G0 X13.300000 Y36.600000
G1 Z-0.500000
G0 Z1.000000
G0 X14.300000 Y36.600000
G1 Z-0.500000
G0 Z1.000000
G0 X15.300000 Y36.600000
G1 Z-0.500000
G0 Z1.000000
G0 X16.300000 Y36.600000
G1 Z-0.498039
G0 Z1.000000
G0 X17.300000 Y36.600000
G1 Z-0.500000
G0 Z1.000000
G0 X18.300000 Y36.600000
G1 Z-0.500000
G0 Z1.000000
G0 X19.300000 Y36.600000
G1 Z-0.500000
G0 Z1.000000
G0 X20.300000 Y36.600000
G1 Z-0.500000
G0 Z1.000000
G0 X21.300000 Y36.600000
G1 Z-0.454902
G0 Z1.000000
G0 X22.300000 Y36.600000
G1 Z-0.478431
G0 Z1.000000
G0 X23.300000 Y36.600000
G1 Z-0.500000
G0 Z1.000000
G0 X24.300000 Y36.600000
G1 Z-0.462745
G0 Z1.000000
G0 X25.300000 Y36.600000
G1 Z-0.496078
G0 Z1.000000
G0 X26.300000 Y36.600000
G1 Z-0.409804
G0 Z1.000000
G0 X44.300000 Y36.600000
G1 Z-0.433333
G0 Z1.000000
G0 X45.300000 Y36.600000
G1 Z-0.376471
G0 Z1.000000
G0 X7.300000 Y37.600000
G1 Z-0.403922
G0 Z1.000000
G0 X8.300000 Y37.600000
G1 Z-0.458824
G0 Z1.000000
G0 X9.300000 Y37.600000
G1 Z-0.492157
G0 Z1.000000
G0 X10.300000 Y37.600000
G1 Z-0.498039
G0 Z1.000000
G0 X11.300000 Y37.600000
G1 Z-0.490196
G0 Z1.000000
G0 X12.300000 Y37.600000
G1 Z-0.498039
G0 Z1.000000
G0 X13.300000 Y37.600000
G1 Z-0.492157
G0 Z1.000000
G0 X14.300000 Y37.600000
G1 Z-0.500000
G0 Z1.000000
G0 X15.300000 Y37.600000
G1 Z-0.500000
G0 Z1.000000
G0 X16.300000 Y37.600000
G1 Z-0.500000
G0 Z1.000000
G0 X17.300000 Y37.600000
G1 Z-0.492157
G0 Z1.000000
G0 X18.300000 Y37.600000
G1 Z-0.498039
G0 Z1.000000
G0 X19.300000 Y37.600000
G1 Z-0.500000
G0 Z1.000000
G0 X20.300000 Y37.600000
G1 Z-0.500000
G0 Z1.000000
G0 X21.300000 Y37.600000
G1 Z-0.425490
G0 Z1.000000
G0 X22.300000 Y37.600000
G1 Z-0.417647
G0 Z1.000000
G0 X23.300000 Y37.600000
G1 Z-0.498039
G0 Z1.000000
G0 X24.300000 Y37.600000
G1 Z-0.500000
G0 Z1.000000
G0 X25.300000 Y37.600000
G1 Z-0.494118
G0 Z1.000000
G0 X26.300000 Y37.600000
G1 Z-0.400000
G0 Z1.000000
G0 X44.300000 Y37.600000
G1 Z-0.421569
G0 Z1.000000
G0 X45.300000 Y37.600000
G1 Z-0.388235
G0 Z1.000000
G0 X49.300000 Y37.600000
G1 Z-0.303922
G0 Z1.000000
(Add here Gcode to clean the head)
(Something like G00 X... Y...)
(Machine will go cleaning each "row", or after reaching some "sum")
G0 X7.300000 Y38.600000
G1 Z-0.354902
G0 Z1.000000
G0 X8.300000 Y38.600000
G1 Z-0.386275
G0 Z1.000000
G0 X9.300000 Y38.600000
G1 Z-0.433333
G0 Z1.000000
G0 X10.300000 Y38.600000
G1 Z-0.500000
G0 Z1.000000
G0 X11.300000 Y38.600000
G1 Z-0.490196
G0 Z1.000000
G0 X12.300000 Y38.600000
G1 Z-0.500000
G0 Z1.000000
G0 X13.300000 Y38.600000
G1 Z-0.496078
G0 Z1.000000
G0 X14.300000 Y38.600000
G1 Z-0.500000
G0 Z1.000000
G0 X15.300000 Y38.600000
G1 Z-0.500000
G0 Z1.000000
G0 X16.300000 Y38.600000
G1 Z-0.498039
G0 Z1.000000
G0 X17.300000 Y38.600000
G1 Z-0.498039
G0 Z1.000000
G0 X18.300000 Y38.600000
G1 Z-0.500000
G0 Z1.000000
G0 X19.300000 Y38.600000
G1 Z-0.500000
G0 Z1.000000
G0 X20.300000 Y38.600000
G1 Z-0.500000
G0 Z1.000000
G0 X21.300000 Y38.600000
G1 Z-0.413725
G0 Z1.000000
G0 X22.300000 Y38.600000
G1 Z-0.425490
G0 Z1.000000
G0 X23.300000 Y38.600000
G1 Z-0.500000
G0 Z1.000000
G0 X24.300000 Y38.600000
G1 Z-0.486275
G0 Z1.000000
G0 X25.300000 Y38.600000
G1 Z-0.472549
G0 Z1.000000
G0 X26.300000 Y38.600000
G1 Z-0.319608
G0 Z1.000000
G0 X43.300000 Y38.600000
G1 Z-0.500000
G0 Z1.000000
G0 X44.300000 Y38.600000
G1 Z-0.374510
G0 Z1.000000
G0 X45.300000 Y38.600000
G1 Z-0.449020
G0 Z1.000000
G0 X49.300000 Y38.600000
G1 Z-0.311765
G0 Z1.000000
G0 X8.300000 Y39.600000
G1 Z-0.327451
G0 Z1.000000
G0 X9.300000 Y39.600000
G1 Z-0.339216
G0 Z1.000000
G0 X10.300000 Y39.600000
G1 Z-0.484314
G0 Z1.000000
G0 X11.300000 Y39.600000
G1 Z-0.478431
G0 Z1.000000
G0 X12.300000 Y39.600000
G1 Z-0.474510
G0 Z1.000000
G0 X13.300000 Y39.600000
G1 Z-0.421569
G0 Z1.000000
G0 X14.300000 Y39.600000
G1 Z-0.498039
G0 Z1.000000
G0 X15.300000 Y39.600000
G1 Z-0.466667
G0 Z1.000000
G0 X16.300000 Y39.600000
G1 Z-0.460784
G0 Z1.000000
G0 X17.300000 Y39.600000
G1 Z-0.470588
G0 Z1.000000
G0 X18.300000 Y39.600000
G1 Z-0.441176
G0 Z1.000000
G0 X19.300000 Y39.600000
G1 Z-0.400000
G0 Z1.000000
G0 X20.300000 Y39.600000
G1 Z-0.449020
G0 Z1.000000
G0 X21.300000 Y39.600000
G1 Z-0.356863
G0 Z1.000000
G0 X22.300000 Y39.600000
G1 Z-0.358824
G0 Z1.000000
G0 X23.300000 Y39.600000
G1 Z-0.492157
G0 Z1.000000
G0 X24.300000 Y39.600000
G1 Z-0.488235
G0 Z1.000000
G0 X25.300000 Y39.600000
G1 Z-0.417647
G0 Z1.000000
G0 X42.300000 Y39.600000
G1 Z-0.478431
G0 Z1.000000
G0 X43.300000 Y39.600000
G1 Z-0.500000
G0 Z1.000000
G0 X44.300000 Y39.600000
G1 Z-0.411765
G0 Z1.000000
G0 X45.300000 Y39.600000
G1 Z-0.474510
G0 Z1.000000
G0 X49.300000 Y39.600000
G1 Z-0.313725
G0 Z1.000000
G0 X10.300000 Y40.600000
G1 Z-0.380392
G0 Z1.000000
G0 X11.300000 Y40.600000
G1 Z-0.478431
G0 Z1.000000
G0 X12.300000 Y40.600000
G1 Z-0.468627
G0 Z1.000000
G0 X13.300000 Y40.600000
G1 Z-0.433333
G0 Z1.000000
G0 X14.300000 Y40.600000
G1 Z-0.476471
G0 Z1.000000
G0 X15.300000 Y40.600000
G1 Z-0.500000
G0 Z1.000000
G0 X16.300000 Y40.600000
G1 Z-0.494118
G0 Z1.000000
G0 X17.300000 Y40.600000
G1 Z-0.486275
G0 Z1.000000
G0 X18.300000 Y40.600000
G1 Z-0.462745
G0 Z1.000000
G0 X19.300000 Y40.600000
G1 Z-0.321569
G0 Z1.000000
G0 X22.300000 Y40.600000
G1 Z-0.343137
G0 Z1.000000
G0 X23.300000 Y40.600000
G1 Z-0.447059
G0 Z1.000000
G0 X24.300000 Y40.600000
G1 Z-0.311765
G0 Z1.000000
G0 X25.300000 Y40.600000
G1 Z-0.386275
G0 Z1.000000
G0 X41.300000 Y40.600000
G1 Z-0.482353
G0 Z1.000000
G0 X42.300000 Y40.600000
G1 Z-0.380392
G0 Z1.000000
G0 X43.300000 Y40.600000
G1 Z-0.411765
G0 Z1.000000
G0 X44.300000 Y40.600000
G1 Z-0.411765
G0 Z1.000000
G0 X45.300000 Y40.600000
G1 Z-0.472549
G0 Z1.000000
G0 X12.300000 Y41.600000
G1 Z-0.421569
G0 Z1.000000
G0 X13.300000 Y41.600000
G1 Z-0.364706
G0 Z1.000000
G0 X14.300000 Y41.600000
G1 Z-0.333333
G0 Z1.000000
G0 X15.300000 Y41.600000
G1 Z-0.341176
G0 Z1.000000
G0 X16.300000 Y41.600000
G1 Z-0.333333
G0 Z1.000000
G0 X17.300000 Y41.600000
G1 Z-0.319608
G0 Z1.000000
G0 X19.300000 Y41.600000
G1 Z-0.333333
G0 Z1.000000
G0 X20.300000 Y41.600000
G1 Z-0.315686
G0 Z1.000000
G0 X22.300000 Y41.600000
G1 Z-0.427451
G0 Z1.000000
G0 X23.300000 Y41.600000
G1 Z-0.500000
G0 Z1.000000
G0 X24.300000 Y41.600000
G1 Z-0.449020
G0 Z1.000000
G0 X25.300000 Y41.600000
G1 Z-0.407843
G0 Z1.000000
G0 X26.300000 Y41.600000
G1 Z-0.335294
G0 Z1.000000
G0 X40.300000 Y41.600000
G1 Z-0.500000
G0 Z1.000000
G0 X41.300000 Y41.600000
G1 Z-0.360784
G0 Z1.000000
G0 X42.300000 Y41.600000
G1 Z-0.470588
G0 Z1.000000
G0 X43.300000 Y41.600000
G1 Z-0.388235
G0 Z1.000000
G0 X44.300000 Y41.600000
G1 Z-0.480392
G0 Z1.000000
G0 X45.300000 Y41.600000
G1 Z-0.482353
G0 Z1.000000
G0 X49.300000 Y41.600000
G1 Z-0.317647
G0 Z1.000000
G0 X15.300000 Y42.600000
G1 Z-0.321569
G0 Z1.000000
G0 X16.300000 Y42.600000
G1 Z-0.307843
G0 Z1.000000
G0 X17.300000 Y42.600000
G1 Z-0.301961
G0 Z1.000000
G0 X18.300000 Y42.600000
G1 Z-0.335294
G0 Z1.000000
G0 X19.300000 Y42.600000
G1 Z-0.445098
G0 Z1.000000
G0 X20.300000 Y42.600000
G1 Z-0.350980
G0 Z1.000000
G0 X21.300000 Y42.600000
G1 Z-0.335294
G0 Z1.000000
G0 X22.300000 Y42.600000
G1 Z-0.431373
G0 Z1.000000
G0 X23.300000 Y42.600000
G1 Z-0.500000
G0 Z1.000000
G0 X24.300000 Y42.600000
G1 Z-0.480392
G0 Z1.000000
G0 X25.300000 Y42.600000
G1 Z-0.362745
G0 Z1.000000
(Add here Gcode to clean the head)
(Something like G00 X... Y...)
(Machine will go cleaning each "row", or after reaching some "sum")
G0 X41.300000 Y42.600000
G1 Z-0.435294
G0 Z1.000000
G0 X42.300000 Y42.600000
G1 Z-0.407843
G0 Z1.000000
G0 X43.300000 Y42.600000
G1 Z-0.323529
G0 Z1.000000
G0 X44.300000 Y42.600000
G1 Z-0.492157
G0 Z1.000000
G0 X45.300000 Y42.600000
G1 Z-0.478431
G0 Z1.000000
G0 X14.300000 Y43.600000
G1 Z-0.335294
G0 Z1.000000
G0 X15.300000 Y43.600000
G1 Z-0.325490
G0 Z1.000000
G0 X16.300000 Y43.600000
G1 Z-0.321569
G0 Z1.000000
G0 X17.300000 Y43.600000
G1 Z-0.364706
G0 Z1.000000
G0 X18.300000 Y43.600000
G1 Z-0.450980
G0 Z1.000000
G0 X19.300000 Y43.600000
G1 Z-0.427451
G0 Z1.000000
G0 X20.300000 Y43.600000
G1 Z-0.411765
G0 Z1.000000
G0 X21.300000 Y43.600000
G1 Z-0.307843
G0 Z1.000000
G0 X22.300000 Y43.600000
G1 Z-0.400000
G0 Z1.000000
G0 X23.300000 Y43.600000
G1 Z-0.500000
G0 Z1.000000
G0 X24.300000 Y43.600000
G1 Z-0.492157
G0 Z1.000000
G0 X25.300000 Y43.600000
G1 Z-0.333333
G0 Z1.000000
G0 X40.300000 Y43.600000
G1 Z-0.311765
G0 Z1.000000
G0 X41.300000 Y43.600000
G1 Z-0.478431
G0 Z1.000000
G0 X42.300000 Y43.600000
G1 Z-0.333333
G0 Z1.000000
G0 X43.300000 Y43.600000
G1 Z-0.358824
G0 Z1.000000
G0 X44.300000 Y43.600000
G1 Z-0.500000
G0 Z1.000000
G0 X45.300000 Y43.600000
G1 Z-0.429412
G0 Z1.000000
G0 X14.300000 Y44.600000
G1 Z-0.376471
G0 Z1.000000
G0 X15.300000 Y44.600000
G1 Z-0.341176
G0 Z1.000000
G0 X16.300000 Y44.600000
G1 Z-0.378431
G0 Z1.000000
G0 X17.300000 Y44.600000
G1 Z-0.486275
G0 Z1.000000
G0 X18.300000 Y44.600000
G1 Z-0.443137
G0 Z1.000000
G0 X19.300000 Y44.600000
G1 Z-0.450980
G0 Z1.000000
G0 X20.300000 Y44.600000
G1 Z-0.405882
G0 Z1.000000
G0 X21.300000 Y44.600000
G1 Z-0.331373
G0 Z1.000000
G0 X22.300000 Y44.600000
G1 Z-0.425490
G0 Z1.000000
G0 X23.300000 Y44.600000
G1 Z-0.500000
G0 Z1.000000
G0 X24.300000 Y44.600000
G1 Z-0.482353
G0 Z1.000000
G0 X37.300000 Y44.600000
G1 Z-0.421569
G0 Z1.000000
G0 X38.300000 Y44.600000
G1 Z-0.466667
G0 Z1.000000
G0 X39.300000 Y44.600000
G1 Z-0.431373
G0 Z1.000000
G0 X40.300000 Y44.600000
G1 Z-0.492157
G0 Z1.000000
G0 X41.300000 Y44.600000
G1 Z-0.423529
G0 Z1.000000
G0 X43.300000 Y44.600000
G1 Z-0.411765
G0 Z1.000000
G0 X44.300000 Y44.600000
G1 Z-0.468627
G0 Z1.000000
G0 X14.300000 Y45.600000
G1 Z-0.407843
G0 Z1.000000
G0 X15.300000 Y45.600000
G1 Z-0.409804
G0 Z1.000000
G0 X16.300000 Y45.600000
G1 Z-0.449020
G0 Z1.000000
G0 X17.300000 Y45.600000
G1 Z-0.488235
G0 Z1.000000
G0 X18.300000 Y45.600000
G1 Z-0.460784
G0 Z1.000000
G0 X19.300000 Y45.600000
G1 Z-0.460784
G0 Z1.000000
G0 X20.300000 Y45.600000
G1 Z-0.403922
G0 Z1.000000
G0 X22.300000 Y45.600000
G1 Z-0.398039
G0 Z1.000000
G0 X23.300000 Y45.600000
G1 Z-0.500000
G0 Z1.000000
G0 X24.300000 Y45.600000
G1 Z-0.484314
G0 Z1.000000
G0 X37.300000 Y45.600000
G1 Z-0.492157
G0 Z1.000000
G0 X40.300000 Y45.600000
G1 Z-0.372549
G0 Z1.000000
G0 X41.300000 Y45.600000
G1 Z-0.468627
G0 Z1.000000
G0 X42.300000 Y45.600000
G1 Z-0.407843
G0 Z1.000000
G0 X43.300000 Y45.600000
G1 Z-0.476471
G0 Z1.000000
G0 X44.300000 Y45.600000
G1 Z-0.413725
G0 Z1.000000
G0 X14.300000 Y46.600000
G1 Z-0.421569
G0 Z1.000000
G0 X15.300000 Y46.600000
G1 Z-0.435294
G0 Z1.000000
G0 X16.300000 Y46.600000
G1 Z-0.496078
G0 Z1.000000
G0 X17.300000 Y46.600000
G1 Z-0.490196
G0 Z1.000000
G0 X18.300000 Y46.600000
G1 Z-0.482353
G0 Z1.000000
G0 X19.300000 Y46.600000
G1 Z-0.437255
G0 Z1.000000
G0 X20.300000 Y46.600000
G1 Z-0.411765
G0 Z1.000000
G0 X21.300000 Y46.600000
G1 Z-0.325490
G0 Z1.000000
G0 X22.300000 Y46.600000
G1 Z-0.396078
G0 Z1.000000
G0 X23.300000 Y46.600000
G1 Z-0.500000
G0 Z1.000000
G0 X24.300000 Y46.600000
G1 Z-0.482353
G0 Z1.000000
(Add here Gcode to clean the head)
(Something like G00 X... Y...)
(Machine will go cleaning each "row", or after reaching some "sum")
G0 X37.300000 Y46.600000
G1 Z-0.347059
G0 Z1.000000
G0 X38.300000 Y46.600000
G1 Z-0.492157
G0 Z1.000000
G0 X39.300000 Y46.600000
G1 Z-0.378431
G0 Z1.000000
G0 X40.300000 Y46.600000
G1 Z-0.470588
G0 Z1.000000
G0 X41.300000 Y46.600000
G1 Z-0.494118
G0 Z1.000000
G0 X42.300000 Y46.600000
G1 Z-0.462745
G0 Z1.000000
G0 X43.300000 Y46.600000
G1 Z-0.500000
G0 Z1.000000
G0 X49.300000 Y46.600000
G1 Z-0.303922
G0 Z1.000000
G0 X14.300000 Y47.600000
G1 Z-0.400000
G0 Z1.000000
G0 X15.300000 Y47.600000
G1 Z-0.476471
G0 Z1.000000
G0 X16.300000 Y47.600000
G1 Z-0.468627
G0 Z1.000000
G0 X17.300000 Y47.600000
G1 Z-0.484314
G0 Z1.000000
G0 X18.300000 Y47.600000
G1 Z-0.456863
G0 Z1.000000
G0 X19.300000 Y47.600000
G1 Z-0.449020
G0 Z1.000000
G0 X20.300000 Y47.600000
G1 Z-0.407843
G0 Z1.000000
G0 X21.300000 Y47.600000
G1 Z-0.339216
G0 Z1.000000
G0 X22.300000 Y47.600000
G1 Z-0.370588
G0 Z1.000000
G0 X23.300000 Y47.600000
G1 Z-0.500000
G0 Z1.000000
G0 X24.300000 Y47.600000
G1 Z-0.433333
G0 Z1.000000
G0 X36.300000 Y47.600000
G1 Z-0.325490
G0 Z1.000000
G0 X37.300000 Y47.600000
G1 Z-0.388235
G0 Z1.000000
G0 X38.300000 Y47.600000
G1 Z-0.386275
G0 Z1.000000
G0 X39.300000 Y47.600000
G1 Z-0.486275
G0 Z1.000000
G0 X40.300000 Y47.600000
G1 Z-0.427451
G0 Z1.000000
G0 X41.300000 Y47.600000
G1 Z-0.413725
G0 Z1.000000
G0 X42.300000 Y47.600000
G1 Z-0.425490
G0 Z1.000000
G0 X43.300000 Y47.600000
G1 Z-0.317647
G0 Z1.000000
G0 X49.300000 Y47.600000
G1 Z-0.303922
G0 Z1.000000
G0 X14.300000 Y48.600000
G1 Z-0.390196
G0 Z1.000000
G0 X15.300000 Y48.600000
G1 Z-0.454902
G0 Z1.000000
G0 X16.300000 Y48.600000
G1 Z-0.498039
G0 Z1.000000
G0 X17.300000 Y48.600000
G1 Z-0.498039
G0 Z1.000000
G0 X18.300000 Y48.600000
G1 Z-0.476471
G0 Z1.000000
G0 X19.300000 Y48.600000
G1 Z-0.466667
G0 Z1.000000
G0 X20.300000 Y48.600000
G1 Z-0.425490
G0 Z1.000000
G0 X21.300000 Y48.600000
G1 Z-0.350980
G0 Z1.000000
G0 X22.300000 Y48.600000
G1 Z-0.349020
G0 Z1.000000
G0 X23.300000 Y48.600000
G1 Z-0.500000
G0 Z1.000000
G0 X24.300000 Y48.600000
G1 Z-0.380392
G0 Z1.000000
G0 X36.300000 Y48.600000
G1 Z-0.417647
G0 Z1.000000
G0 X37.300000 Y48.600000
G1 Z-0.305882
G0 Z1.000000
G0 X38.300000 Y48.600000
G1 Z-0.384314
G0 Z1.000000
G0 X39.300000 Y48.600000
G1 Z-0.356863
G0 Z1.000000
G0 X40.300000 Y48.600000
G1 Z-0.319608
G0 Z1.000000
G0 X41.300000 Y48.600000
G1 Z-0.311765
G0 Z1.000000
G0 X14.300000 Y49.600000
G1 Z-0.413725
G0 Z1.000000
G0 X15.300000 Y49.600000
G1 Z-0.441176
G0 Z1.000000
G0 X16.300000 Y49.600000
G1 Z-0.474510
G0 Z1.000000
G0 X17.300000 Y49.600000
G1 Z-0.498039
G0 Z1.000000
G0 X18.300000 Y49.600000
G1 Z-0.478431
G0 Z1.000000
G0 X19.300000 Y49.600000
G1 Z-0.480392
G0 Z1.000000
G0 X20.300000 Y49.600000
G1 Z-0.415686
G0 Z1.000000
G0 X21.300000 Y49.600000
G1 Z-0.349020
G0 Z1.000000
G0 X22.300000 Y49.600000
G1 Z-0.345098
G0 Z1.000000
G0 X23.300000 Y49.600000
G1 Z-0.500000
G0 Z1.000000
G0 X24.300000 Y49.600000
G1 Z-0.354902
G0 Z1.000000
G0 X36.300000 Y49.600000
G1 Z-0.337255
G0 Z1.000000
G0 X37.300000 Y49.600000
G1 Z-0.443137
G0 Z1.000000
G0 X14.300000 Y50.600000
G1 Z-0.425490
G0 Z1.000000
G0 X15.300000 Y50.600000
G1 Z-0.490196
G0 Z1.000000
G0 X16.300000 Y50.600000
G1 Z-0.470588
G0 Z1.000000
G0 X17.300000 Y50.600000
G1 Z-0.500000
G0 Z1.000000
G0 X18.300000 Y50.600000
G1 Z-0.474510
G0 Z1.000000
G0 X19.300000 Y50.600000
G1 Z-0.472549
G0 Z1.000000
G0 X20.300000 Y50.600000
G1 Z-0.394118
G0 Z1.000000
G0 X21.300000 Y50.600000
G1 Z-0.315686
G0 Z1.000000
G0 X22.300000 Y50.600000
G1 Z-0.352941
G0 Z1.000000
G0 X23.300000 Y50.600000
G1 Z-0.494118
G0 Z1.000000
G0 X24.300000 Y50.600000
G1 Z-0.366667
G0 Z1.000000
(Add here Gcode to clean the head)
(Something like G00 X... Y...)
(Machine will go cleaning each "row", or after reaching some "sum")
G0 X14.300000 Y51.600000
G1 Z-0.421569
G0 Z1.000000
G0 X15.300000 Y51.600000
G1 Z-0.460784
G0 Z1.000000
G0 X16.300000 Y51.600000
G1 Z-0.488235
G0 Z1.000000
G0 X17.300000 Y51.600000
G1 Z-0.496078
G0 Z1.000000
G0 X18.300000 Y51.600000
G1 Z-0.478431
G0 Z1.000000
G0 X19.300000 Y51.600000
G1 Z-0.468627
G0 Z1.000000
G0 X20.300000 Y51.600000
G1 Z-0.356863
G0 Z1.000000
G0 X22.300000 Y51.600000
G1 Z-0.317647
G0 Z1.000000
G0 X23.300000 Y51.600000
G1 Z-0.500000
G0 Z1.000000
G0 X24.300000 Y51.600000
G1 Z-0.380392
G0 Z1.000000
G0 X15.300000 Y52.600000
G1 Z-0.472549
G0 Z1.000000
G0 X16.300000 Y52.600000
G1 Z-0.484314
G0 Z1.000000
G0 X17.300000 Y52.600000
G1 Z-0.490196
G0 Z1.000000
G0 X18.300000 Y52.600000
G1 Z-0.468627
G0 Z1.000000
G0 X19.300000 Y52.600000
G1 Z-0.435294
G0 Z1.000000
G0 X20.300000 Y52.600000
G1 Z-0.329412
G0 Z1.000000
G0 X23.300000 Y52.600000
G1 Z-0.486275
G0 Z1.000000
G0 X24.300000 Y52.600000
G1 Z-0.364706
G0 Z1.000000
G0 X15.300000 Y53.600000
G1 Z-0.350980
G0 Z1.000000
G0 X16.300000 Y53.600000
G1 Z-0.454902
G0 Z1.000000
G0 X17.300000 Y53.600000
G1 Z-0.486275
G0 Z1.000000
G0 X18.300000 Y53.600000
G1 Z-0.470588
G0 Z1.000000
G0 X19.300000 Y53.600000
G1 Z-0.439216
G0 Z1.000000
G0 X20.300000 Y53.600000
G1 Z-0.321569
G0 Z1.000000
G0 X22.300000 Y53.600000
G1 Z-0.349020
G0 Z1.000000
G0 X23.300000 Y53.600000
G1 Z-0.484314
G0 Z1.000000
G0 X24.300000 Y53.600000
G1 Z-0.427451
G0 Z1.000000
(Add here Gcode to clean the head)
(Something like G00 X... Y...)
(Machine will go cleaning each "row", or after reaching some "sum")
G0 X15.300000 Y54.600000
G1 Z-0.356863
G0 Z1.000000
G0 X16.300000 Y54.600000
G1 Z-0.313725
G0 Z1.000000
G0 X17.300000 Y54.600000
G1 Z-0.319608
G0 Z1.000000
G0 X18.300000 Y54.600000
G1 Z-0.398039
G0 Z1.000000
G0 X19.300000 Y54.600000
G1 Z-0.407843
G0 Z1.000000
G0 X20.300000 Y54.600000
G1 Z-0.331373
G0 Z1.000000
G0 X23.300000 Y54.600000
G1 Z-0.472549
G0 Z1.000000
G0 X24.300000 Y54.600000
G1 Z-0.500000
G0 Z1.000000
(Footer start)
(Default footer)
M02